(.../eagleLibs/ULP/pcb-gcode.ulp)
(Copyright 2005 - 2012 by John Johnson)
(See readme.txt for licensing terms.)
(This file generated from the board:)
(.../EAGLE/projects/Jonica/schematic.brd)
(Current profile is .../eagleLibs/ULP/profiles/mach.pp  )
(This file generated 15/11/2018 13:57)
(Settings from pcb-machine.h)
(spindle on time = 5.0000)
(  Tool Size)
(0.2000  )
(spindle speed = 40000.0000)
(tool change at 0.0000  0.0000  12.7000 )
(feed rate xy = F50    )
(feed rate z  = F50    )
(Z Axis Settings)
(  High     Up        Down     Drill)
(5.0000  	5.0000  	-0.0250 	-1.0000 )
(Settings from pcb-defaults.h)
(isolate min = 0.5000)
(isolate max = 1.0000)
(isolate step = 0.1000)
(Generated top outlines, top drill, bottom outlines, )
(Unit of measure: mm)
(Metric Mode)
G21
(Absolute Coordinates)
G90
S40000
G00 Z5.0000  
G00 X0.0000  Y0.0000  
M03
G04 P5.000000
G00 X1.8717  Y5.5208  
G01 Z-0.0250 F50    
G01 X2.0226  Y5.3698  F50    
G01 X2.1920  Y5.2399  
G01 X2.3769  Y5.1331  
G01 X2.5741  Y5.0514  
G01 X2.7804  Y4.9962  
G01 X2.9920  Y4.9683  
G01 X5.2630  Y4.9683  
G01 X5.4746  Y4.9962  
G01 X5.6809  Y5.0514  
G01 X5.8781  Y5.1331  
G01 X6.0630  Y5.2399  
G01 X6.2324  Y5.3698  
G01 X6.3833  Y5.5208  
G01 X6.5133  Y5.6902  
G01 X6.6201  Y5.8751  
G01 X6.7018  Y6.0723  
G01 X6.7570  Y6.2786  
G01 X6.7849  Y6.4902  
G01 X6.7849  Y6.7038  
G01 X6.7570  Y6.9154  
G01 X6.7018  Y7.1216  
G01 X6.6201  Y7.3189  
G01 X6.5133  Y7.5038  
G01 X6.3833  Y7.6732  
G01 X6.2324  Y7.8241  
G01 X6.0630  Y7.9541  
G01 X5.8781  Y8.0609  
G01 X5.6809  Y8.1426  
G01 X5.4746  Y8.1978  
G01 X5.2630  Y8.2257  
G01 X2.9920  Y8.2257  
G01 X2.7804  Y8.1978  
G01 X2.5741  Y8.1426  
G01 X2.3769  Y8.0609  
G01 X2.1920  Y7.9541  
G01 X2.0226  Y7.8241  
G01 X1.8717  Y7.6732  
G01 X1.7417  Y7.5038  
G01 X1.6349  Y7.3189  
G01 X1.5532  Y7.1216  
G01 X1.4980  Y6.9154  
G01 X1.4701  Y6.7038  
G01 X1.4701  Y6.4902  
G01 X1.4980  Y6.2786  
G01 X1.5532  Y6.0723  
G01 X1.6349  Y5.8751  
G01 X1.7417  Y5.6902  
G01 X1.8717  Y5.5208  
G00 Z5.0000  
G00 X1.8717  Y10.5208 
G01 Z-0.0250 F50    
G01 X2.0226  Y10.3698 F50    
G01 X2.1920  Y10.2399 
G01 X2.3769  Y10.1331 
G01 X2.5741  Y10.0514 
G01 X2.7804  Y9.9962  
G01 X2.9920  Y9.9683  
G01 X5.2630  Y9.9683  
G01 X5.4746  Y9.9962  
G01 X5.6809  Y10.0514 
G01 X5.8781  Y10.1331 
G01 X6.0630  Y10.2399 
G01 X6.2324  Y10.3698 
G01 X6.3833  Y10.5208 
G01 X6.5133  Y10.6902 
G01 X6.6201  Y10.8751 
G01 X6.7018  Y11.0723 
G01 X6.7570  Y11.2786 
G01 X6.7849  Y11.4902 
G01 X6.7849  Y11.7037 
G01 X6.7570  Y11.9154 
G01 X6.7018  Y12.1217 
G01 X6.6201  Y12.3189 
G01 X6.5133  Y12.5038 
G01 X6.3833  Y12.6732 
G01 X6.2324  Y12.8241 
G01 X6.0630  Y12.9541 
G01 X5.8781  Y13.0609 
G01 X5.6809  Y13.1426 
G01 X5.4746  Y13.1978 
G01 X5.2630  Y13.2257 
G01 X2.9920  Y13.2257 
G01 X2.7804  Y13.1978 
G01 X2.5741  Y13.1426 
G01 X2.3769  Y13.0609 
G01 X2.1920  Y12.9541 
G01 X2.0226  Y12.8241 
G01 X1.8717  Y12.6732 
G01 X1.7417  Y12.5038 
G01 X1.6349  Y12.3189 
G01 X1.5532  Y12.1217 
G01 X1.4980  Y11.9154 
G01 X1.4701  Y11.7037 
G01 X1.4701  Y11.4902 
G01 X1.4980  Y11.2786 
G01 X1.5532  Y11.0723 
G01 X1.6349  Y10.8751 
G01 X1.7417  Y10.6902 
G01 X1.8717  Y10.5208 
G00 Z5.0000  
G00 X1.8717  Y15.5208 
G01 Z-0.0250 F50    
G01 X2.0226  Y15.3698 F50    
G01 X2.1920  Y15.2399 
G01 X2.3769  Y15.1331 
G01 X2.5741  Y15.0514 
G01 X2.7804  Y14.9962 
G01 X2.9920  Y14.9683 
G01 X5.2630  Y14.9683 
G01 X5.4746  Y14.9962 
G01 X5.6809  Y15.0514 
G01 X5.8781  Y15.1331 
G01 X6.0630  Y15.2399 
G01 X6.2324  Y15.3698 
G01 X6.3833  Y15.5208 
G01 X6.5133  Y15.6902 
G01 X6.6201  Y15.8751 
G01 X6.7018  Y16.0723 
G01 X6.7570  Y16.2786 
G01 X6.7849  Y16.4902 
G01 X6.7849  Y16.7037 
G01 X6.7570  Y16.9154 
G01 X6.7018  Y17.1216 
G01 X6.6201  Y17.3189 
G01 X6.5133  Y17.5038 
G01 X6.3833  Y17.6732 
G01 X6.2324  Y17.8241 
G01 X6.0630  Y17.9541 
G01 X5.8781  Y18.0609 
G01 X5.6809  Y18.1426 
G01 X5.4746  Y18.1978 
G01 X5.2630  Y18.2257 
G01 X2.9920  Y18.2257 
G01 X2.7804  Y18.1978 
G01 X2.5741  Y18.1426 
G01 X2.3769  Y18.0609 
G01 X2.1920  Y17.9541 
G01 X2.0226  Y17.8241 
G01 X1.8717  Y17.6732 
G01 X1.7417  Y17.5038 
G01 X1.6349  Y17.3189 
G01 X1.5532  Y17.1216 
G01 X1.4980  Y16.9154 
G01 X1.4701  Y16.7037 
G01 X1.4701  Y16.4902 
G01 X1.4980  Y16.2786 
G01 X1.5532  Y16.0723 
G01 X1.6349  Y15.8751 
G01 X1.7417  Y15.6902 
G01 X1.8717  Y15.5208 
G00 Z5.0000  
G00 X1.8717  Y20.5208 
G01 Z-0.0250 F50    
G01 X2.0226  Y20.3698 F50    
G01 X2.1920  Y20.2399 
G01 X2.3769  Y20.1331 
G01 X2.5741  Y20.0514 
G01 X2.7804  Y19.9962 
G01 X2.9920  Y19.9683 
G01 X5.2630  Y19.9683 
G01 X5.4746  Y19.9962 
G01 X5.6809  Y20.0514 
G01 X5.8781  Y20.1331 
G01 X6.0630  Y20.2399 
G01 X6.2324  Y20.3698 
G01 X6.3833  Y20.5208 
G01 X6.5133  Y20.6902 
G01 X6.6201  Y20.8751 
G01 X6.7018  Y21.0723 
G01 X6.7570  Y21.2786 
G01 X6.7849  Y21.4902 
G01 X6.7849  Y21.7037 
G01 X6.7570  Y21.9154 
G01 X6.7018  Y22.1216 
G01 X6.6201  Y22.3189 
G01 X6.5133  Y22.5038 
G01 X6.3833  Y22.6732 
G01 X6.2324  Y22.8241 
G01 X6.0630  Y22.9541 
G01 X5.8781  Y23.0609 
G01 X5.6809  Y23.1426 
G01 X5.4746  Y23.1978 
G01 X5.2630  Y23.2257 
G01 X2.9920  Y23.2257 
G01 X2.7804  Y23.1978 
G01 X2.5741  Y23.1426 
G01 X2.3769  Y23.0609 
G01 X2.1920  Y22.9541 
G01 X2.0226  Y22.8241 
G01 X1.8717  Y22.6732 
G01 X1.7417  Y22.5038 
G01 X1.6349  Y22.3189 
G01 X1.5532  Y22.1216 
G01 X1.4980  Y21.9154 
G01 X1.4701  Y21.7037 
G01 X1.4701  Y21.4902 
G01 X1.4980  Y21.2786 
G01 X1.5532  Y21.0723 
G01 X1.6349  Y20.8751 
G01 X1.7417  Y20.6902 
G01 X1.8717  Y20.5208 
G00 Z5.0000  
G00 X9.2806  Y20.4332 
G01 Z-0.0250 F50    
G01 X9.2806  Y20.2068 F50    
G01 X9.3160  Y19.9832 
G01 X9.3860  Y19.7679 
G01 X9.4887  Y19.5662 
G01 X9.6218  Y19.3831 
G01 X9.7819  Y19.2230 
G01 X9.9650  Y19.0899 
G01 X10.1667 Y18.9872 
G01 X10.3820 Y18.9172 
G01 X10.6056 Y18.8818 
G01 X12.5084 Y18.8818 
G01 X12.7320 Y18.9172 
G01 X12.9473 Y18.9872 
G01 X13.1490 Y19.0899 
G01 X13.3321 Y19.2230 
G01 X13.4922 Y19.3831 
G01 X13.6253 Y19.5662 
G01 X13.7280 Y19.7679 
G01 X13.7980 Y19.9832 
G01 X13.8334 Y20.2068 
G01 X13.8334 Y20.4332 
G01 X13.7980 Y20.6568 
G01 X13.7280 Y20.8721 
G01 X13.6253 Y21.0738 
G01 X13.4922 Y21.2569 
G01 X13.3321 Y21.4170 
G01 X13.1490 Y21.5501 
G01 X12.9473 Y21.6528 
G01 X12.7498 Y21.7170 
G01 X12.9473 Y21.7812 
G01 X13.1490 Y21.8839 
G01 X13.3321 Y22.0170 
G01 X13.4922 Y22.1771 
G01 X13.6253 Y22.3602 
G01 X13.7280 Y22.5619 
G01 X13.7980 Y22.7772 
G01 X13.8334 Y23.0008 
G01 X13.8334 Y23.2272 
G01 X13.7980 Y23.4508 
G01 X13.7280 Y23.6661 
G01 X13.6253 Y23.8678 
G01 X13.4922 Y24.0509 
G01 X13.3321 Y24.2110 
G01 X13.1490 Y24.3441 
G01 X12.9473 Y24.4468 
G01 X12.7320 Y24.5168 
G01 X12.5084 Y24.5522 
G01 X10.6056 Y24.5522 
G01 X10.3820 Y24.5168 
G01 X10.1667 Y24.4468 
G01 X9.9650  Y24.3441 
G01 X9.7819  Y24.2110 
G01 X9.6218  Y24.0509 
G01 X9.4887  Y23.8678 
G01 X9.3860  Y23.6661 
G01 X9.3160  Y23.4508 
G01 X9.2806  Y23.2272 
G01 X9.2806  Y23.0008 
G01 X9.3160  Y22.7772 
G01 X9.3860  Y22.5619 
G01 X9.4887  Y22.3602 
G01 X9.6218  Y22.1771 
G01 X9.7819  Y22.0170 
G01 X9.9650  Y21.8839 
G01 X10.1667 Y21.7812 
G01 X10.3642 Y21.7170 
G01 X10.1667 Y21.6528 
G01 X9.9650  Y21.5501 
G01 X9.7819  Y21.4170 
G01 X9.6218  Y21.2569 
G01 X9.4887  Y21.0738 
G01 X9.3860  Y20.8721 
G01 X9.3160  Y20.6568 
G01 X9.2806  Y20.4332 
G00 Z5.0000  
G00 X13.9563 Y18.6595 
G01 Z-0.0250 F50    
G01 X13.8314 Y18.4876 F50    
G01 X13.7349 Y18.2982 
G01 X13.6692 Y18.0961 
G01 X13.6360 Y17.8862 
G01 X13.6360 Y6.2438  
G01 X13.6692 Y6.0339  
G01 X13.7349 Y5.8318  
G01 X13.8314 Y5.6424  
G01 X13.9563 Y5.4705  
G01 X15.9883 Y3.4385  
G01 X16.1385 Y3.2883  
G01 X16.3104 Y3.1634  
G01 X16.4998 Y3.0669  
G01 X16.7019 Y3.0012  
G01 X16.9118 Y2.9680  
G01 X17.4586 Y2.9680  
G01 X17.6210 Y2.9152  
G01 X17.8446 Y2.8798  
G01 X19.7474 Y2.8798  
G01 X19.9710 Y2.9152  
G01 X20.1863 Y2.9852  
G01 X20.3880 Y3.0879  
G01 X20.5711 Y3.2210  
G01 X20.7312 Y3.3811  
G01 X20.8643 Y3.5642  
G01 X20.9670 Y3.7659  
G01 X21.0370 Y3.9812  
G01 X21.0724 Y4.2048  
G01 X21.0724 Y4.4312  
G01 X21.0370 Y4.6548  
G01 X20.9670 Y4.8701  
G01 X20.8643 Y5.0718  
G01 X20.7312 Y5.2549  
G01 X20.5711 Y5.4150  
G01 X20.3880 Y5.5481  
G01 X20.1863 Y5.6508  
G01 X19.9710 Y5.7208  
G01 X19.7474 Y5.7562  
G01 X17.8446 Y5.7562  
G01 X17.6210 Y5.7208  
G01 X17.5481 Y5.6971  
G01 X16.3360 Y6.9092  
G01 X16.3360 Y17.2208 
G01 X18.0282 Y18.9131 
G01 X18.2256 Y18.8818 
G01 X20.1284 Y18.8818 
G01 X20.3520 Y18.9172 
G01 X20.5673 Y18.9872 
G01 X20.7690 Y19.0899 
G01 X20.9521 Y19.2230 
G01 X21.1122 Y19.3831 
G01 X21.2453 Y19.5662 
G01 X21.3480 Y19.7679 
G01 X21.4180 Y19.9832 
G01 X21.4534 Y20.2068 
G01 X21.4534 Y20.4332 
G01 X21.4180 Y20.6568 
G01 X21.3480 Y20.8721 
G01 X21.2453 Y21.0738 
G01 X21.1122 Y21.2569 
G01 X20.9521 Y21.4170 
G01 X20.7690 Y21.5501 
G01 X20.5673 Y21.6528 
G01 X20.3698 Y21.7170 
G01 X20.5144 Y21.7640 
G01 X21.0308 Y21.7640 
G01 X21.7640 Y21.0308 
G01 X21.7640 Y19.6092 
G01 X17.7663 Y15.6115 
G01 X17.6414 Y15.4396 
G01 X17.5449 Y15.2502 
G01 X17.4792 Y15.0481 
G01 X17.4460 Y14.8382 
G01 X17.4460 Y8.7119  
G01 X17.4057 Y8.6988  
G01 X17.2040 Y8.5961  
G01 X17.0209 Y8.4630  
G01 X16.8608 Y8.3029  
G01 X16.7277 Y8.1198  
G01 X16.6250 Y7.9181  
G01 X16.5550 Y7.7028  
G01 X16.5196 Y7.4792  
G01 X16.5196 Y7.2528  
G01 X16.5550 Y7.0292  
G01 X16.6250 Y6.8139  
G01 X16.7277 Y6.6122  
G01 X16.8608 Y6.4291  
G01 X17.0209 Y6.2690  
G01 X17.2040 Y6.1359  
G01 X17.4057 Y6.0332  
G01 X17.6210 Y5.9632  
G01 X17.8446 Y5.9278  
G01 X19.7474 Y5.9278  
G01 X19.9710 Y5.9632  
G01 X20.1863 Y6.0332  
G01 X20.3880 Y6.1359  
G01 X20.5711 Y6.2690  
G01 X20.7312 Y6.4291  
G01 X20.8643 Y6.6122  
G01 X20.9670 Y6.8139  
G01 X21.0370 Y7.0292  
G01 X21.0724 Y7.2528  
G01 X21.0724 Y7.4792  
G01 X21.0370 Y7.7028  
G01 X20.9670 Y7.9181  
G01 X20.8643 Y8.1198  
G01 X20.7312 Y8.3029  
G01 X20.5711 Y8.4630  
G01 X20.3880 Y8.5961  
G01 X20.1863 Y8.6988  
G01 X20.1460 Y8.7119  
G01 X20.1460 Y14.1728 
G01 X24.1437 Y18.1705 
G01 X24.2686 Y18.3424 
G01 X24.3651 Y18.5318 
G01 X24.4308 Y18.7339 
G01 X24.4640 Y18.9438 
G01 X24.4640 Y21.6962 
G01 X24.4308 Y21.9061 
G01 X24.3651 Y22.1082 
G01 X24.2686 Y22.2976 
G01 X24.1437 Y22.4695 
G01 X23.9935 Y22.6197 
G01 X22.4695 Y24.1437 
G01 X22.2976 Y24.2686 
G01 X22.1082 Y24.3651 
G01 X21.9061 Y24.4308 
G01 X21.6962 Y24.4640 
G01 X20.5144 Y24.4640 
G01 X20.3520 Y24.5168 
G01 X20.1284 Y24.5522 
G01 X18.2256 Y24.5522 
G01 X18.0020 Y24.5168 
G01 X17.7867 Y24.4468 
G01 X17.5850 Y24.3441 
G01 X17.4019 Y24.2110 
G01 X17.2418 Y24.0509 
G01 X17.1087 Y23.8678 
G01 X17.0060 Y23.6661 
G01 X16.9360 Y23.4508 
G01 X16.9006 Y23.2272 
G01 X16.9006 Y23.0008 
G01 X16.9360 Y22.7772 
G01 X17.0060 Y22.5619 
G01 X17.1087 Y22.3602 
G01 X17.2418 Y22.1771 
G01 X17.4019 Y22.0170 
G01 X17.5850 Y21.8839 
G01 X17.7867 Y21.7812 
G01 X17.9842 Y21.7170 
G01 X17.8396 Y21.6700 
G01 X17.4198 Y21.6700 
G01 X17.2099 Y21.6368 
G01 X17.0078 Y21.5711 
G01 X16.8184 Y21.4746 
G01 X16.6465 Y21.3497 
G01 X13.9563 Y18.6595 
G00 Z5.0000  
G00 X12.9511 Y27.4780 
G01 Z-0.0250 F50    
G01 X13.1112 Y27.6381 F50    
G01 X13.2443 Y27.8212 
G01 X13.3470 Y28.0229 
G01 X13.4170 Y28.2382 
G01 X13.4524 Y28.4618 
G01 X13.4524 Y28.6882 
G01 X13.4170 Y28.9118 
G01 X13.3470 Y29.1271 
G01 X13.2443 Y29.3288 
G01 X13.1112 Y29.5119 
G01 X12.9511 Y29.6720 
G01 X12.7680 Y29.8051 
G01 X12.5663 Y29.9078 
G01 X12.3510 Y29.9778 
G01 X12.1274 Y30.0132 
G01 X10.2246 Y30.0132 
G01 X10.0010 Y29.9778 
G01 X9.7857  Y29.9078 
G01 X9.5840  Y29.8051 
G01 X9.4009  Y29.6720 
G01 X9.2408  Y29.5119 
G01 X9.1077  Y29.3288 
G01 X9.0050  Y29.1271 
G01 X8.9350  Y28.9118 
G01 X8.8996  Y28.6882 
G01 X8.8996  Y28.4618 
G01 X8.9350  Y28.2382 
G01 X9.0050  Y28.0229 
G01 X9.1077  Y27.8212 
G01 X9.2408  Y27.6381 
G01 X9.4009  Y27.4780 
G01 X9.5840  Y27.3449 
G01 X9.7857  Y27.2422 
G01 X10.0010 Y27.1722 
G01 X10.2246 Y27.1368 
G01 X12.1274 Y27.1368 
G01 X12.3510 Y27.1722 
G01 X12.5663 Y27.2422 
G01 X12.7680 Y27.3449 
G01 X12.9511 Y27.4780 
G00 Z5.0000  
G00 X13.7023 Y29.6005 
G01 Z-0.0250 F50    
G01 X13.8525 Y29.4503 F50    
G01 X15.7575 Y27.5453 
G01 X15.9294 Y27.4204 
G01 X16.1188 Y27.3239 
G01 X16.3209 Y27.2582 
G01 X16.5308 Y27.2250 
G01 X17.4586 Y27.2250 
G01 X17.6210 Y27.1722 
G01 X17.8446 Y27.1368 
G01 X19.7474 Y27.1368 
G01 X19.9710 Y27.1722 
G01 X20.1863 Y27.2422 
G01 X20.3880 Y27.3449 
G01 X20.5711 Y27.4780 
G01 X20.7312 Y27.6381 
G01 X20.8643 Y27.8212 
G01 X20.9670 Y28.0229 
G01 X21.0049 Y28.1394 
G01 X21.0554 Y28.0699 
G01 X21.2155 Y27.9098 
G01 X21.3986 Y27.7767 
G01 X21.6003 Y27.6740 
G01 X21.8156 Y27.6040 
G01 X22.0392 Y27.5686 
G01 X22.2656 Y27.5686 
G01 X22.4892 Y27.6040 
G01 X22.7045 Y27.6740 
G01 X22.9062 Y27.7767 
G01 X23.0893 Y27.9098 
G01 X23.2494 Y28.0699 
G01 X23.3825 Y28.2530 
G01 X23.4853 Y28.4547 
G01 X23.5552 Y28.6700 
G01 X23.5906 Y28.8936 
G01 X23.5906 Y30.7964 
G01 X23.5552 Y31.0200 
G01 X23.4853 Y31.2353 
G01 X23.3825 Y31.4370 
G01 X23.2494 Y31.6201 
G01 X23.0893 Y31.7802 
G01 X22.9062 Y31.9133 
G01 X22.7045 Y32.0160 
G01 X22.4892 Y32.0860 
G01 X22.2656 Y32.1214 
G01 X22.0392 Y32.1214 
G01 X21.8156 Y32.0860 
G01 X21.6003 Y32.0160 
G01 X21.3986 Y31.9133 
G01 X21.2155 Y31.7802 
G01 X21.0554 Y31.6201 
G01 X21.0240 Y31.5769 
G01 X21.0370 Y31.6168 
G01 X21.0724 Y31.8404 
G01 X21.0724 Y32.0667 
G01 X21.0370 Y32.2903 
G01 X20.9670 Y32.5056 
G01 X20.8643 Y32.7073 
G01 X20.7312 Y32.8905 
G01 X20.5711 Y33.0506 
G01 X20.3880 Y33.1836 
G01 X20.1863 Y33.2864 
G01 X20.1460 Y33.2995 
G01 X20.1460 Y38.0488 
G01 X20.7556 Y38.6585 
G01 X20.7142 Y38.4164 
G01 X20.7142 Y36.5136 
G01 X20.7496 Y36.2900 
G01 X20.8196 Y36.0747 
G01 X20.9224 Y35.8730 
G01 X21.0554 Y35.6899 
G01 X21.2155 Y35.5298 
G01 X21.3986 Y35.3967 
G01 X21.6003 Y35.2940 
G01 X21.8156 Y35.2240 
G01 X22.0392 Y35.1886 
G01 X22.2656 Y35.1886 
G01 X22.4892 Y35.2240 
G01 X22.7045 Y35.2940 
G01 X22.9062 Y35.3967 
G01 X23.0893 Y35.5298 
G01 X23.2494 Y35.6899 
G01 X23.3825 Y35.8730 
G01 X23.4853 Y36.0747 
G01 X23.5552 Y36.2900 
G01 X23.5906 Y36.5136 
G01 X23.5906 Y38.4164 
G01 X23.5552 Y38.6400 
G01 X23.4853 Y38.8553 
G01 X23.3825 Y39.0570 
G01 X23.2494 Y39.2401 
G01 X23.0893 Y39.4002 
G01 X22.9062 Y39.5333 
G01 X22.7045 Y39.6360 
G01 X22.4892 Y39.7060 
G01 X22.2656 Y39.7414 
G01 X22.0392 Y39.7414 
G01 X21.8156 Y39.7060 
G01 X23.7395 Y41.6423 
G01 X23.8897 Y41.7925 
G01 X24.0146 Y41.9644 
G01 X24.1111 Y42.1538 
G01 X24.1768 Y42.3559 
G01 X24.2100 Y42.5658 
G01 X24.2100 Y46.5882 
G01 X24.1768 Y46.7981 
G01 X24.1111 Y47.0002 
G01 X24.0146 Y47.1896 
G01 X23.8897 Y47.3615 
G01 X22.2336 Y49.0176 
G01 X22.0617 Y49.1425 
G01 X21.8724 Y49.2389 
G01 X21.6703 Y49.3046 
G01 X21.4604 Y49.3378 
G01 X20.1334 Y49.3378 
G01 X19.9710 Y49.3906 
G01 X19.7474 Y49.4260 
G01 X17.8446 Y49.4260 
G01 X17.6210 Y49.3906 
G01 X17.4057 Y49.3207 
G01 X17.2040 Y49.2179 
G01 X17.0209 Y49.0848 
G01 X16.8608 Y48.9248 
G01 X16.7277 Y48.7416 
G01 X16.6250 Y48.5399 
G01 X16.5550 Y48.3246 
G01 X16.5196 Y48.1010 
G01 X16.5196 Y47.8747 
G01 X16.5550 Y47.6511 
G01 X16.6250 Y47.4358 
G01 X16.7277 Y47.2341 
G01 X16.8608 Y47.0509 
G01 X17.0209 Y46.8908 
G01 X17.2040 Y46.7578 
G01 X17.4057 Y46.6550 
G01 X17.6210 Y46.5851 
G01 X17.8446 Y46.5496 
G01 X19.7474 Y46.5496 
G01 X19.9710 Y46.5851 
G01 X20.1334 Y46.6378 
G01 X20.7950 Y46.6378 
G01 X21.5100 Y45.9228 
G01 X21.5100 Y43.2312 
G01 X17.7663 Y39.4875 
G01 X17.6414 Y39.3156 
G01 X17.5449 Y39.1262 
G01 X17.4792 Y38.9241 
G01 X17.4460 Y38.7142 
G01 X17.4460 Y33.2995 
G01 X17.4057 Y33.2864 
G01 X17.2040 Y33.1836 
G01 X17.0209 Y33.0506 
G01 X16.8608 Y32.8905 
G01 X16.7277 Y32.7073 
G01 X16.6250 Y32.5056 
G01 X16.5550 Y32.2903 
G01 X16.5196 Y32.0667 
G01 X16.5196 Y31.8404 
G01 X16.5550 Y31.6168 
G01 X16.6250 Y31.4015 
G01 X16.7277 Y31.1998 
G01 X16.8608 Y31.0166 
G01 X17.0209 Y30.8566 
G01 X17.2040 Y30.7235 
G01 X17.4057 Y30.6207 
G01 X17.6210 Y30.5508 
G01 X17.8446 Y30.5154 
G01 X19.7474 Y30.5154 
G01 X19.9710 Y30.5508 
G01 X20.1863 Y30.6207 
G01 X20.3880 Y30.7235 
G01 X20.5711 Y30.8566 
G01 X20.7312 Y31.0166 
G01 X20.7626 Y31.0599 
G01 X20.7496 Y31.0200 
G01 X20.7142 Y30.7964 
G01 X20.7142 Y29.5289 
G01 X20.5711 Y29.6720 
G01 X20.3880 Y29.8051 
G01 X20.1863 Y29.9078 
G01 X19.9710 Y29.9778 
G01 X19.7474 Y30.0132 
G01 X17.8446 Y30.0132 
G01 X17.6210 Y29.9778 
G01 X17.4586 Y29.9250 
G01 X17.1962 Y29.9250 
G01 X16.0820 Y31.0392 
G01 X16.0820 Y41.6048 
G01 X18.0852 Y43.6080 
G01 X19.0292 Y43.6080 
G01 X19.2391 Y43.6412 
G01 X19.7474 Y43.6468 
G01 X19.9710 Y43.6822 
G01 X20.1863 Y43.7522 
G01 X20.3880 Y43.8549 
G01 X20.5711 Y43.9880 
G01 X20.7312 Y44.1481 
G01 X20.8643 Y44.3312 
G01 X20.9670 Y44.5329 
G01 X21.0370 Y44.7482 
G01 X21.0724 Y44.9718 
G01 X21.0724 Y45.1982 
G01 X21.0370 Y45.4218 
G01 X20.9670 Y45.6371 
G01 X20.8643 Y45.8388 
G01 X20.7312 Y46.0219 
G01 X20.5711 Y46.1820 
G01 X20.3880 Y46.3150 
G01 X20.1863 Y46.4178 
G01 X19.9710 Y46.4878 
G01 X19.7474 Y46.5232 
G01 X17.8446 Y46.5232 
G01 X17.6210 Y46.4878 
G01 X17.4057 Y46.4178 
G01 X17.2040 Y46.3150 
G01 X17.0990 Y46.2387 
G01 X17.0078 Y46.2091 
G01 X16.8184 Y46.1126 
G01 X16.6465 Y45.9877 
G01 X13.7023 Y43.0435 
G01 X13.5774 Y42.8716 
G01 X13.4809 Y42.6822 
G01 X13.4152 Y42.4801 
G01 X13.3820 Y42.2702 
G01 X13.3820 Y32.3980 
G01 X13.3470 Y32.5056 
G01 X13.2443 Y32.7073 
G01 X13.1112 Y32.8905 
G01 X12.9511 Y33.0506 
G01 X12.7680 Y33.1836 
G01 X12.5663 Y33.2864 
G01 X12.3510 Y33.3563 
G01 X12.1274 Y33.3918 
G01 X10.2246 Y33.3918 
G01 X10.0010 Y33.3563 
G01 X9.7857  Y33.2864 
G01 X9.5840  Y33.1836 
G01 X9.4009  Y33.0506 
G01 X9.2408  Y32.8905 
G01 X9.1077  Y32.7073 
G01 X9.0050  Y32.5056 
G01 X8.9350  Y32.2903 
G01 X8.8996  Y32.0667 
G01 X8.8996  Y31.8404 
G01 X8.9350  Y31.6168 
G01 X9.0050  Y31.4015 
G01 X9.1077  Y31.1998 
G01 X9.2408  Y31.0166 
G01 X9.4009  Y30.8566 
G01 X9.5840  Y30.7235 
G01 X9.7857  Y30.6207 
G01 X10.0010 Y30.5508 
G01 X10.2246 Y30.5154 
G01 X12.1274 Y30.5154 
G01 X12.3510 Y30.5508 
G01 X12.5663 Y30.6207 
G01 X12.7680 Y30.7235 
G01 X12.9511 Y30.8566 
G01 X13.1112 Y31.0166 
G01 X13.2443 Y31.1998 
G01 X13.3470 Y31.4015 
G01 X13.3820 Y31.5091 
G01 X13.3820 Y30.3738 
G01 X13.4152 Y30.1639 
G01 X13.4809 Y29.9618 
G01 X13.5774 Y29.7724 
G01 X13.7023 Y29.6005 
G00 Z5.0000  
G00 X6.2324  Y30.0079 
G01 Z-0.0250 F50    
G01 X6.3833  Y30.1588 F50    
G01 X6.5133  Y30.3282 
G01 X6.6201  Y30.5131 
G01 X6.7018  Y30.7103 
G01 X6.7570  Y30.9166 
G01 X6.7849  Y31.1282 
G01 X6.7849  Y31.3418 
G01 X6.7570  Y31.5534 
G01 X6.7018  Y31.7597 
G01 X6.6201  Y31.9569 
G01 X6.5133  Y32.1418 
G01 X6.3833  Y32.3112 
G01 X6.2324  Y32.4621 
G01 X6.0630  Y32.5921 
G01 X5.8781  Y32.6989 
G01 X5.6809  Y32.7806 
G01 X5.4746  Y32.8358 
G01 X5.2630  Y32.8637 
G01 X2.9920  Y32.8637 
G01 X2.7804  Y32.8358 
G01 X2.5741  Y32.7806 
G01 X2.3769  Y32.6989 
G01 X2.1920  Y32.5921 
G01 X2.0226  Y32.4621 
G01 X1.8717  Y32.3112 
G01 X1.7417  Y32.1418 
G01 X1.6349  Y31.9569 
G01 X1.5532  Y31.7597 
G01 X1.4980  Y31.5534 
G01 X1.4701  Y31.3418 
G01 X1.4701  Y31.1282 
G01 X1.4980  Y30.9166 
G01 X1.5532  Y30.7103 
G01 X1.6349  Y30.5131 
G01 X1.7417  Y30.3282 
G01 X1.8717  Y30.1588 
G01 X2.0226  Y30.0079 
G01 X2.1920  Y29.8779 
G01 X2.3769  Y29.7711 
G01 X2.5741  Y29.6894 
G01 X2.7804  Y29.6342 
G01 X2.9920  Y29.6063 
G01 X5.2630  Y29.6063 
G01 X5.4746  Y29.6342 
G01 X5.6809  Y29.6894 
G01 X5.8781  Y29.7711 
G01 X6.0630  Y29.8779 
G01 X6.2324  Y30.0079 
G00 Z5.0000  
G00 X6.2324  Y35.0078 
G01 Z-0.0250 F50    
G01 X6.3833  Y35.1588 F50    
G01 X6.5133  Y35.3282 
G01 X6.6201  Y35.5131 
G01 X6.7018  Y35.7103 
G01 X6.7570  Y35.9166 
G01 X6.7849  Y36.1282 
G01 X6.7849  Y36.3417 
G01 X6.7570  Y36.5534 
G01 X6.7018  Y36.7597 
G01 X6.6201  Y36.9569 
G01 X6.5133  Y37.1418 
G01 X6.3833  Y37.3112 
G01 X6.2324  Y37.4621 
G01 X6.0630  Y37.5921 
G01 X5.8781  Y37.6989 
G01 X5.6809  Y37.7806 
G01 X5.4746  Y37.8358 
G01 X5.2630  Y37.8637 
G01 X2.9920  Y37.8637 
G01 X2.7804  Y37.8358 
G01 X2.5741  Y37.7806 
G01 X2.3769  Y37.6989 
G01 X2.1920  Y37.5921 
G01 X2.0226  Y37.4621 
G01 X1.8717  Y37.3112 
G01 X1.7417  Y37.1418 
G01 X1.6349  Y36.9569 
G01 X1.5532  Y36.7597 
G01 X1.4980  Y36.5534 
G01 X1.4701  Y36.3417 
G01 X1.4701  Y36.1282 
G01 X1.4980  Y35.9166 
G01 X1.5532  Y35.7103 
G01 X1.6349  Y35.5131 
G01 X1.7417  Y35.3282 
G01 X1.8717  Y35.1588 
G01 X2.0226  Y35.0078 
G01 X2.1920  Y34.8779 
G01 X2.3769  Y34.7711 
G01 X2.5741  Y34.6894 
G01 X2.7804  Y34.6342 
G01 X2.9920  Y34.6063 
G01 X5.2630  Y34.6063 
G01 X5.4746  Y34.6342 
G01 X5.6809  Y34.6894 
G01 X5.8781  Y34.7711 
G01 X6.0630  Y34.8779 
G01 X6.2324  Y35.0078 
G00 Z5.0000  
G00 X6.2324  Y40.0078 
G01 Z-0.0250 F50    
G01 X6.3833  Y40.1588 F50    
G01 X6.5133  Y40.3282 
G01 X6.6201  Y40.5131 
G01 X6.7018  Y40.7103 
G01 X6.7570  Y40.9166 
G01 X6.7849  Y41.1282 
G01 X6.7849  Y41.3417 
G01 X6.7570  Y41.5534 
G01 X6.7018  Y41.7597 
G01 X6.6201  Y41.9569 
G01 X6.5133  Y42.1418 
G01 X6.3833  Y42.3112 
G01 X6.2324  Y42.4621 
G01 X6.0630  Y42.5921 
G01 X5.8781  Y42.6989 
G01 X5.6809  Y42.7806 
G01 X5.4746  Y42.8358 
G01 X5.2630  Y42.8637 
G01 X2.9920  Y42.8637 
G01 X2.7804  Y42.8358 
G01 X2.5741  Y42.7806 
G01 X2.3769  Y42.6989 
G01 X2.1920  Y42.5921 
G01 X2.0226  Y42.4621 
G01 X1.8717  Y42.3112 
G01 X1.7417  Y42.1418 
G01 X1.6349  Y41.9569 
G01 X1.5532  Y41.7597 
G01 X1.4980  Y41.5534 
G01 X1.4701  Y41.3417 
G01 X1.4701  Y41.1282 
G01 X1.4980  Y40.9166 
G01 X1.5532  Y40.7103 
G01 X1.6349  Y40.5131 
G01 X1.7417  Y40.3282 
G01 X1.8717  Y40.1588 
G01 X2.0226  Y40.0078 
G01 X2.1920  Y39.8779 
G01 X2.3769  Y39.7711 
G01 X2.5741  Y39.6894 
G01 X2.7804  Y39.6342 
G01 X2.9920  Y39.6063 
G01 X5.2630  Y39.6063 
G01 X5.4746  Y39.6342 
G01 X5.6809  Y39.6894 
G01 X5.8781  Y39.7711 
G01 X6.0630  Y39.8779 
G01 X6.2324  Y40.0078 
G00 Z5.0000  
G00 X6.2324  Y45.0078 
G01 Z-0.0250 F50    
G01 X6.3833  Y45.1588 F50    
G01 X6.5133  Y45.3282 
G01 X6.6201  Y45.5131 
G01 X6.7018  Y45.7103 
G01 X6.7570  Y45.9166 
G01 X6.7849  Y46.1282 
G01 X6.7849  Y46.3417 
G01 X6.7570  Y46.5534 
G01 X6.7018  Y46.7597 
G01 X6.6201  Y46.9569 
G01 X6.5133  Y47.1418 
G01 X6.3833  Y47.3112 
G01 X6.2324  Y47.4621 
G01 X6.0630  Y47.5921 
G01 X5.8781  Y47.6989 
G01 X5.6809  Y47.7806 
G01 X5.4746  Y47.8358 
G01 X5.2630  Y47.8637 
G01 X2.9920  Y47.8637 
G01 X2.7804  Y47.8358 
G01 X2.5741  Y47.7806 
G01 X2.3769  Y47.6989 
G01 X2.1920  Y47.5921 
G01 X2.0226  Y47.4621 
G01 X1.8717  Y47.3112 
G01 X1.7417  Y47.1418 
G01 X1.6349  Y46.9569 
G01 X1.5532  Y46.7597 
G01 X1.4980  Y46.5534 
G01 X1.4701  Y46.3417 
G01 X1.4701  Y46.1282 
G01 X1.4980  Y45.9166 
G01 X1.5532  Y45.7103 
G01 X1.6349  Y45.5131 
G01 X1.7417  Y45.3282 
G01 X1.8717  Y45.1588 
G01 X2.0226  Y45.0078 
G01 X2.1920  Y44.8779 
G01 X2.3769  Y44.7711 
G01 X2.5741  Y44.6894 
G01 X2.7804  Y44.6342 
G01 X2.9920  Y44.6063 
G01 X5.2630  Y44.6063 
G01 X5.4746  Y44.6342 
G01 X5.6809  Y44.6894 
G01 X5.8781  Y44.7711 
G01 X6.0630  Y44.8779 
G01 X6.2324  Y45.0078 
G00 Z5.0000  
G00 X8.8996  Y44.9718 
G01 Z-0.0250 F50    
G01 X8.9350  Y44.7482 F50    
G01 X9.0050  Y44.5329 
G01 X9.1077  Y44.3312 
G01 X9.2408  Y44.1481 
G01 X9.4009  Y43.9880 
G01 X9.5840  Y43.8549 
G01 X9.7857  Y43.7522 
G01 X10.0010 Y43.6822 
G01 X10.2246 Y43.6468 
G01 X12.1274 Y43.6468 
G01 X12.3510 Y43.6822 
G01 X12.5663 Y43.7522 
G01 X12.7680 Y43.8549 
G01 X12.9511 Y43.9880 
G01 X13.1112 Y44.1481 
G01 X13.2443 Y44.3312 
G01 X13.3470 Y44.5329 
G01 X13.4170 Y44.7482 
G01 X13.4524 Y44.9718 
G01 X13.4524 Y45.1982 
G01 X13.4170 Y45.4218 
G01 X13.3470 Y45.6371 
G01 X13.2443 Y45.8388 
G01 X13.1112 Y46.0219 
G01 X12.9511 Y46.1820 
G01 X12.7680 Y46.3150 
G01 X12.5663 Y46.4178 
G01 X12.3510 Y46.4878 
G01 X12.1274 Y46.5232 
G01 X10.2246 Y46.5232 
G01 X10.0010 Y46.4878 
G01 X9.7857  Y46.4178 
G01 X9.5840  Y46.3150 
G01 X9.4009  Y46.1820 
G01 X9.2408  Y46.0219 
G01 X9.1077  Y45.8388 
G01 X9.0050  Y45.6371 
G01 X8.9350  Y45.4218 
G01 X8.8996  Y45.1982 
G01 X8.8996  Y44.9718 
G00 Z5.0000  
G00 X9.2408  Y47.0509 
G01 Z-0.0250 F50    
G01 X9.4009  Y46.8908 F50    
G01 X9.5840  Y46.7578 
G01 X9.7857  Y46.6550 
G01 X10.0010 Y46.5851 
G01 X10.2246 Y46.5496 
G01 X12.1274 Y46.5496 
G01 X12.3510 Y46.5851 
G01 X12.5663 Y46.6550 
G01 X12.7680 Y46.7578 
G01 X12.9511 Y46.8908 
G01 X13.1112 Y47.0509 
G01 X13.2443 Y47.2341 
G01 X13.3470 Y47.4358 
G01 X13.4170 Y47.6511 
G01 X13.4524 Y47.8747 
G01 X13.4524 Y48.1010 
G01 X13.4170 Y48.3246 
G01 X13.3470 Y48.5399 
G01 X13.2443 Y48.7416 
G01 X13.1112 Y48.9248 
G01 X12.9511 Y49.0848 
G01 X12.7680 Y49.2179 
G01 X12.5663 Y49.3207 
G01 X12.3510 Y49.3906 
G01 X12.1274 Y49.4260 
G01 X10.2246 Y49.4260 
G01 X10.0010 Y49.3906 
G01 X9.7857  Y49.3207 
G01 X9.5840  Y49.2179 
G01 X9.4009  Y49.0848 
G01 X9.2408  Y48.9248 
G01 X9.1077  Y48.7416 
G01 X9.0050  Y48.5399 
G01 X8.9350  Y48.3246 
G01 X8.8996  Y48.1010 
G01 X8.8996  Y47.8747 
G01 X8.9350  Y47.6511 
G01 X9.0050  Y47.4358 
G01 X9.1077  Y47.2341 
G01 X9.2408  Y47.0509 
G00 Z5.0000  
G00 X9.2408  Y51.5141 
G01 Z-0.0250 F50    
G01 X9.4009  Y51.3540 F50    
G01 X9.5840  Y51.2209 
G01 X9.7857  Y51.1182 
G01 X10.0010 Y51.0482 
G01 X10.2246 Y51.0128 
G01 X12.1274 Y51.0128 
G01 X12.3510 Y51.0482 
G01 X12.5663 Y51.1182 
G01 X12.7680 Y51.2209 
G01 X12.9511 Y51.3540 
G01 X13.1112 Y51.5141 
G01 X13.2443 Y51.6972 
G01 X13.3470 Y51.8989 
G01 X13.4170 Y52.1142 
G01 X13.4524 Y52.3378 
G01 X13.4524 Y52.5642 
G01 X13.4170 Y52.7878 
G01 X13.3470 Y53.0031 
G01 X13.2443 Y53.2048 
G01 X13.1112 Y53.3879 
G01 X12.9511 Y53.5480 
G01 X12.7680 Y53.6811 
G01 X12.5663 Y53.7838 
G01 X12.3510 Y53.8538 
G01 X12.1274 Y53.8892 
G01 X10.2246 Y53.8892 
G01 X10.0010 Y53.8538 
G01 X9.7857  Y53.7838 
G01 X9.5840  Y53.6811 
G01 X9.4009  Y53.5480 
G01 X9.2408  Y53.3879 
G01 X9.1077  Y53.2048 
G01 X9.0050  Y53.0031 
G01 X8.9350  Y52.7878 
G01 X8.8996  Y52.5642 
G01 X8.8996  Y52.3378 
G01 X8.9350  Y52.1142 
G01 X9.0050  Y51.8989 
G01 X9.1077  Y51.6972 
G01 X9.2408  Y51.5141 
G00 Z5.0000  
G00 X9.2408  Y54.5621 
G01 Z-0.0250 F50    
G01 X9.4009  Y54.4020 F50    
G01 X9.5840  Y54.2689 
G01 X9.7857  Y54.1662 
G01 X10.0010 Y54.0962 
G01 X10.2246 Y54.0608 
G01 X12.1274 Y54.0608 
G01 X12.3510 Y54.0962 
G01 X12.5663 Y54.1662 
G01 X12.7680 Y54.2689 
G01 X12.9511 Y54.4020 
G01 X13.1112 Y54.5621 
G01 X13.1280 Y54.2497 
G01 X13.1612 Y54.0399 
G01 X13.2269 Y53.8378 
G01 X13.3234 Y53.6484 
G01 X13.4483 Y53.4765 
G01 X13.5985 Y53.3263 
G01 X15.3533 Y51.5715 
G01 X15.5035 Y51.4213 
G01 X15.6754 Y51.2964 
G01 X15.8648 Y51.1999 
G01 X16.0669 Y51.1342 
G01 X16.2767 Y51.1010 
G01 X17.4586 Y51.1010 
G01 X17.6210 Y51.0482 
G01 X17.8446 Y51.0128 
G01 X19.7474 Y51.0128 
G01 X19.9710 Y51.0482 
G01 X20.1863 Y51.1182 
G01 X20.3880 Y51.2209 
G01 X20.5711 Y51.3540 
G01 X20.7312 Y51.5141 
G01 X20.7652 Y51.4417 
G01 X20.8679 Y51.2400 
G01 X21.0010 Y51.0569 
G01 X21.1611 Y50.8968 
G01 X21.3442 Y50.7637 
G01 X21.5459 Y50.6610 
G01 X21.7612 Y50.5910 
G01 X21.9848 Y50.5556 
G01 X22.2112 Y50.5556 
G01 X22.4348 Y50.5910 
G01 X22.6501 Y50.6610 
G01 X22.8518 Y50.7637 
G01 X23.0349 Y50.8968 
G01 X23.1950 Y51.0569 
G01 X23.3281 Y51.2400 
G01 X23.4308 Y51.4417 
G01 X23.5008 Y51.6570 
G01 X23.5362 Y51.8806 
G01 X23.5362 Y53.7834 
G01 X23.5008 Y54.0070 
G01 X23.4308 Y54.2223 
G01 X23.3281 Y54.4240 
G01 X23.1950 Y54.6071 
G01 X23.0349 Y54.7672 
G01 X22.8518 Y54.9003 
G01 X22.6501 Y55.0030 
G01 X22.4348 Y55.0730 
G01 X22.2112 Y55.1084 
G01 X21.9848 Y55.1084 
G01 X21.7612 Y55.0730 
G01 X21.5459 Y55.0030 
G01 X21.3442 Y54.9003 
G01 X21.1611 Y54.7672 
G01 X21.0010 Y54.6071 
G01 X20.8679 Y54.4240 
G01 X20.7652 Y54.2223 
G01 X20.6952 Y54.0070 
G01 X20.6598 Y53.7834 
G01 X20.6598 Y53.4593 
G01 X20.5711 Y53.5480 
G01 X20.3880 Y53.6811 
G01 X20.1863 Y53.7838 
G01 X19.9710 Y53.8538 
G01 X19.7474 Y53.8892 
G01 X17.8446 Y53.8892 
G01 X17.6210 Y53.8538 
G01 X17.4586 Y53.8010 
G01 X16.9422 Y53.8010 
G01 X15.8280 Y54.9152 
G01 X15.8280 Y63.1948 
G01 X19.5210 Y66.8878 
G01 X20.0014 Y66.8878 
G01 X20.2250 Y66.9232 
G01 X20.4403 Y66.9932 
G01 X20.6420 Y67.0959 
G01 X20.8251 Y67.2290 
G01 X20.9852 Y67.3891 
G01 X21.1183 Y67.5722 
G01 X21.2210 Y67.7739 
G01 X21.2910 Y67.9892 
G01 X21.3264 Y68.2128 
G01 X21.3264 Y68.4392 
G01 X21.2910 Y68.6628 
G01 X21.2210 Y68.8781 
G01 X21.1183 Y69.0798 
G01 X20.9852 Y69.2629 
G01 X20.8251 Y69.4230 
G01 X20.6420 Y69.5561 
G01 X20.4403 Y69.6588 
G01 X20.2250 Y69.7288 
G01 X20.0014 Y69.7642 
G01 X18.0986 Y69.7642 
G01 X17.8750 Y69.7288 
G01 X17.6597 Y69.6588 
G01 X17.4580 Y69.5561 
G01 X17.2749 Y69.4230 
G01 X17.1148 Y69.2629 
G01 X16.9817 Y69.0798 
G01 X16.8790 Y68.8781 
G01 X16.8090 Y68.6628 
G01 X16.7736 Y68.4392 
G01 X16.7736 Y68.2128 
G01 X16.8083 Y67.9935 
G01 X13.4483 Y64.6335 
G01 X13.3234 Y64.4616 
G01 X13.2269 Y64.2722 
G01 X13.1612 Y64.0701 
G01 X13.1280 Y63.8602 
G01 X13.1280 Y56.4128 
G01 X12.9511 Y56.5960 
G01 X12.7680 Y56.7291 
G01 X12.5663 Y56.8318 
G01 X12.3510 Y56.9018 
G01 X12.1274 Y56.9372 
G01 X10.2246 Y56.9372 
G01 X10.0010 Y56.9018 
G01 X9.7857  Y56.8318 
G01 X9.5840  Y56.7291 
G01 X9.4009  Y56.5960 
G01 X9.2408  Y56.4359 
G01 X9.1077  Y56.2528 
G01 X9.0050  Y56.0511 
G01 X8.9350  Y55.8358 
G01 X8.8996  Y55.6122 
G01 X8.8996  Y55.3858 
G01 X8.9350  Y55.1622 
G01 X9.0050  Y54.9469 
G01 X9.1077  Y54.7452 
G01 X9.2408  Y54.5621 
G00 Z5.0000  
G00 X6.7778  Y54.5863 
G01 Z-0.0250 F50    
G01 X6.8330  Y54.7926 F50    
G01 X6.8609  Y55.0042 
G01 X6.8609  Y55.2178 
G01 X6.8330  Y55.4294 
G01 X6.7778  Y55.6356 
G01 X6.6961  Y55.8329 
G01 X6.5893  Y56.0178 
G01 X6.4593  Y56.1872 
G01 X6.3084  Y56.3381 
G01 X6.1390  Y56.4681 
G01 X5.9541  Y56.5749 
G01 X5.7569  Y56.6566 
G01 X5.5506  Y56.7118 
G01 X5.3389  Y56.7397 
G01 X3.0680  Y56.7397 
G01 X2.8564  Y56.7118 
G01 X2.6501  Y56.6566 
G01 X2.4529  Y56.5749 
G01 X2.2680  Y56.4681 
G01 X2.0986  Y56.3381 
G01 X1.9477  Y56.1872 
G01 X1.8177  Y56.0178 
G01 X1.7109  Y55.8329 
G01 X1.6292  Y55.6356 
G01 X1.5740  Y55.4294 
G01 X1.5461  Y55.2178 
G01 X1.5461  Y55.0042 
G01 X1.5740  Y54.7926 
G01 X1.6292  Y54.5863 
G01 X1.7109  Y54.3891 
G01 X1.8177  Y54.2042 
G01 X1.9477  Y54.0348 
G01 X2.0986  Y53.8839 
G01 X2.2680  Y53.7539 
G01 X2.4529  Y53.6471 
G01 X2.6501  Y53.5654 
G01 X2.8564  Y53.5102 
G01 X3.0680  Y53.4823 
G01 X5.3389  Y53.4823 
G01 X5.5506  Y53.5102 
G01 X5.7569  Y53.5654 
G01 X5.9541  Y53.6471 
G01 X6.1390  Y53.7539 
G01 X6.3084  Y53.8839 
G01 X6.4593  Y54.0348 
G01 X6.5893  Y54.2042 
G01 X6.6961  Y54.3891 
G01 X6.7778  Y54.5863 
G00 Z5.0000  
G00 X6.3084  Y58.8839 
G01 Z-0.0250 F50    
G01 X6.4593  Y59.0348 F50    
G01 X6.5893  Y59.2042 
G01 X6.6961  Y59.3891 
G01 X6.7778  Y59.5863 
G01 X6.8330  Y59.7926 
G01 X6.8609  Y60.0042 
G01 X6.8609  Y60.2178 
G01 X6.8330  Y60.4294 
G01 X6.7778  Y60.6356 
G01 X6.6961  Y60.8329 
G01 X6.5893  Y61.0178 
G01 X6.4593  Y61.1872 
G01 X6.3084  Y61.3381 
G01 X6.1390  Y61.4681 
G01 X5.9541  Y61.5749 
G01 X5.7569  Y61.6566 
G01 X5.5506  Y61.7118 
G01 X5.3389  Y61.7397 
G01 X3.0680  Y61.7397 
G01 X2.8564  Y61.7118 
G01 X2.6501  Y61.6566 
G01 X2.4529  Y61.5749 
G01 X2.2680  Y61.4681 
G01 X2.0986  Y61.3381 
G01 X1.9477  Y61.1872 
G01 X1.8177  Y61.0178 
G01 X1.7109  Y60.8329 
G01 X1.6292  Y60.6356 
G01 X1.5740  Y60.4294 
G01 X1.5461  Y60.2178 
G01 X1.5461  Y60.0042 
G01 X1.5740  Y59.7926 
G01 X1.6292  Y59.5863 
G01 X1.7109  Y59.3891 
G01 X1.8177  Y59.2042 
G01 X1.9477  Y59.0348 
G01 X2.0986  Y58.8839 
G01 X2.2680  Y58.7539 
G01 X2.4529  Y58.6471 
G01 X2.6501  Y58.5654 
G01 X2.8564  Y58.5102 
G01 X3.0680  Y58.4823 
G01 X5.3389  Y58.4823 
G01 X5.5506  Y58.5102 
G01 X5.7569  Y58.5654 
G01 X5.9541  Y58.6471 
G01 X6.1390  Y58.7539 
G01 X6.3084  Y58.8839 
G00 Z5.0000  
G00 X6.3084  Y63.8839 
G01 Z-0.0250 F50    
G01 X6.4593  Y64.0348 F50    
G01 X6.5893  Y64.2042 
G01 X6.6961  Y64.3891 
G01 X6.7778  Y64.5863 
G01 X6.8330  Y64.7926 
G01 X6.8609  Y65.0042 
G01 X6.8609  Y65.2177 
G01 X6.8330  Y65.4294 
G01 X6.7778  Y65.6356 
G01 X6.6961  Y65.8329 
G01 X6.5893  Y66.0178 
G01 X6.4593  Y66.1872 
G01 X6.3084  Y66.3381 
G01 X6.1390  Y66.4681 
G01 X5.9541  Y66.5749 
G01 X5.7569  Y66.6566 
G01 X5.5506  Y66.7118 
G01 X5.3389  Y66.7397 
G01 X3.0680  Y66.7397 
G01 X2.8564  Y66.7118 
G01 X2.6501  Y66.6566 
G01 X2.4529  Y66.5749 
G01 X2.2680  Y66.4681 
G01 X2.0986  Y66.3381 
G01 X1.9477  Y66.1872 
G01 X1.8177  Y66.0178 
G01 X1.7109  Y65.8329 
G01 X1.6292  Y65.6356 
G01 X1.5740  Y65.4294 
G01 X1.5461  Y65.2177 
G01 X1.5461  Y65.0042 
G01 X1.5740  Y64.7926 
G01 X1.6292  Y64.5863 
G01 X1.7109  Y64.3891 
G01 X1.8177  Y64.2042 
G01 X1.9477  Y64.0348 
G01 X2.0986  Y63.8839 
G01 X2.2680  Y63.7539 
G01 X2.4529  Y63.6471 
G01 X2.6501  Y63.5654 
G01 X2.8564  Y63.5102 
G01 X3.0680  Y63.4823 
G01 X5.3389  Y63.4823 
G01 X5.5506  Y63.5102 
G01 X5.7569  Y63.5654 
G01 X5.9541  Y63.6471 
G01 X6.1390  Y63.7539 
G01 X6.3084  Y63.8839 
G00 Z5.0000  
G00 X6.3084  Y68.8838 
G01 Z-0.0250 F50    
G01 X6.4593  Y69.0348 F50    
G01 X6.5893  Y69.2042 
G01 X6.6961  Y69.3891 
G01 X6.7778  Y69.5863 
G01 X6.8330  Y69.7926 
G01 X6.8609  Y70.0042 
G01 X6.8609  Y70.2177 
G01 X6.8330  Y70.4294 
G01 X6.7778  Y70.6356 
G01 X6.6961  Y70.8329 
G01 X6.5893  Y71.0178 
G01 X6.4593  Y71.1872 
G01 X6.3084  Y71.3381 
G01 X6.1390  Y71.4681 
G01 X5.9541  Y71.5749 
G01 X5.7569  Y71.6566 
G01 X5.5506  Y71.7118 
G01 X5.3389  Y71.7397 
G01 X3.0680  Y71.7397 
G01 X2.8564  Y71.7118 
G01 X2.6501  Y71.6566 
G01 X2.4529  Y71.5749 
G01 X2.2680  Y71.4681 
G01 X2.0986  Y71.3381 
G01 X1.9477  Y71.1872 
G01 X1.8177  Y71.0178 
G01 X1.7109  Y70.8329 
G01 X1.6292  Y70.6356 
G01 X1.5740  Y70.4294 
G01 X1.5461  Y70.2177 
G01 X1.5461  Y70.0042 
G01 X1.5740  Y69.7926 
G01 X1.6292  Y69.5863 
G01 X1.7109  Y69.3891 
G01 X1.8177  Y69.2042 
G01 X1.9477  Y69.0348 
G01 X2.0986  Y68.8838 
G01 X2.2680  Y68.7539 
G01 X2.4529  Y68.6471 
G01 X2.6501  Y68.5654 
G01 X2.8564  Y68.5102 
G01 X3.0680  Y68.4823 
G01 X5.3389  Y68.4823 
G01 X5.5506  Y68.5102 
G01 X5.7569  Y68.5654 
G01 X5.9541  Y68.6471 
G01 X6.1390  Y68.7539 
G01 X6.3084  Y68.8838 
G00 Z5.0000  
G00 X9.2590  Y68.8781 
G01 Z-0.0250 F50    
G01 X9.1890  Y68.6628 F50    
G01 X9.1536  Y68.4392 
G01 X9.1536  Y68.2128 
G01 X9.1890  Y67.9892 
G01 X9.2590  Y67.7739 
G01 X9.3617  Y67.5722 
G01 X9.4948  Y67.3891 
G01 X9.6549  Y67.2290 
G01 X9.8380  Y67.0959 
G01 X10.0397 Y66.9932 
G01 X10.2550 Y66.9232 
G01 X10.4786 Y66.8878 
G01 X12.3814 Y66.8878 
G01 X12.6050 Y66.9232 
G01 X12.8203 Y66.9932 
G01 X13.0220 Y67.0959 
G01 X13.2051 Y67.2290 
G01 X13.3652 Y67.3891 
G01 X13.4983 Y67.5722 
G01 X13.6010 Y67.7739 
G01 X13.6710 Y67.9892 
G01 X13.7064 Y68.2128 
G01 X13.7064 Y68.4392 
G01 X13.6710 Y68.6628 
G01 X13.6010 Y68.8781 
G01 X13.4983 Y69.0798 
G01 X13.3652 Y69.2629 
G01 X13.2051 Y69.4230 
G01 X13.0220 Y69.5561 
G01 X12.8203 Y69.6588 
G01 X12.6050 Y69.7288 
G01 X12.3814 Y69.7642 
G01 X10.4786 Y69.7642 
G01 X10.2550 Y69.7288 
G01 X10.0397 Y69.6588 
G01 X9.8380  Y69.5561 
G01 X9.6549  Y69.4230 
G01 X9.4948  Y69.2629 
G01 X9.3617  Y69.0798 
G01 X9.2590  Y68.8781 
G00 Z5.0000  
G00 X9.4948  Y70.6911 
G01 Z-0.0250 F50    
G01 X9.6549  Y70.5310 F50    
G01 X9.8380  Y70.3979 
G01 X10.0397 Y70.2952 
G01 X10.2550 Y70.2252 
G01 X10.4786 Y70.1898 
G01 X12.3814 Y70.1898 
G01 X12.6050 Y70.2252 
G01 X12.8203 Y70.2952 
G01 X13.0220 Y70.3979 
G01 X13.2051 Y70.5310 
G01 X13.3652 Y70.6911 
G01 X13.4983 Y70.8742 
G01 X13.6010 Y71.0759 
G01 X13.6710 Y71.2912 
G01 X13.7064 Y71.5148 
G01 X13.7064 Y71.7412 
G01 X13.6710 Y71.9648 
G01 X13.6010 Y72.1801 
G01 X13.4983 Y72.3818 
G01 X13.3652 Y72.5649 
G01 X13.2051 Y72.7250 
G01 X13.0220 Y72.8581 
G01 X12.8203 Y72.9608 
G01 X12.6050 Y73.0308 
G01 X12.3814 Y73.0662 
G01 X10.4786 Y73.0662 
G01 X10.2550 Y73.0308 
G01 X10.0397 Y72.9608 
G01 X9.8380  Y72.8581 
G01 X9.6549  Y72.7250 
G01 X9.4948  Y72.5649 
G01 X9.3617  Y72.3818 
G01 X9.2590  Y72.1801 
G01 X9.1890  Y71.9648 
G01 X9.1536  Y71.7412 
G01 X9.1536  Y71.5148 
G01 X9.1890  Y71.2912 
G01 X9.2590  Y71.0759 
G01 X9.3617  Y70.8742 
G01 X9.4948  Y70.6911 
G00 Z5.0000  
G00 X17.1148 Y70.6911 
G01 Z-0.0250 F50    
G01 X17.2749 Y70.5310 F50    
G01 X17.4580 Y70.3979 
G01 X17.6597 Y70.2952 
G01 X17.8750 Y70.2252 
G01 X18.0986 Y70.1898 
G01 X20.0014 Y70.1898 
G01 X20.2250 Y70.2252 
G01 X20.3874 Y70.2780 
G01 X21.2848 Y70.2780 
G01 X21.7640 Y69.7988 
G01 X21.7640 Y66.8532 
G01 X17.7663 Y62.8555 
G01 X17.6414 Y62.6836 
G01 X17.5449 Y62.4942 
G01 X17.4792 Y62.2921 
G01 X17.4460 Y62.0822 
G01 X17.4460 Y56.8449 
G01 X17.4057 Y56.8318 
G01 X17.2040 Y56.7291 
G01 X17.0209 Y56.5960 
G01 X16.8608 Y56.4359 
G01 X16.7277 Y56.2528 
G01 X16.6250 Y56.0511 
G01 X16.5550 Y55.8358 
G01 X16.5196 Y55.6122 
G01 X16.5196 Y55.3858 
G01 X16.5550 Y55.1622 
G01 X16.6250 Y54.9469 
G01 X16.7277 Y54.7452 
G01 X16.8608 Y54.5621 
G01 X17.0209 Y54.4020 
G01 X17.2040 Y54.2689 
G01 X17.4057 Y54.1662 
G01 X17.6210 Y54.0962 
G01 X17.8446 Y54.0608 
G01 X19.7474 Y54.0608 
G01 X19.9710 Y54.0962 
G01 X20.1863 Y54.1662 
G01 X20.3880 Y54.2689 
G01 X20.5711 Y54.4020 
G01 X20.7312 Y54.5621 
G01 X20.8643 Y54.7452 
G01 X20.9670 Y54.9469 
G01 X21.0370 Y55.1622 
G01 X21.0724 Y55.3858 
G01 X21.0724 Y55.6122 
G01 X21.0370 Y55.8358 
G01 X20.9670 Y56.0511 
G01 X20.8643 Y56.2528 
G01 X20.7312 Y56.4359 
G01 X20.5711 Y56.5960 
G01 X20.3880 Y56.7291 
G01 X20.1863 Y56.8318 
G01 X20.1460 Y56.8449 
G01 X20.1460 Y61.4168 
G01 X24.1437 Y65.4145 
G01 X24.2686 Y65.5864 
G01 X24.3651 Y65.7758 
G01 X24.4308 Y65.9779 
G01 X24.4640 Y66.1877 
G01 X24.4640 Y70.4642 
G01 X24.4308 Y70.6741 
G01 X24.3651 Y70.8762 
G01 X24.2686 Y71.0656 
G01 X24.1437 Y71.2375 
G01 X22.7235 Y72.6577 
G01 X22.5516 Y72.7826 
G01 X22.3622 Y72.8791 
G01 X22.1601 Y72.9448 
G01 X21.9502 Y72.9780 
G01 X20.3874 Y72.9780 
G01 X20.2250 Y73.0308 
G01 X20.0014 Y73.0662 
G01 X18.0986 Y73.0662 
G01 X17.8750 Y73.0308 
G01 X17.6597 Y72.9608 
G01 X17.4580 Y72.8581 
G01 X17.2749 Y72.7250 
G01 X17.1148 Y72.5649 
G01 X16.9817 Y72.3818 
G01 X16.8790 Y72.1801 
G01 X16.8090 Y71.9648 
G01 X16.7736 Y71.7412 
G01 X16.7736 Y71.5148 
G01 X16.8090 Y71.2912 
G01 X16.8790 Y71.0759 
G01 X16.9817 Y70.8742 
G01 X17.1148 Y70.6911 
G00 Z5.0000  
G00 X18.5855 Y73.8825 
G01 Z-0.0250 F50    
G01 X18.7645 Y73.7035 F50    
G01 X18.9692 Y73.5547 
G01 X19.1947 Y73.4398 
G01 X19.4355 Y73.3616 
G01 X19.6854 Y73.3220 
G01 X19.9386 Y73.3220 
G01 X20.1885 Y73.3616 
G01 X20.4293 Y73.4398 
G01 X20.6548 Y73.5547 
G01 X20.8595 Y73.7035 
G01 X20.9861 Y73.8300 
G01 X37.7304 Y73.8300 
G01 X36.5110 Y72.6106 
G01 X36.4092 Y72.4705 
G01 X36.3306 Y72.3163 
G01 X36.2771 Y72.1516 
G01 X36.2500 Y71.9806 
G01 X36.2500 Y69.6800 
G01 X36.2074 Y69.6800 
G01 X35.9575 Y69.6404 
G01 X35.7167 Y69.5622 
G01 X35.4912 Y69.4473 
G01 X35.2865 Y69.2985 
G01 X35.1075 Y69.1195 
G01 X34.9587 Y68.9148 
G01 X34.8438 Y68.6893 
G01 X34.7656 Y68.4485 
G01 X34.7260 Y68.1986 
G01 X34.7260 Y67.9454 
G01 X34.7656 Y67.6955 
G01 X34.8438 Y67.4547 
G01 X34.9587 Y67.2292 
G01 X35.1075 Y67.0245 
G01 X35.2865 Y66.8455 
G01 X35.4912 Y66.6967 
G01 X35.7167 Y66.5818 
G01 X35.9575 Y66.5036 
G01 X36.2074 Y66.4640 
G01 X36.2380 Y66.4640 
G01 X36.2380 Y46.5325 
G01 X36.1995 Y46.5264 
G01 X35.9587 Y46.4482 
G01 X35.7332 Y46.3333 
G01 X35.5285 Y46.1845 
G01 X35.3495 Y46.0055 
G01 X35.2007 Y45.8008 
G01 X35.0858 Y45.5753 
G01 X35.0076 Y45.3345 
G01 X34.9680 Y45.0846 
G01 X34.9680 Y44.8314 
G01 X35.0076 Y44.5815 
G01 X35.0858 Y44.3407 
G01 X35.2007 Y44.1152 
G01 X35.3495 Y43.9105 
G01 X35.5285 Y43.7315 
G01 X35.7332 Y43.5827 
G01 X35.9587 Y43.4678 
G01 X36.1995 Y43.3896 
G01 X36.2380 Y43.3835 
G01 X36.2380 Y22.2561 
G01 X36.1115 Y22.1295 
G01 X35.9627 Y21.9248 
G01 X35.8478 Y21.6993 
G01 X35.7696 Y21.4585 
G01 X35.7300 Y21.2086 
G01 X35.7300 Y20.9554 
G01 X35.7696 Y20.7055 
G01 X35.8478 Y20.4647 
G01 X35.9627 Y20.2392 
G01 X36.1115 Y20.0345 
G01 X36.2905 Y19.8555 
G01 X36.4952 Y19.7067 
G01 X36.7207 Y19.5918 
G01 X36.9615 Y19.5136 
G01 X37.2114 Y19.4740 
G01 X37.4646 Y19.4740 
G01 X37.7145 Y19.5136 
G01 X37.9553 Y19.5918 
G01 X38.1808 Y19.7067 
G01 X38.3855 Y19.8555 
G01 X38.5645 Y20.0345 
G01 X38.7133 Y20.2392 
G01 X38.8282 Y20.4647 
G01 X38.9064 Y20.7055 
G01 X38.9460 Y20.9554 
G01 X38.9460 Y21.2086 
G01 X38.9064 Y21.4585 
G01 X38.8282 Y21.6993 
G01 X38.7133 Y21.9248 
G01 X38.5645 Y22.1295 
G01 X38.4380 Y22.2561 
G01 X38.4380 Y68.9257 
G01 X38.4500 Y69.0014 
G01 X38.4500 Y71.4384 
G01 X39.0636 Y72.0520 
G01 X41.0639 Y72.0520 
G01 X40.8423 Y71.9398 
G01 X40.6446 Y71.7962 
G01 X40.4718 Y71.6234 
G01 X40.3282 Y71.4257 
G01 X40.2172 Y71.2080 
G01 X40.1417 Y70.9755 
G01 X40.1035 Y70.7342 
G01 X40.1035 Y70.4898 
G01 X40.1417 Y70.2485 
G01 X40.2172 Y70.0160 
G01 X40.3282 Y69.7983 
G01 X40.4718 Y69.6006 
G01 X40.6446 Y69.4278 
G01 X40.7627 Y69.3420 
G01 X40.6446 Y69.2562 
G01 X40.4718 Y69.0834 
G01 X40.3282 Y68.8857 
G01 X40.2172 Y68.6680 
G01 X40.1417 Y68.4355 
G01 X40.1035 Y68.1942 
G01 X40.1035 Y67.9498 
G01 X40.1417 Y67.7085 
G01 X40.2172 Y67.4760 
G01 X40.3282 Y67.2583 
G01 X40.4718 Y67.0606 
G01 X40.6446 Y66.8878 
G01 X40.7627 Y66.8020 
G01 X40.6446 Y66.7162 
G01 X40.4718 Y66.5434 
G01 X40.3282 Y66.3457 
G01 X40.2172 Y66.1280 
G01 X40.1417 Y65.8955 
G01 X40.1035 Y65.6542 
G01 X40.1035 Y65.4098 
G01 X40.1417 Y65.1685 
G01 X40.2172 Y64.9360 
G01 X40.3282 Y64.7183 
G01 X40.4718 Y64.5206 
G01 X40.6446 Y64.3478 
G01 X40.7627 Y64.2620 
G01 X40.6446 Y64.1762 
G01 X40.4718 Y64.0034 
G01 X40.3282 Y63.8057 
G01 X40.2172 Y63.5880 
G01 X40.1417 Y63.3555 
G01 X40.1035 Y63.1142 
G01 X40.1035 Y62.8698 
G01 X40.1417 Y62.6285 
G01 X40.2172 Y62.3960 
G01 X40.3282 Y62.1783 
G01 X40.4718 Y61.9806 
G01 X40.6446 Y61.8078 
G01 X40.7627 Y61.7220 
G01 X40.6446 Y61.6362 
G01 X40.4718 Y61.4634 
G01 X40.3282 Y61.2657 
G01 X40.2172 Y61.0480 
G01 X40.1417 Y60.8155 
G01 X40.1035 Y60.5742 
G01 X40.1035 Y60.3298 
G01 X40.1417 Y60.0885 
G01 X40.2172 Y59.8560 
G01 X40.3282 Y59.6383 
G01 X40.4718 Y59.4406 
G01 X40.6446 Y59.2678 
G01 X40.7627 Y59.1820 
G01 X40.6446 Y59.0962 
G01 X40.4718 Y58.9234 
G01 X40.3282 Y58.7257 
G01 X40.2172 Y58.5080 
G01 X40.1417 Y58.2755 
G01 X40.1035 Y58.0342 
G01 X40.1035 Y57.7898 
G01 X40.1417 Y57.5485 
G01 X40.2172 Y57.3160 
G01 X40.3282 Y57.0983 
G01 X40.4718 Y56.9006 
G01 X40.6446 Y56.7278 
G01 X40.7627 Y56.6420 
G01 X40.6446 Y56.5562 
G01 X40.4718 Y56.3834 
G01 X40.3282 Y56.1857 
G01 X40.2172 Y55.9680 
G01 X40.1417 Y55.7355 
G01 X40.1035 Y55.4942 
G01 X40.1035 Y55.2498 
G01 X40.1417 Y55.0085 
G01 X40.2172 Y54.7760 
G01 X40.3282 Y54.5583 
G01 X40.4718 Y54.3606 
G01 X40.6446 Y54.1878 
G01 X40.7627 Y54.1020 
G01 X40.6446 Y54.0162 
G01 X40.4718 Y53.8434 
G01 X40.3282 Y53.6457 
G01 X40.2172 Y53.4280 
G01 X40.1417 Y53.1955 
G01 X40.1035 Y52.9542 
G01 X40.1035 Y52.7098 
G01 X40.1417 Y52.4685 
G01 X40.2172 Y52.2360 
G01 X40.3282 Y52.0183 
G01 X40.4718 Y51.8206 
G01 X40.6446 Y51.6478 
G01 X40.8423 Y51.5042 
G01 X41.0600 Y51.3932 
G01 X41.2925 Y51.3177 
G01 X41.5338 Y51.2795 
G01 X41.7782 Y51.2795 
G01 X42.0195 Y51.3177 
G01 X42.2520 Y51.3932 
G01 X42.4697 Y51.5042 
G01 X42.6674 Y51.6478 
G01 X42.8402 Y51.8206 
G01 X42.9838 Y52.0183 
G01 X43.0948 Y52.2360 
G01 X43.1703 Y52.4685 
G01 X43.2085 Y52.7098 
G01 X43.2085 Y52.9542 
G01 X43.1703 Y53.1955 
G01 X43.0948 Y53.4280 
G01 X42.9838 Y53.6457 
G01 X42.8402 Y53.8434 
G01 X42.6674 Y54.0162 
G01 X42.5493 Y54.1020 
G01 X42.6674 Y54.1878 
G01 X42.8402 Y54.3606 
G01 X42.9838 Y54.5583 
G01 X43.0948 Y54.7760 
G01 X43.1703 Y55.0085 
G01 X43.2085 Y55.2498 
G01 X43.2085 Y55.4942 
G01 X43.1703 Y55.7355 
G01 X43.0948 Y55.9680 
G01 X42.9838 Y56.1857 
G01 X42.8402 Y56.3834 
G01 X42.6674 Y56.5562 
G01 X42.5493 Y56.6420 
G01 X42.6674 Y56.7278 
G01 X42.8402 Y56.9006 
G01 X42.9838 Y57.0983 
G01 X43.0948 Y57.3160 
G01 X43.1703 Y57.5485 
G01 X43.2085 Y57.7898 
G01 X43.2085 Y58.0342 
G01 X43.1703 Y58.2755 
G01 X43.0948 Y58.5080 
G01 X42.9838 Y58.7257 
G01 X42.8402 Y58.9234 
G01 X42.6674 Y59.0962 
G01 X42.5493 Y59.1820 
G01 X42.6674 Y59.2678 
G01 X42.8402 Y59.4406 
G01 X42.9838 Y59.6383 
G01 X43.0948 Y59.8560 
G01 X43.1703 Y60.0885 
G01 X43.2085 Y60.3298 
G01 X43.2085 Y60.5742 
G01 X43.1703 Y60.8155 
G01 X43.0948 Y61.0480 
G01 X42.9838 Y61.2657 
G01 X42.8402 Y61.4634 
G01 X42.6674 Y61.6362 
G01 X42.5493 Y61.7220 
G01 X42.6674 Y61.8078 
G01 X42.8402 Y61.9806 
G01 X42.9838 Y62.1783 
G01 X43.0948 Y62.3960 
G01 X43.1703 Y62.6285 
G01 X43.2085 Y62.8698 
G01 X43.2085 Y63.1142 
G01 X43.1703 Y63.3555 
G01 X43.0948 Y63.5880 
G01 X42.9838 Y63.8057 
G01 X42.8402 Y64.0034 
G01 X42.6674 Y64.1762 
G01 X42.5493 Y64.2620 
G01 X42.6674 Y64.3478 
G01 X42.8402 Y64.5206 
G01 X42.9838 Y64.7183 
G01 X43.0948 Y64.9360 
G01 X43.1703 Y65.1685 
G01 X43.2085 Y65.4098 
G01 X43.2085 Y65.6542 
G01 X43.1703 Y65.8955 
G01 X43.0948 Y66.1280 
G01 X42.9838 Y66.3457 
G01 X42.8402 Y66.5434 
G01 X42.6674 Y66.7162 
G01 X42.5493 Y66.8020 
G01 X42.6674 Y66.8878 
G01 X42.8402 Y67.0606 
G01 X42.9838 Y67.2583 
G01 X43.0948 Y67.4760 
G01 X43.1703 Y67.7085 
G01 X43.2085 Y67.9498 
G01 X43.2085 Y68.1942 
G01 X43.1703 Y68.4355 
G01 X43.0948 Y68.6680 
G01 X42.9838 Y68.8857 
G01 X42.8402 Y69.0834 
G01 X42.6674 Y69.2562 
G01 X42.5493 Y69.3420 
G01 X42.6674 Y69.4278 
G01 X42.8402 Y69.6006 
G01 X42.9838 Y69.7983 
G01 X43.0948 Y70.0160 
G01 X43.1703 Y70.2485 
G01 X43.2085 Y70.4898 
G01 X43.2085 Y70.7342 
G01 X43.1703 Y70.9755 
G01 X43.0948 Y71.2080 
G01 X42.9838 Y71.4257 
G01 X42.8402 Y71.6234 
G01 X42.6674 Y71.7962 
G01 X42.4697 Y71.9398 
G01 X42.2520 Y72.0508 
G01 X44.2484 Y72.0520 
G01 X45.6430 Y70.6574 
G01 X45.7654 Y70.5350 
G01 X45.9055 Y70.4332 
G01 X46.0597 Y70.3546 
G01 X46.2244 Y70.3011 
G01 X46.3954 Y70.2740 
G01 X49.6166 Y70.2740 
G01 X49.7876 Y70.3011 
G01 X49.9523 Y70.3546 
G01 X50.1065 Y70.4332 
G01 X50.2466 Y70.5350 
G01 X50.5618 Y70.8502 
G01 X52.6484 Y70.8502 
G01 X52.8878 Y70.8881 
G01 X53.1183 Y70.9630 
G01 X53.3342 Y71.0730 
G01 X53.5303 Y71.2155 
G01 X53.7017 Y71.3869 
G01 X53.8442 Y71.5830 
G01 X53.9542 Y71.7989 
G01 X54.0291 Y72.0294 
G01 X54.0670 Y72.2688 
G01 X54.0670 Y72.5112 
G01 X54.0291 Y72.7506 
G01 X53.9542 Y72.9811 
G01 X53.8442 Y73.1970 
G01 X53.7017 Y73.3931 
G01 X53.5303 Y73.5645 
G01 X53.3989 Y73.6600 
G01 X53.5303 Y73.7555 
G01 X53.7017 Y73.9269 
G01 X53.8442 Y74.1230 
G01 X53.9542 Y74.3389 
G01 X54.0291 Y74.5694 
G01 X54.0670 Y74.8088 
G01 X54.0670 Y75.0512 
G01 X54.0291 Y75.2906 
G01 X53.9542 Y75.5211 
G01 X53.8442 Y75.7370 
G01 X53.7017 Y75.9331 
G01 X53.5303 Y76.1045 
G01 X53.3989 Y76.2000 
G01 X53.5303 Y76.2955 
G01 X53.7017 Y76.4669 
G01 X53.8442 Y76.6630 
G01 X53.9542 Y76.8789 
G01 X54.0291 Y77.1094 
G01 X54.0670 Y77.3488 
G01 X54.0670 Y77.5912 
G01 X54.0291 Y77.8306 
G01 X53.9542 Y78.0611 
G01 X53.8442 Y78.2770 
G01 X53.7017 Y78.4731 
G01 X53.5303 Y78.6445 
G01 X53.3342 Y78.7870 
G01 X53.1183 Y78.8970 
G01 X52.8878 Y78.9719 
G01 X52.6484 Y79.0098 
G01 X50.5264 Y79.0098 
G01 X50.2870 Y78.9719 
G01 X50.0565 Y78.8970 
G01 X49.8406 Y78.7870 
G01 X49.6445 Y78.6445 
G01 X49.4731 Y78.4731 
G01 X49.3306 Y78.2770 
G01 X49.2206 Y78.0611 
G01 X49.1457 Y77.8306 
G01 X49.1078 Y77.5912 
G01 X49.1078 Y77.3488 
G01 X49.1457 Y77.1094 
G01 X49.2206 Y76.8789 
G01 X49.3306 Y76.6630 
G01 X49.4731 Y76.4669 
G01 X49.6445 Y76.2955 
G01 X49.7759 Y76.2000 
G01 X49.6445 Y76.1045 
G01 X49.4731 Y75.9331 
G01 X49.3306 Y75.7370 
G01 X49.2206 Y75.5211 
G01 X49.1457 Y75.2906 
G01 X49.1078 Y75.0512 
G01 X49.1078 Y74.8088 
G01 X49.1457 Y74.5694 
G01 X49.2206 Y74.3389 
G01 X49.3306 Y74.1230 
G01 X49.4731 Y73.9269 
G01 X49.6445 Y73.7555 
G01 X49.7759 Y73.6600 
G01 X49.6445 Y73.5645 
G01 X49.4731 Y73.3931 
G01 X49.3306 Y73.1970 
G01 X49.2206 Y72.9811 
G01 X49.1457 Y72.7506 
G01 X49.1078 Y72.5112 
G01 X49.0744 Y72.4740 
G01 X46.9376 Y72.4740 
G01 X46.9041 Y72.5075 
G01 X48.0937 Y72.5075 
G01 X48.9362 Y73.3500 
G01 X48.9362 Y74.5415 
G01 X48.0937 Y75.3839 
G01 X46.9023 Y75.3839 
G01 X46.0598 Y74.5415 
G01 X46.0598 Y73.3518 
G01 X45.4206 Y73.9910 
G01 X45.2805 Y74.0928 
G01 X45.1263 Y74.1714 
G01 X44.9616 Y74.2249 
G01 X44.7906 Y74.2520 
G01 X43.2956 Y74.2520 
G01 X45.3819 Y76.3383 
G01 X46.5641 Y76.3383 
G01 X46.9023 Y76.0001 
G01 X48.0937 Y76.0001 
G01 X48.9362 Y76.8425 
G01 X48.9362 Y78.0340 
G01 X48.0937 Y78.8764 
G01 X46.9023 Y78.8764 
G01 X46.5641 Y78.5382 
G01 X44.8397 Y78.5382 
G01 X44.6687 Y78.5112 
G01 X44.5040 Y78.4577 
G01 X44.3497 Y78.3791 
G01 X44.2096 Y78.2773 
G01 X41.9624 Y76.0300 
G01 X20.9861 Y76.0300 
G01 X20.8595 Y76.1565 
G01 X20.6548 Y76.3053 
G01 X20.4293 Y76.4202 
G01 X20.1885 Y76.4984 
G01 X19.9386 Y76.5380 
G01 X19.6854 Y76.5380 
G01 X19.4355 Y76.4984 
G01 X19.1947 Y76.4202 
G01 X18.9692 Y76.3053 
G01 X18.7645 Y76.1565 
G01 X18.5855 Y75.9775 
G01 X18.4367 Y75.7728 
G01 X18.3218 Y75.5473 
G01 X18.2436 Y75.3065 
G01 X18.2040 Y75.0566 
G01 X18.2040 Y74.8034 
G01 X18.2436 Y74.5535 
G01 X18.3218 Y74.3127 
G01 X18.4367 Y74.0872 
G01 X18.5855 Y73.8825 
G00 Z5.0000  
G00 X22.9428 Y78.0321 
G01 Z-0.0250 F50    
G01 X23.0938 Y77.8812 F50    
G01 X23.2632 Y77.7512 
G01 X23.4481 Y77.6444 
G01 X23.6453 Y77.5627 
G01 X23.8516 Y77.5075 
G01 X24.0632 Y77.4796 
G01 X24.2767 Y77.4796 
G01 X24.4884 Y77.5075 
G01 X24.6946 Y77.5627 
G01 X24.8919 Y77.6444 
G01 X25.0768 Y77.7512 
G01 X25.2462 Y77.8812 
G01 X25.3971 Y78.0321 
G01 X25.5271 Y78.2015 
G01 X25.6339 Y78.3864 
G01 X25.7156 Y78.5836 
G01 X25.7708 Y78.7899 
G01 X25.7987 Y79.0015 
G01 X25.7987 Y81.2725 
G01 X25.7708 Y81.4841 
G01 X25.7156 Y81.6903 
G01 X25.6339 Y81.8876 
G01 X25.5271 Y82.0725 
G01 X25.3971 Y82.2419 
G01 X25.2462 Y82.3928 
G01 X25.0768 Y82.5228 
G01 X24.8919 Y82.6296 
G01 X24.6946 Y82.7113 
G01 X24.4884 Y82.7665 
G01 X24.2767 Y82.7944 
G01 X24.0632 Y82.7944 
G01 X23.8516 Y82.7665 
G01 X23.6453 Y82.7113 
G01 X23.4481 Y82.6296 
G01 X23.2632 Y82.5228 
G01 X23.0938 Y82.3928 
G01 X22.9428 Y82.2419 
G01 X22.8129 Y82.0725 
G01 X22.7061 Y81.8876 
G01 X22.6244 Y81.6903 
G01 X22.5692 Y81.4841 
G01 X22.5413 Y81.2725 
G01 X22.5413 Y79.0015 
G01 X22.5692 Y78.7899 
G01 X22.6244 Y78.5836 
G01 X22.7061 Y78.3864 
G01 X22.8129 Y78.2015 
G01 X22.9428 Y78.0321 
G00 Z5.0000  
G00 X27.9428 Y78.0321 
G01 Z-0.0250 F50    
G01 X28.0938 Y77.8812 F50    
G01 X28.2632 Y77.7512 
G01 X28.4481 Y77.6444 
G01 X28.6453 Y77.5627 
G01 X28.8516 Y77.5075 
G01 X29.0632 Y77.4796 
G01 X29.2767 Y77.4796 
G01 X29.4884 Y77.5075 
G01 X29.6946 Y77.5627 
G01 X29.8919 Y77.6444 
G01 X30.0768 Y77.7512 
G01 X30.2462 Y77.8812 
G01 X30.3971 Y78.0321 
G01 X30.5271 Y78.2015 
G01 X30.6339 Y78.3864 
G01 X30.7156 Y78.5836 
G01 X30.7708 Y78.7899 
G01 X30.7987 Y79.0015 
G01 X30.7987 Y81.2725 
G01 X30.7708 Y81.4841 
G01 X30.7156 Y81.6903 
G01 X30.6339 Y81.8876 
G01 X30.5271 Y82.0725 
G01 X30.3971 Y82.2419 
G01 X30.2462 Y82.3928 
G01 X30.0768 Y82.5228 
G01 X29.8919 Y82.6296 
G01 X29.6946 Y82.7113 
G01 X29.4884 Y82.7665 
G01 X29.2767 Y82.7944 
G01 X29.0632 Y82.7944 
G01 X28.8516 Y82.7665 
G01 X28.6453 Y82.7113 
G01 X28.4481 Y82.6296 
G01 X28.2632 Y82.5228 
G01 X28.0938 Y82.3928 
G01 X27.9428 Y82.2419 
G01 X27.8129 Y82.0725 
G01 X27.7061 Y81.8876 
G01 X27.6244 Y81.6903 
G01 X27.5692 Y81.4841 
G01 X27.5413 Y81.2725 
G01 X27.5413 Y79.0015 
G01 X27.5692 Y78.7899 
G01 X27.6244 Y78.5836 
G01 X27.7061 Y78.3864 
G01 X27.8129 Y78.2015 
G01 X27.9428 Y78.0321 
G00 Z5.0000  
G00 X27.9446 Y71.7962 
G01 Z-0.0250 F50    
G01 X27.7718 Y71.6234 F50    
G01 X27.6282 Y71.4257 
G01 X27.5172 Y71.2080 
G01 X27.4417 Y70.9755 
G01 X27.4035 Y70.7342 
G01 X27.4035 Y70.4898 
G01 X27.4417 Y70.2485 
G01 X27.5172 Y70.0160 
G01 X27.6282 Y69.7983 
G01 X27.7718 Y69.6006 
G01 X27.9446 Y69.4278 
G01 X28.0627 Y69.3420 
G01 X27.9446 Y69.2562 
G01 X27.7718 Y69.0834 
G01 X27.6282 Y68.8857 
G01 X27.5172 Y68.6680 
G01 X27.4417 Y68.4355 
G01 X27.4035 Y68.1942 
G01 X27.4035 Y67.9498 
G01 X27.4417 Y67.7085 
G01 X27.5172 Y67.4760 
G01 X27.6282 Y67.2583 
G01 X27.7718 Y67.0606 
G01 X27.9446 Y66.8878 
G01 X28.0627 Y66.8020 
G01 X27.9446 Y66.7162 
G01 X27.7718 Y66.5434 
G01 X27.6282 Y66.3457 
G01 X27.5172 Y66.1280 
G01 X27.4417 Y65.8955 
G01 X27.4035 Y65.6542 
G01 X27.4035 Y65.4098 
G01 X27.4417 Y65.1685 
G01 X27.5172 Y64.9360 
G01 X27.6282 Y64.7183 
G01 X27.7718 Y64.5206 
G01 X27.9446 Y64.3478 
G01 X28.0627 Y64.2620 
G01 X27.9446 Y64.1762 
G01 X27.7718 Y64.0034 
G01 X27.6282 Y63.8057 
G01 X27.5172 Y63.5880 
G01 X27.4417 Y63.3555 
G01 X27.4035 Y63.1142 
G01 X27.4035 Y62.8698 
G01 X27.4417 Y62.6285 
G01 X27.5172 Y62.3960 
G01 X27.6282 Y62.1783 
G01 X27.7718 Y61.9806 
G01 X27.9446 Y61.8078 
G01 X28.0627 Y61.7220 
G01 X27.9446 Y61.6362 
G01 X27.7718 Y61.4634 
G01 X27.6282 Y61.2657 
G01 X27.5172 Y61.0480 
G01 X27.4417 Y60.8155 
G01 X27.4035 Y60.5742 
G01 X27.4035 Y60.3298 
G01 X27.4417 Y60.0885 
G01 X27.5172 Y59.8560 
G01 X27.6282 Y59.6383 
G01 X27.7718 Y59.4406 
G01 X27.9446 Y59.2678 
G01 X28.0627 Y59.1820 
G01 X27.9446 Y59.0962 
G01 X27.7718 Y58.9234 
G01 X27.6282 Y58.7257 
G01 X27.5172 Y58.5080 
G01 X27.4417 Y58.2755 
G01 X27.4035 Y58.0342 
G01 X27.4035 Y57.7898 
G01 X27.4417 Y57.5485 
G01 X27.5172 Y57.3160 
G01 X27.6282 Y57.0983 
G01 X27.7718 Y56.9006 
G01 X27.9446 Y56.7278 
G01 X28.0627 Y56.6420 
G01 X27.9446 Y56.5562 
G01 X27.7718 Y56.3834 
G01 X27.6282 Y56.1857 
G01 X27.5172 Y55.9680 
G01 X27.4417 Y55.7355 
G01 X27.4035 Y55.4942 
G01 X27.4035 Y55.2498 
G01 X27.4417 Y55.0085 
G01 X27.5172 Y54.7760 
G01 X27.6282 Y54.5583 
G01 X27.7718 Y54.3606 
G01 X27.9446 Y54.1878 
G01 X28.0627 Y54.1020 
G01 X27.9446 Y54.0162 
G01 X27.7718 Y53.8434 
G01 X27.6282 Y53.6457 
G01 X27.5172 Y53.4280 
G01 X27.4417 Y53.1955 
G01 X27.4035 Y52.9542 
G01 X27.4035 Y52.7098 
G01 X27.4417 Y52.4685 
G01 X27.5172 Y52.2360 
G01 X27.6282 Y52.0183 
G01 X27.7718 Y51.8206 
G01 X27.9446 Y51.6478 
G01 X28.1423 Y51.5042 
G01 X28.3600 Y51.3932 
G01 X28.5925 Y51.3177 
G01 X28.8338 Y51.2795 
G01 X29.0782 Y51.2795 
G01 X29.3195 Y51.3177 
G01 X29.5520 Y51.3932 
G01 X29.7697 Y51.5042 
G01 X29.9674 Y51.6478 
G01 X30.1402 Y51.8206 
G01 X30.2838 Y52.0183 
G01 X30.3948 Y52.2360 
G01 X30.4703 Y52.4685 
G01 X30.5085 Y52.7098 
G01 X30.5085 Y52.9542 
G01 X30.4703 Y53.1955 
G01 X30.3948 Y53.4280 
G01 X30.2838 Y53.6457 
G01 X30.1402 Y53.8434 
G01 X29.9674 Y54.0162 
G01 X29.8493 Y54.1020 
G01 X29.9674 Y54.1878 
G01 X30.1402 Y54.3606 
G01 X30.2838 Y54.5583 
G01 X30.3948 Y54.7760 
G01 X30.4703 Y55.0085 
G01 X30.5085 Y55.2498 
G01 X30.5085 Y55.4942 
G01 X30.4703 Y55.7355 
G01 X30.3948 Y55.9680 
G01 X30.2838 Y56.1857 
G01 X30.1402 Y56.3834 
G01 X29.9674 Y56.5562 
G01 X29.8493 Y56.6420 
G01 X29.9674 Y56.7278 
G01 X30.1402 Y56.9006 
G01 X30.2838 Y57.0983 
G01 X30.3948 Y57.3160 
G01 X30.4703 Y57.5485 
G01 X30.5085 Y57.7898 
G01 X30.5085 Y58.0342 
G01 X30.4703 Y58.2755 
G01 X30.3948 Y58.5080 
G01 X30.2838 Y58.7257 
G01 X30.1402 Y58.9234 
G01 X29.9674 Y59.0962 
G01 X29.8493 Y59.1820 
G01 X29.9674 Y59.2678 
G01 X30.1402 Y59.4406 
G01 X30.2838 Y59.6383 
G01 X30.3948 Y59.8560 
G01 X30.4703 Y60.0885 
G01 X30.5085 Y60.3298 
G01 X30.5085 Y60.5742 
G01 X30.4703 Y60.8155 
G01 X30.3948 Y61.0480 
G01 X30.2838 Y61.2657 
G01 X30.1402 Y61.4634 
G01 X29.9674 Y61.6362 
G01 X29.8493 Y61.7220 
G01 X29.9674 Y61.8078 
G01 X30.1402 Y61.9806 
G01 X30.2838 Y62.1783 
G01 X30.3948 Y62.3960 
G01 X30.4703 Y62.6285 
G01 X30.5085 Y62.8698 
G01 X30.5085 Y63.1142 
G01 X30.4703 Y63.3555 
G01 X30.3948 Y63.5880 
G01 X30.2838 Y63.8057 
G01 X30.1402 Y64.0034 
G01 X29.9674 Y64.1762 
G01 X29.8493 Y64.2620 
G01 X29.9674 Y64.3478 
G01 X30.1402 Y64.5206 
G01 X30.2838 Y64.7183 
G01 X30.3948 Y64.9360 
G01 X30.4703 Y65.1685 
G01 X30.5085 Y65.4098 
G01 X30.5085 Y65.6542 
G01 X30.4703 Y65.8955 
G01 X30.3948 Y66.1280 
G01 X30.2838 Y66.3457 
G01 X30.1402 Y66.5434 
G01 X29.9674 Y66.7162 
G01 X29.8493 Y66.8020 
G01 X29.9674 Y66.8878 
G01 X30.1402 Y67.0606 
G01 X30.2838 Y67.2583 
G01 X30.3948 Y67.4760 
G01 X30.4703 Y67.7085 
G01 X30.5085 Y67.9498 
G01 X30.5085 Y68.1942 
G01 X30.4703 Y68.4355 
G01 X30.3948 Y68.6680 
G01 X30.2838 Y68.8857 
G01 X30.1402 Y69.0834 
G01 X29.9674 Y69.2562 
G01 X29.8493 Y69.3420 
G01 X29.9674 Y69.4278 
G01 X30.1402 Y69.6006 
G01 X30.2838 Y69.7983 
G01 X30.3948 Y70.0160 
G01 X30.4703 Y70.2485 
G01 X30.5085 Y70.4898 
G01 X30.5085 Y70.7342 
G01 X30.4703 Y70.9755 
G01 X30.3948 Y71.2080 
G01 X30.2838 Y71.4257 
G01 X30.1402 Y71.6234 
G01 X29.9674 Y71.7962 
G01 X29.7697 Y71.9398 
G01 X29.5520 Y72.0508 
G01 X29.3195 Y72.1263 
G01 X29.0782 Y72.1645 
G01 X28.8338 Y72.1645 
G01 X28.5925 Y72.1263 
G01 X28.3600 Y72.0508 
G01 X28.1423 Y71.9398 
G01 X27.9446 Y71.7962 
G00 Z5.0000  
G00 X31.0671 Y64.9272 
G01 Z-0.0250 F50    
G01 X30.9070 Y64.7671 F50    
G01 X30.7739 Y64.5840 
G01 X30.6712 Y64.3823 
G01 X30.6012 Y64.1670 
G01 X30.5658 Y63.9434 
G01 X30.5658 Y62.0406 
G01 X30.6012 Y61.8170 
G01 X30.6712 Y61.6017 
G01 X30.7739 Y61.4000 
G01 X30.9070 Y61.2169 
G01 X31.0671 Y61.0568 
G01 X31.2502 Y60.9237 
G01 X31.4519 Y60.8210 
G01 X31.6672 Y60.7510 
G01 X31.8908 Y60.7156 
G01 X32.1172 Y60.7156 
G01 X32.3408 Y60.7510 
G01 X32.5561 Y60.8210 
G01 X32.7578 Y60.9237 
G01 X32.9409 Y61.0568 
G01 X33.1010 Y61.2169 
G01 X33.2341 Y61.4000 
G01 X33.3368 Y61.6017 
G01 X33.4010 Y61.7992 
G01 X33.4652 Y61.6017 
G01 X33.5679 Y61.4000 
G01 X33.7010 Y61.2169 
G01 X33.8611 Y61.0568 
G01 X34.0442 Y60.9237 
G01 X34.2459 Y60.8210 
G01 X34.4612 Y60.7510 
G01 X34.6848 Y60.7156 
G01 X34.9112 Y60.7156 
G01 X35.1348 Y60.7510 
G01 X35.3501 Y60.8210 
G01 X35.5518 Y60.9237 
G01 X35.7349 Y61.0568 
G01 X35.8950 Y61.2169 
G01 X36.0281 Y61.4000 
G01 X36.1308 Y61.6017 
G01 X36.2008 Y61.8170 
G01 X36.2362 Y62.0406 
G01 X36.2362 Y63.9434 
G01 X36.2008 Y64.1670 
G01 X36.1308 Y64.3823 
G01 X36.0281 Y64.5840 
G01 X35.8950 Y64.7671 
G01 X35.7349 Y64.9272 
G01 X35.5518 Y65.0603 
G01 X35.3501 Y65.1630 
G01 X35.1348 Y65.2330 
G01 X34.9112 Y65.2684 
G01 X34.6848 Y65.2684 
G01 X34.4612 Y65.2330 
G01 X34.2459 Y65.1630 
G01 X34.0442 Y65.0603 
G01 X33.8611 Y64.9272 
G01 X33.7010 Y64.7671 
G01 X33.5679 Y64.5840 
G01 X33.4652 Y64.3823 
G01 X33.4010 Y64.1848 
G01 X33.3368 Y64.3823 
G01 X33.2341 Y64.5840 
G01 X33.1010 Y64.7671 
G01 X32.9409 Y64.9272 
G01 X32.7578 Y65.0603 
G01 X32.5561 Y65.1630 
G01 X32.3408 Y65.2330 
G01 X32.1172 Y65.2684 
G01 X31.8908 Y65.2684 
G01 X31.6672 Y65.2330 
G01 X31.4519 Y65.1630 
G01 X31.2502 Y65.0603 
G01 X31.0671 Y64.9272 
G00 Z5.0000  
G00 X26.2430 Y62.2271 
G01 Z-0.0250 F50    
G01 X26.0829 Y62.3872 F50    
G01 X25.8998 Y62.5203 
G01 X25.6981 Y62.6230 
G01 X25.4828 Y62.6930 
G01 X25.2592 Y62.7284 
G01 X25.0328 Y62.7284 
G01 X24.8092 Y62.6930 
G01 X24.5939 Y62.6230 
G01 X24.3922 Y62.5203 
G01 X24.2091 Y62.3872 
G01 X24.0490 Y62.2271 
G01 X23.9159 Y62.0440 
G01 X23.8132 Y61.8423 
G01 X23.7432 Y61.6270 
G01 X23.7078 Y61.4034 
G01 X23.7078 Y59.5006 
G01 X23.7432 Y59.2770 
G01 X23.8132 Y59.0617 
G01 X23.9159 Y58.8600 
G01 X24.0490 Y58.6769 
G01 X24.2091 Y58.5168 
G01 X24.3922 Y58.3837 
G01 X24.5939 Y58.2810 
G01 X24.8092 Y58.2110 
G01 X25.0328 Y58.1756 
G01 X25.2592 Y58.1756 
G01 X25.4828 Y58.2110 
G01 X25.6981 Y58.2810 
G01 X25.8998 Y58.3837 
G01 X26.0829 Y58.5168 
G01 X26.2430 Y58.6769 
G01 X26.3761 Y58.8600 
G01 X26.4788 Y59.0617 
G01 X26.5488 Y59.2770 
G01 X26.5842 Y59.5006 
G01 X26.5842 Y61.4034 
G01 X26.5488 Y61.6270 
G01 X26.4788 Y61.8423 
G01 X26.3761 Y62.0440 
G01 X26.2430 Y62.2271 
G00 Z5.0000  
G00 X23.1950 Y62.2271 
G01 Z-0.0250 F50    
G01 X23.0349 Y62.3872 F50    
G01 X22.8518 Y62.5203 
G01 X22.6501 Y62.6230 
G01 X22.4348 Y62.6930 
G01 X22.2112 Y62.7284 
G01 X21.9848 Y62.7284 
G01 X21.7612 Y62.6930 
G01 X21.5459 Y62.6230 
G01 X21.3442 Y62.5203 
G01 X21.1611 Y62.3872 
G01 X21.0010 Y62.2271 
G01 X20.8679 Y62.0440 
G01 X20.7652 Y61.8423 
G01 X20.6952 Y61.6270 
G01 X20.6598 Y61.4034 
G01 X20.6598 Y59.5006 
G01 X20.6952 Y59.2770 
G01 X20.7652 Y59.0617 
G01 X20.8679 Y58.8600 
G01 X21.0010 Y58.6769 
G01 X21.1611 Y58.5168 
G01 X21.3442 Y58.3837 
G01 X21.5459 Y58.2810 
G01 X21.7612 Y58.2110 
G01 X21.9848 Y58.1756 
G01 X22.2112 Y58.1756 
G01 X22.4348 Y58.2110 
G01 X22.6501 Y58.2810 
G01 X22.8518 Y58.3837 
G01 X23.0349 Y58.5168 
G01 X23.1950 Y58.6769 
G01 X23.3281 Y58.8600 
G01 X23.4308 Y59.0617 
G01 X23.5008 Y59.2770 
G01 X23.5362 Y59.5006 
G01 X23.5362 Y61.4034 
G01 X23.5008 Y61.6270 
G01 X23.4308 Y61.8423 
G01 X23.3281 Y62.0440 
G01 X23.1950 Y62.2271 
G00 Z5.0000  
G00 X24.2091 Y54.7672 
G01 Z-0.0250 F50    
G01 X24.0490 Y54.6071 F50    
G01 X23.9159 Y54.4240 
G01 X23.8132 Y54.2223 
G01 X23.7432 Y54.0070 
G01 X23.7078 Y53.7834 
G01 X23.7078 Y51.8806 
G01 X23.7432 Y51.6570 
G01 X23.8132 Y51.4417 
G01 X23.9159 Y51.2400 
G01 X24.0490 Y51.0569 
G01 X24.2091 Y50.8968 
G01 X24.3922 Y50.7637 
G01 X24.5939 Y50.6610 
G01 X24.8092 Y50.5910 
G01 X25.0328 Y50.5556 
G01 X25.2592 Y50.5556 
G01 X25.4828 Y50.5910 
G01 X25.6981 Y50.6610 
G01 X25.8998 Y50.7637 
G01 X26.0829 Y50.8968 
G01 X26.2430 Y51.0569 
G01 X26.3761 Y51.2400 
G01 X26.4788 Y51.4417 
G01 X26.5488 Y51.6570 
G01 X26.5842 Y51.8806 
G01 X26.5842 Y53.7834 
G01 X26.5488 Y54.0070 
G01 X26.4788 Y54.2223 
G01 X26.3761 Y54.4240 
G01 X26.2430 Y54.6071 
G01 X26.0829 Y54.7672 
G01 X25.8998 Y54.9003 
G01 X25.6981 Y55.0030 
G01 X25.4828 Y55.0730 
G01 X25.2592 Y55.1084 
G01 X25.0328 Y55.1084 
G01 X24.8092 Y55.0730 
G01 X24.5939 Y55.0030 
G01 X24.3922 Y54.9003 
G01 X24.2091 Y54.7672 
G00 Z5.0000  
G00 X30.5658 Y54.4206 
G01 Z-0.0250 F50    
G01 X30.6012 Y54.1970 F50    
G01 X30.6712 Y53.9817 
G01 X30.7739 Y53.7800 
G01 X30.9070 Y53.5969 
G01 X31.0671 Y53.4368 
G01 X31.2502 Y53.3037 
G01 X31.4519 Y53.2010 
G01 X31.6672 Y53.1310 
G01 X31.8908 Y53.0956 
G01 X32.1172 Y53.0956 
G01 X32.3408 Y53.1310 
G01 X32.5561 Y53.2010 
G01 X32.7578 Y53.3037 
G01 X32.9409 Y53.4368 
G01 X33.1010 Y53.5969 
G01 X33.2341 Y53.7800 
G01 X33.3368 Y53.9817 
G01 X33.4010 Y54.1792 
G01 X33.4652 Y53.9817 
G01 X33.5679 Y53.7800 
G01 X33.7010 Y53.5969 
G01 X33.8611 Y53.4368 
G01 X34.0442 Y53.3037 
G01 X34.2459 Y53.2010 
G01 X34.4612 Y53.1310 
G01 X34.6848 Y53.0956 
G01 X34.9112 Y53.0956 
G01 X35.1348 Y53.1310 
G01 X35.3501 Y53.2010 
G01 X35.5518 Y53.3037 
G01 X35.7349 Y53.4368 
G01 X35.8950 Y53.5969 
G01 X36.0281 Y53.7800 
G01 X36.1308 Y53.9817 
G01 X36.2008 Y54.1970 
G01 X36.2362 Y54.4206 
G01 X36.2362 Y56.3234 
G01 X36.2008 Y56.5470 
G01 X36.1308 Y56.7623 
G01 X36.0281 Y56.9640 
G01 X35.8950 Y57.1471 
G01 X35.7349 Y57.3072 
G01 X35.5518 Y57.4403 
G01 X35.3501 Y57.5430 
G01 X35.1348 Y57.6130 
G01 X34.9112 Y57.6484 
G01 X34.6848 Y57.6484 
G01 X34.4612 Y57.6130 
G01 X34.2459 Y57.5430 
G01 X34.0442 Y57.4403 
G01 X33.8611 Y57.3072 
G01 X33.7010 Y57.1471 
G01 X33.5679 Y56.9640 
G01 X33.4652 Y56.7623 
G01 X33.4010 Y56.5648 
G01 X33.3368 Y56.7623 
G01 X33.2341 Y56.9640 
G01 X33.1010 Y57.1471 
G01 X32.9409 Y57.3072 
G01 X32.7578 Y57.4403 
G01 X32.5561 Y57.5430 
G01 X32.3408 Y57.6130 
G01 X32.1172 Y57.6484 
G01 X31.8908 Y57.6484 
G01 X31.6672 Y57.6130 
G01 X31.4519 Y57.5430 
G01 X31.2502 Y57.4403 
G01 X31.0671 Y57.3072 
G01 X30.9070 Y57.1471 
G01 X30.7739 Y56.9640 
G01 X30.6712 Y56.7623 
G01 X30.6012 Y56.5470 
G01 X30.5658 Y56.3234 
G01 X30.5658 Y54.4206 
G00 Z5.0000  
G00 X30.1402 Y48.6364 
G01 Z-0.0250 F50    
G01 X29.9674 Y48.8092 F50    
G01 X29.7697 Y48.9528 
G01 X29.5520 Y49.0638 
G01 X29.3195 Y49.1393 
G01 X29.0782 Y49.1775 
G01 X28.8338 Y49.1775 
G01 X28.5925 Y49.1393 
G01 X28.3600 Y49.0638 
G01 X28.1423 Y48.9528 
G01 X27.9446 Y48.8092 
G01 X27.7718 Y48.6364 
G01 X27.6282 Y48.4387 
G01 X27.5172 Y48.2210 
G01 X27.4417 Y47.9885 
G01 X27.4035 Y47.7472 
G01 X27.4035 Y47.5028 
G01 X27.4417 Y47.2615 
G01 X27.5172 Y47.0290 
G01 X27.6282 Y46.8113 
G01 X27.7718 Y46.6136 
G01 X27.9446 Y46.4408 
G01 X28.0627 Y46.3550 
G01 X27.9446 Y46.2692 
G01 X27.7718 Y46.0964 
G01 X27.6282 Y45.8987 
G01 X27.5172 Y45.6810 
G01 X27.4417 Y45.4485 
G01 X27.4035 Y45.2072 
G01 X27.4035 Y44.9628 
G01 X27.4417 Y44.7215 
G01 X27.5172 Y44.4890 
G01 X27.6282 Y44.2713 
G01 X27.7718 Y44.0736 
G01 X27.9446 Y43.9008 
G01 X28.0627 Y43.8150 
G01 X27.9446 Y43.7292 
G01 X27.7718 Y43.5564 
G01 X27.6282 Y43.3587 
G01 X27.5172 Y43.1410 
G01 X27.4417 Y42.9085 
G01 X27.4035 Y42.6672 
G01 X27.4035 Y42.4228 
G01 X27.4417 Y42.1815 
G01 X27.5172 Y41.9490 
G01 X27.6282 Y41.7313 
G01 X27.7718 Y41.5336 
G01 X27.9446 Y41.3608 
G01 X28.0627 Y41.2750 
G01 X27.9446 Y41.1892 
G01 X27.7718 Y41.0164 
G01 X27.6282 Y40.8187 
G01 X27.5172 Y40.6010 
G01 X27.4417 Y40.3685 
G01 X27.4035 Y40.1272 
G01 X27.4035 Y39.8828 
G01 X27.4417 Y39.6415 
G01 X27.5172 Y39.4090 
G01 X27.6282 Y39.1913 
G01 X27.7718 Y38.9936 
G01 X27.9446 Y38.8208 
G01 X28.0627 Y38.7350 
G01 X27.9446 Y38.6492 
G01 X27.7718 Y38.4764 
G01 X27.6282 Y38.2787 
G01 X27.5172 Y38.0610 
G01 X27.4417 Y37.8285 
G01 X27.4035 Y37.5872 
G01 X27.4035 Y37.3428 
G01 X27.4417 Y37.1015 
G01 X27.5172 Y36.8690 
G01 X27.6282 Y36.6513 
G01 X27.7718 Y36.4536 
G01 X27.9446 Y36.2808 
G01 X28.0627 Y36.1950 
G01 X27.9446 Y36.1092 
G01 X27.7718 Y35.9364 
G01 X27.6282 Y35.7387 
G01 X27.5172 Y35.5210 
G01 X27.4417 Y35.2885 
G01 X27.4035 Y35.0472 
G01 X27.4035 Y34.8028 
G01 X27.4417 Y34.5615 
G01 X27.5172 Y34.3290 
G01 X27.6282 Y34.1113 
G01 X27.7718 Y33.9136 
G01 X27.9446 Y33.7408 
G01 X28.0627 Y33.6550 
G01 X27.9446 Y33.5692 
G01 X27.7718 Y33.3964 
G01 X27.6282 Y33.1987 
G01 X27.5172 Y32.9810 
G01 X27.4417 Y32.7485 
G01 X27.4035 Y32.5072 
G01 X27.4035 Y32.2628 
G01 X27.4417 Y32.0215 
G01 X27.5172 Y31.7890 
G01 X27.6282 Y31.5713 
G01 X27.7718 Y31.3736 
G01 X27.9446 Y31.2008 
G01 X28.0627 Y31.1150 
G01 X27.9446 Y31.0292 
G01 X27.7718 Y30.8564 
G01 X27.6282 Y30.6587 
G01 X27.5172 Y30.4410 
G01 X27.4417 Y30.2085 
G01 X27.4035 Y29.9672 
G01 X27.4035 Y29.7228 
G01 X27.4417 Y29.4815 
G01 X27.5172 Y29.2490 
G01 X27.6282 Y29.0313 
G01 X27.7718 Y28.8336 
G01 X27.9446 Y28.6608 
G01 X28.1423 Y28.5172 
G01 X28.3600 Y28.4062 
G01 X28.5925 Y28.3307 
G01 X28.8338 Y28.2925 
G01 X29.0782 Y28.2925 
G01 X29.3195 Y28.3307 
G01 X29.5520 Y28.4062 
G01 X29.7697 Y28.5172 
G01 X29.9674 Y28.6608 
G01 X30.1402 Y28.8336 
G01 X30.2838 Y29.0313 
G01 X30.3948 Y29.2490 
G01 X30.4703 Y29.4815 
G01 X30.5085 Y29.7228 
G01 X30.5085 Y29.9672 
G01 X30.4703 Y30.2085 
G01 X30.3948 Y30.4410 
G01 X30.2838 Y30.6587 
G01 X30.1402 Y30.8564 
G01 X29.9674 Y31.0292 
G01 X29.8493 Y31.1150 
G01 X29.9674 Y31.2008 
G01 X30.1402 Y31.3736 
G01 X30.2838 Y31.5713 
G01 X30.3948 Y31.7890 
G01 X30.4703 Y32.0215 
G01 X30.5085 Y32.2628 
G01 X30.5085 Y32.5072 
G01 X30.4703 Y32.7485 
G01 X30.3948 Y32.9810 
G01 X30.2838 Y33.1987 
G01 X30.1402 Y33.3964 
G01 X29.9674 Y33.5692 
G01 X29.8493 Y33.6550 
G01 X29.9674 Y33.7408 
G01 X30.1402 Y33.9136 
G01 X30.2838 Y34.1113 
G01 X30.3948 Y34.3290 
G01 X30.4703 Y34.5615 
G01 X30.5085 Y34.8028 
G01 X30.5085 Y35.0472 
G01 X30.4703 Y35.2885 
G01 X30.3948 Y35.5210 
G01 X30.2838 Y35.7387 
G01 X30.1402 Y35.9364 
G01 X29.9674 Y36.1092 
G01 X29.8493 Y36.1950 
G01 X29.9674 Y36.2808 
G01 X30.1402 Y36.4536 
G01 X30.2838 Y36.6513 
G01 X30.3948 Y36.8690 
G01 X30.4703 Y37.1015 
G01 X30.5085 Y37.3428 
G01 X30.5085 Y37.5872 
G01 X30.4703 Y37.8285 
G01 X30.3948 Y38.0610 
G01 X30.2838 Y38.2787 
G01 X30.1402 Y38.4764 
G01 X29.9674 Y38.6492 
G01 X29.8493 Y38.7350 
G01 X29.9674 Y38.8208 
G01 X30.1402 Y38.9936 
G01 X30.2838 Y39.1913 
G01 X30.3948 Y39.4090 
G01 X30.4703 Y39.6415 
G01 X30.5085 Y39.8828 
G01 X30.5085 Y40.1272 
G01 X30.4703 Y40.3685 
G01 X30.3948 Y40.6010 
G01 X30.2838 Y40.8187 
G01 X30.1402 Y41.0164 
G01 X29.9674 Y41.1892 
G01 X29.8493 Y41.2750 
G01 X29.9674 Y41.3608 
G01 X30.1402 Y41.5336 
G01 X30.2838 Y41.7313 
G01 X30.3948 Y41.9490 
G01 X30.4703 Y42.1815 
G01 X30.5085 Y42.4228 
G01 X30.5085 Y42.6672 
G01 X30.4703 Y42.9085 
G01 X30.3948 Y43.1410 
G01 X30.2838 Y43.3587 
G01 X30.1402 Y43.5564 
G01 X29.9674 Y43.7292 
G01 X29.8493 Y43.8150 
G01 X29.9674 Y43.9008 
G01 X30.1402 Y44.0736 
G01 X30.2838 Y44.2713 
G01 X30.3948 Y44.4890 
G01 X30.4703 Y44.7215 
G01 X30.5085 Y44.9628 
G01 X30.5085 Y45.2072 
G01 X30.4703 Y45.4485 
G01 X30.3948 Y45.6810 
G01 X30.2838 Y45.8987 
G01 X30.1402 Y46.0964 
G01 X29.9674 Y46.2692 
G01 X29.8493 Y46.3550 
G01 X29.9674 Y46.4408 
G01 X30.1402 Y46.6136 
G01 X30.2838 Y46.8113 
G01 X30.3948 Y47.0290 
G01 X30.4703 Y47.2615 
G01 X30.5085 Y47.5028 
G01 X30.5085 Y47.7472 
G01 X30.4703 Y47.9885 
G01 X30.3948 Y48.2210 
G01 X30.2838 Y48.4387 
G01 X30.1402 Y48.6364 
G00 Z5.0000  
G00 X31.0308 Y41.9402 
G01 Z-0.0250 F50    
G01 X30.8707 Y41.7801 F50    
G01 X30.7376 Y41.5970 
G01 X30.6349 Y41.3953 
G01 X30.5649 Y41.1800 
G01 X30.5295 Y40.9564 
G01 X30.5295 Y39.0536 
G01 X30.5649 Y38.8300 
G01 X30.6349 Y38.6147 
G01 X30.7376 Y38.4130 
G01 X30.8707 Y38.2299 
G01 X31.0308 Y38.0698 
G01 X31.2139 Y37.9367 
G01 X31.4156 Y37.8340 
G01 X31.6309 Y37.7640 
G01 X31.8545 Y37.7286 
G01 X32.0809 Y37.7286 
G01 X32.3045 Y37.7640 
G01 X32.5198 Y37.8340 
G01 X32.7215 Y37.9367 
G01 X32.9046 Y38.0698 
G01 X33.0647 Y38.2299 
G01 X33.1978 Y38.4130 
G01 X33.3005 Y38.6147 
G01 X33.3556 Y38.7843 
G01 X33.4107 Y38.6147 
G01 X33.5135 Y38.4130 
G01 X33.6466 Y38.2299 
G01 X33.8066 Y38.0698 
G01 X33.9898 Y37.9367 
G01 X34.1915 Y37.8340 
G01 X34.4068 Y37.7640 
G01 X34.6304 Y37.7286 
G01 X34.8567 Y37.7286 
G01 X35.0803 Y37.7640 
G01 X35.2956 Y37.8340 
G01 X35.4973 Y37.9367 
G01 X35.6805 Y38.0698 
G01 X35.8406 Y38.2299 
G01 X35.9736 Y38.4130 
G01 X36.0764 Y38.6147 
G01 X36.1463 Y38.8300 
G01 X36.1818 Y39.0536 
G01 X36.1818 Y40.9564 
G01 X36.1463 Y41.1800 
G01 X36.0764 Y41.3953 
G01 X35.9736 Y41.5970 
G01 X35.8406 Y41.7801 
G01 X35.6805 Y41.9402 
G01 X35.4973 Y42.0733 
G01 X35.2956 Y42.1760 
G01 X35.0803 Y42.2460 
G01 X34.8567 Y42.2814 
G01 X34.6304 Y42.2814 
G01 X34.4068 Y42.2460 
G01 X34.1915 Y42.1760 
G01 X33.9898 Y42.0733 
G01 X33.8066 Y41.9402 
G01 X33.6466 Y41.7801 
G01 X33.5135 Y41.5970 
G01 X33.4107 Y41.3953 
G01 X33.3556 Y41.2257 
G01 X33.3005 Y41.3953 
G01 X33.1978 Y41.5970 
G01 X33.0647 Y41.7801 
G01 X32.9046 Y41.9402 
G01 X32.7215 Y42.0733 
G01 X32.5198 Y42.1760 
G01 X32.3045 Y42.2460 
G01 X32.0809 Y42.2814 
G01 X31.8545 Y42.2814 
G01 X31.6309 Y42.2460 
G01 X31.4156 Y42.1760 
G01 X31.2139 Y42.0733 
G01 X31.0308 Y41.9402 
G00 Z5.0000  
G00 X26.1523 Y39.2401 
G01 Z-0.0250 F50    
G01 X25.9922 Y39.4002 F50    
G01 X25.8091 Y39.5333 
G01 X25.6074 Y39.6360 
G01 X25.3921 Y39.7060 
G01 X25.1685 Y39.7414 
G01 X24.9421 Y39.7414 
G01 X24.7185 Y39.7060 
G01 X24.5032 Y39.6360 
G01 X24.3015 Y39.5333 
G01 X24.1184 Y39.4002 
G01 X23.9583 Y39.2401 
G01 X23.8252 Y39.0570 
G01 X23.7224 Y38.8553 
G01 X23.6525 Y38.6400 
G01 X23.6171 Y38.4164 
G01 X23.6171 Y36.5136 
G01 X23.6525 Y36.2900 
G01 X23.7224 Y36.0747 
G01 X23.8252 Y35.8730 
G01 X23.9583 Y35.6899 
G01 X24.1184 Y35.5298 
G01 X24.3015 Y35.3967 
G01 X24.5032 Y35.2940 
G01 X24.7185 Y35.2240 
G01 X24.9421 Y35.1886 
G01 X25.1685 Y35.1886 
G01 X25.3921 Y35.2240 
G01 X25.6074 Y35.2940 
G01 X25.8091 Y35.3967 
G01 X25.9922 Y35.5298 
G01 X26.1523 Y35.6899 
G01 X26.2853 Y35.8730 
G01 X26.3881 Y36.0747 
G01 X26.4581 Y36.2900 
G01 X26.4935 Y36.5136 
G01 X26.4935 Y38.4164 
G01 X26.4581 Y38.6400 
G01 X26.3881 Y38.8553 
G01 X26.2853 Y39.0570 
G01 X26.1523 Y39.2401 
G00 Z5.0000  
G00 X26.1523 Y31.6201 
G01 Z-0.0250 F50    
G01 X25.9922 Y31.7802 F50    
G01 X25.8091 Y31.9133 
G01 X25.6074 Y32.0160 
G01 X25.3921 Y32.0860 
G01 X25.1685 Y32.1214 
G01 X24.9421 Y32.1214 
G01 X24.7185 Y32.0860 
G01 X24.5032 Y32.0160 
G01 X24.3015 Y31.9133 
G01 X24.1184 Y31.7802 
G01 X23.9583 Y31.6201 
G01 X23.8252 Y31.4370 
G01 X23.7224 Y31.2353 
G01 X23.6525 Y31.0200 
G01 X23.6171 Y30.7964 
G01 X23.6171 Y28.8936 
G01 X23.6525 Y28.6700 
G01 X23.7224 Y28.4547 
G01 X23.8252 Y28.2530 
G01 X23.9583 Y28.0699 
G01 X24.1184 Y27.9098 
G01 X24.3015 Y27.7767 
G01 X24.5032 Y27.6740 
G01 X24.7185 Y27.6040 
G01 X24.9421 Y27.5686 
G01 X25.1685 Y27.5686 
G01 X25.3921 Y27.6040 
G01 X25.6074 Y27.6740 
G01 X25.8091 Y27.7767 
G01 X25.9922 Y27.9098 
G01 X26.1523 Y28.0699 
G01 X26.2853 Y28.2530 
G01 X26.3881 Y28.4547 
G01 X26.4581 Y28.6700 
G01 X26.4935 Y28.8936 
G01 X26.4935 Y30.7964 
G01 X26.4581 Y31.0200 
G01 X26.3881 Y31.2353 
G01 X26.2853 Y31.4370 
G01 X26.1523 Y31.6201 
G00 Z5.0000  
G00 X30.5295 Y31.4336 
G01 Z-0.0250 F50    
G01 X30.5649 Y31.2100 F50    
G01 X30.6349 Y30.9947 
G01 X30.7376 Y30.7930 
G01 X30.8707 Y30.6099 
G01 X31.0308 Y30.4498 
G01 X31.2139 Y30.3167 
G01 X31.4156 Y30.2140 
G01 X31.6309 Y30.1440 
G01 X31.8545 Y30.1086 
G01 X32.0809 Y30.1086 
G01 X32.3045 Y30.1440 
G01 X32.5198 Y30.2140 
G01 X32.7215 Y30.3167 
G01 X32.9046 Y30.4498 
G01 X33.0647 Y30.6099 
G01 X33.1978 Y30.7930 
G01 X33.3005 Y30.9947 
G01 X33.3556 Y31.1643 
G01 X33.4107 Y30.9947 
G01 X33.5135 Y30.7930 
G01 X33.6466 Y30.6099 
G01 X33.8066 Y30.4498 
G01 X33.9898 Y30.3167 
G01 X34.1915 Y30.2140 
G01 X34.4068 Y30.1440 
G01 X34.6304 Y30.1086 
G01 X34.8567 Y30.1086 
G01 X35.0803 Y30.1440 
G01 X35.2956 Y30.2140 
G01 X35.4973 Y30.3167 
G01 X35.6805 Y30.4498 
G01 X35.8406 Y30.6099 
G01 X35.9736 Y30.7930 
G01 X36.0764 Y30.9947 
G01 X36.1463 Y31.2100 
G01 X36.1818 Y31.4336 
G01 X36.1818 Y33.3364 
G01 X36.1463 Y33.5600 
G01 X36.0764 Y33.7753 
G01 X35.9736 Y33.9770 
G01 X35.8406 Y34.1601 
G01 X35.6805 Y34.3202 
G01 X35.4973 Y34.4533 
G01 X35.2956 Y34.5560 
G01 X35.0803 Y34.6260 
G01 X34.8567 Y34.6614 
G01 X34.6304 Y34.6614 
G01 X34.4068 Y34.6260 
G01 X34.1915 Y34.5560 
G01 X33.9898 Y34.4533 
G01 X33.8066 Y34.3202 
G01 X33.6466 Y34.1601 
G01 X33.5135 Y33.9770 
G01 X33.4107 Y33.7753 
G01 X33.3556 Y33.6057 
G01 X33.3005 Y33.7753 
G01 X33.1978 Y33.9770 
G01 X33.0647 Y34.1601 
G01 X32.9046 Y34.3202 
G01 X32.7215 Y34.4533 
G01 X32.5198 Y34.5560 
G01 X32.3045 Y34.6260 
G01 X32.0809 Y34.6614 
G01 X31.8545 Y34.6614 
G01 X31.6309 Y34.6260 
G01 X31.4156 Y34.5560 
G01 X31.2139 Y34.4533 
G01 X31.0308 Y34.3202 
G01 X30.8707 Y34.1601 
G01 X30.7376 Y33.9770 
G01 X30.6349 Y33.7753 
G01 X30.5649 Y33.5600 
G01 X30.5295 Y33.3364 
G01 X30.5295 Y31.4336 
G00 Z5.0000  
G00 X30.3942 Y24.6334 
G01 Z-0.0250 F50    
G01 X30.2214 Y24.8062 F50    
G01 X30.0237 Y24.9498 
G01 X29.8060 Y25.0608 
G01 X29.5735 Y25.1363 
G01 X29.3322 Y25.1745 
G01 X29.0878 Y25.1745 
G01 X28.8465 Y25.1363 
G01 X28.6140 Y25.0608 
G01 X28.3963 Y24.9498 
G01 X28.1986 Y24.8062 
G01 X28.0258 Y24.6334 
G01 X27.8822 Y24.4357 
G01 X27.7712 Y24.2180 
G01 X27.6957 Y23.9855 
G01 X27.6575 Y23.7442 
G01 X27.6575 Y23.4998 
G01 X27.6957 Y23.2585 
G01 X27.7712 Y23.0260 
G01 X27.8822 Y22.8083 
G01 X28.0258 Y22.6106 
G01 X28.1986 Y22.4378 
G01 X28.3167 Y22.3520 
G01 X28.1986 Y22.2662 
G01 X28.0258 Y22.0934 
G01 X27.8822 Y21.8957 
G01 X27.7712 Y21.6780 
G01 X27.6957 Y21.4455 
G01 X27.6575 Y21.2042 
G01 X27.6575 Y20.9598 
G01 X27.6957 Y20.7185 
G01 X27.7712 Y20.4860 
G01 X27.8822 Y20.2683 
G01 X28.0258 Y20.0706 
G01 X28.1986 Y19.8978 
G01 X28.3167 Y19.8120 
G01 X28.1986 Y19.7262 
G01 X28.0258 Y19.5534 
G01 X27.8822 Y19.3557 
G01 X27.7712 Y19.1380 
G01 X27.6957 Y18.9055 
G01 X27.6575 Y18.6642 
G01 X27.6575 Y18.4198 
G01 X27.6957 Y18.1785 
G01 X27.7712 Y17.9460 
G01 X27.8822 Y17.7283 
G01 X28.0258 Y17.5306 
G01 X28.1986 Y17.3578 
G01 X28.3167 Y17.2720 
G01 X28.1986 Y17.1862 
G01 X28.0258 Y17.0134 
G01 X27.8822 Y16.8157 
G01 X27.7712 Y16.5980 
G01 X27.6957 Y16.3655 
G01 X27.6575 Y16.1242 
G01 X27.6575 Y15.8798 
G01 X27.6957 Y15.6385 
G01 X27.7712 Y15.4060 
G01 X27.8822 Y15.1883 
G01 X28.0258 Y14.9906 
G01 X28.1986 Y14.8178 
G01 X28.3167 Y14.7320 
G01 X28.1986 Y14.6462 
G01 X28.0258 Y14.4734 
G01 X27.8822 Y14.2757 
G01 X27.7712 Y14.0580 
G01 X27.6957 Y13.8255 
G01 X27.6575 Y13.5842 
G01 X27.6575 Y13.3398 
G01 X27.6957 Y13.0985 
G01 X27.7712 Y12.8660 
G01 X27.8822 Y12.6483 
G01 X28.0258 Y12.4506 
G01 X28.1986 Y12.2778 
G01 X28.3167 Y12.1920 
G01 X28.1986 Y12.1062 
G01 X28.0258 Y11.9334 
G01 X27.8822 Y11.7357 
G01 X27.7712 Y11.5180 
G01 X27.6957 Y11.2855 
G01 X27.6575 Y11.0442 
G01 X27.6575 Y10.7998 
G01 X27.6957 Y10.5585 
G01 X27.7712 Y10.3260 
G01 X27.8822 Y10.1083 
G01 X28.0258 Y9.9106  
G01 X28.1986 Y9.7378  
G01 X28.3167 Y9.6520  
G01 X28.1986 Y9.5662  
G01 X28.0258 Y9.3934  
G01 X27.8822 Y9.1957  
G01 X27.7712 Y8.9780  
G01 X27.6957 Y8.7455  
G01 X27.6575 Y8.5042  
G01 X27.6575 Y8.2598  
G01 X27.6957 Y8.0185  
G01 X27.7712 Y7.7860  
G01 X27.8822 Y7.5683  
G01 X28.0258 Y7.3706  
G01 X28.1986 Y7.1978  
G01 X28.3167 Y7.1120  
G01 X28.1986 Y7.0262  
G01 X28.0258 Y6.8534  
G01 X27.8822 Y6.6557  
G01 X27.7712 Y6.4380  
G01 X27.6957 Y6.2055  
G01 X27.6575 Y5.9642  
G01 X27.6575 Y5.7198  
G01 X27.6957 Y5.4785  
G01 X27.7712 Y5.2460  
G01 X27.8822 Y5.0283  
G01 X28.0258 Y4.8306  
G01 X28.1986 Y4.6578  
G01 X28.3963 Y4.5142  
G01 X28.6140 Y4.4032  
G01 X28.8465 Y4.3277  
G01 X29.0878 Y4.2895  
G01 X29.3322 Y4.2895  
G01 X29.5735 Y4.3277  
G01 X29.8060 Y4.4032  
G01 X30.0237 Y4.5142  
G01 X30.2214 Y4.6578  
G01 X30.3942 Y4.8306  
G01 X30.5378 Y5.0283  
G01 X30.6488 Y5.2460  
G01 X30.7243 Y5.4785  
G01 X30.7625 Y5.7198  
G01 X30.7625 Y5.9642  
G01 X30.7243 Y6.2055  
G01 X30.6488 Y6.4380  
G01 X30.5378 Y6.6557  
G01 X30.3942 Y6.8534  
G01 X30.2214 Y7.0262  
G01 X30.1033 Y7.1120  
G01 X30.2214 Y7.1978  
G01 X30.3942 Y7.3706  
G01 X30.5295 Y7.5569  
G01 X30.5295 Y7.4306  
G01 X30.5649 Y7.2070  
G01 X30.6349 Y6.9917  
G01 X30.7376 Y6.7900  
G01 X30.8707 Y6.6069  
G01 X31.0308 Y6.4468  
G01 X31.2139 Y6.3137  
G01 X31.4156 Y6.2110  
G01 X31.6309 Y6.1410  
G01 X31.8545 Y6.1056  
G01 X32.0809 Y6.1056  
G01 X32.3045 Y6.1410  
G01 X32.5198 Y6.2110  
G01 X32.7215 Y6.3137  
G01 X32.9046 Y6.4468  
G01 X33.0647 Y6.6069  
G01 X33.1978 Y6.7900  
G01 X33.3005 Y6.9917  
G01 X33.3556 Y7.1613  
G01 X33.4107 Y6.9917  
G01 X33.5135 Y6.7900  
G01 X33.6466 Y6.6069  
G01 X33.8066 Y6.4468  
G01 X33.9898 Y6.3137  
G01 X34.1915 Y6.2110  
G01 X34.4068 Y6.1410  
G01 X34.6304 Y6.1056  
G01 X34.8567 Y6.1056  
G01 X35.0803 Y6.1410  
G01 X35.2956 Y6.2110  
G01 X35.4973 Y6.3137  
G01 X35.6805 Y6.4468  
G01 X35.8406 Y6.6069  
G01 X35.9736 Y6.7900  
G01 X36.0764 Y6.9917  
G01 X36.1463 Y7.2070  
G01 X36.1818 Y7.4306  
G01 X36.1818 Y9.3334  
G01 X36.1463 Y9.5570  
G01 X36.0764 Y9.7723  
G01 X35.9736 Y9.9740  
G01 X35.8406 Y10.1571 
G01 X35.6805 Y10.3172 
G01 X35.4973 Y10.4503 
G01 X35.2956 Y10.5530 
G01 X35.0803 Y10.6230 
G01 X34.8567 Y10.6584 
G01 X34.6304 Y10.6584 
G01 X34.4068 Y10.6230 
G01 X34.1915 Y10.5530 
G01 X33.9898 Y10.4503 
G01 X33.8066 Y10.3172 
G01 X33.6466 Y10.1571 
G01 X33.5135 Y9.9740  
G01 X33.4107 Y9.7723  
G01 X33.3556 Y9.6027  
G01 X33.3005 Y9.7723  
G01 X33.1978 Y9.9740  
G01 X33.0647 Y10.1571 
G01 X32.9046 Y10.3172 
G01 X32.7215 Y10.4503 
G01 X32.5198 Y10.5530 
G01 X32.3045 Y10.6230 
G01 X32.0809 Y10.6584 
G01 X31.8545 Y10.6584 
G01 X31.6309 Y10.6230 
G01 X31.4156 Y10.5530 
G01 X31.2139 Y10.4503 
G01 X31.0308 Y10.3172 
G01 X30.8707 Y10.1571 
G01 X30.7376 Y9.9740  
G01 X30.6349 Y9.7723  
G01 X30.5649 Y9.5570  
G01 X30.5295 Y9.3334  
G01 X30.5295 Y9.2071  
G01 X30.3942 Y9.3934  
G01 X30.2214 Y9.5662  
G01 X30.1033 Y9.6520  
G01 X30.2214 Y9.7378  
G01 X30.3942 Y9.9106  
G01 X30.5378 Y10.1083 
G01 X30.6488 Y10.3260 
G01 X30.7243 Y10.5585 
G01 X30.7625 Y10.7998 
G01 X30.7625 Y11.0442 
G01 X30.7243 Y11.2855 
G01 X30.6488 Y11.5180 
G01 X30.5378 Y11.7357 
G01 X30.3942 Y11.9334 
G01 X30.2214 Y12.1062 
G01 X30.1033 Y12.1920 
G01 X30.2214 Y12.2778 
G01 X30.3942 Y12.4506 
G01 X30.5378 Y12.6483 
G01 X30.6488 Y12.8660 
G01 X30.7243 Y13.0985 
G01 X30.7625 Y13.3398 
G01 X30.7625 Y13.5842 
G01 X30.7243 Y13.8255 
G01 X30.6488 Y14.0580 
G01 X30.5378 Y14.2757 
G01 X30.3942 Y14.4734 
G01 X30.2214 Y14.6462 
G01 X30.1033 Y14.7320 
G01 X30.2214 Y14.8178 
G01 X30.3942 Y14.9906 
G01 X30.5295 Y15.1769 
G01 X30.5295 Y15.0506 
G01 X30.5649 Y14.8270 
G01 X30.6349 Y14.6117 
G01 X30.7376 Y14.4100 
G01 X30.8707 Y14.2269 
G01 X31.0308 Y14.0668 
G01 X31.2139 Y13.9337 
G01 X31.4156 Y13.8310 
G01 X31.6309 Y13.7610 
G01 X31.8545 Y13.7256 
G01 X32.0809 Y13.7256 
G01 X32.3045 Y13.7610 
G01 X32.5198 Y13.8310 
G01 X32.7215 Y13.9337 
G01 X32.9046 Y14.0668 
G01 X33.0647 Y14.2269 
G01 X33.1978 Y14.4100 
G01 X33.3005 Y14.6117 
G01 X33.3556 Y14.7813 
G01 X33.4107 Y14.6117 
G01 X33.5135 Y14.4100 
G01 X33.6466 Y14.2269 
G01 X33.8066 Y14.0668 
G01 X33.9898 Y13.9337 
G01 X34.1915 Y13.8310 
G01 X34.4068 Y13.7610 
G01 X34.6304 Y13.7256 
G01 X34.8567 Y13.7256 
G01 X35.0803 Y13.7610 
G01 X35.2956 Y13.8310 
G01 X35.4973 Y13.9337 
G01 X35.6805 Y14.0668 
G01 X35.8406 Y14.2269 
G01 X35.9736 Y14.4100 
G01 X36.0764 Y14.6117 
G01 X36.1463 Y14.8270 
G01 X36.1818 Y15.0506 
G01 X36.1818 Y16.9534 
G01 X36.1463 Y17.1770 
G01 X36.0764 Y17.3923 
G01 X35.9736 Y17.5940 
G01 X35.8406 Y17.7771 
G01 X35.6805 Y17.9372 
G01 X35.4973 Y18.0703 
G01 X35.2956 Y18.1730 
G01 X35.0803 Y18.2430 
G01 X34.8567 Y18.2784 
G01 X34.6304 Y18.2784 
G01 X34.4068 Y18.2430 
G01 X34.1915 Y18.1730 
G01 X33.9898 Y18.0703 
G01 X33.8066 Y17.9372 
G01 X33.6466 Y17.7771 
G01 X33.5135 Y17.5940 
G01 X33.4107 Y17.3923 
G01 X33.3556 Y17.2227 
G01 X33.3005 Y17.3923 
G01 X33.1978 Y17.5940 
G01 X33.0647 Y17.7771 
G01 X32.9046 Y17.9372 
G01 X32.7215 Y18.0703 
G01 X32.5198 Y18.1730 
G01 X32.3045 Y18.2430 
G01 X32.0809 Y18.2784 
G01 X31.8545 Y18.2784 
G01 X31.6309 Y18.2430 
G01 X31.4156 Y18.1730 
G01 X31.2139 Y18.0703 
G01 X31.0308 Y17.9372 
G01 X30.8707 Y17.7771 
G01 X30.7376 Y17.5940 
G01 X30.6349 Y17.3923 
G01 X30.5649 Y17.1770 
G01 X30.5295 Y16.9534 
G01 X30.5295 Y16.8271 
G01 X30.3942 Y17.0134 
G01 X30.2214 Y17.1862 
G01 X30.1033 Y17.2720 
G01 X30.2214 Y17.3578 
G01 X30.3942 Y17.5306 
G01 X30.5378 Y17.7283 
G01 X30.6488 Y17.9460 
G01 X30.7243 Y18.1785 
G01 X30.7625 Y18.4198 
G01 X30.7625 Y18.6642 
G01 X30.7243 Y18.9055 
G01 X30.6488 Y19.1380 
G01 X30.5378 Y19.3557 
G01 X30.3942 Y19.5534 
G01 X30.2214 Y19.7262 
G01 X30.1033 Y19.8120 
G01 X30.2214 Y19.8978 
G01 X30.3942 Y20.0706 
G01 X30.5378 Y20.2683 
G01 X30.6488 Y20.4860 
G01 X30.7243 Y20.7185 
G01 X30.7625 Y20.9598 
G01 X30.7625 Y21.2042 
G01 X30.7243 Y21.4455 
G01 X30.6488 Y21.6780 
G01 X30.5378 Y21.8957 
G01 X30.3942 Y22.0934 
G01 X30.2214 Y22.2662 
G01 X30.1033 Y22.3520 
G01 X30.2214 Y22.4378 
G01 X30.3942 Y22.6106 
G01 X30.5378 Y22.8083 
G01 X30.6488 Y23.0260 
G01 X30.7243 Y23.2585 
G01 X30.7625 Y23.4998 
G01 X30.7625 Y23.7442 
G01 X30.7243 Y23.9855 
G01 X30.6488 Y24.2180 
G01 X30.5378 Y24.4357 
G01 X30.3942 Y24.6334 
G00 Z5.0000  
G00 X40.7258 Y24.6334 
G01 Z-0.0250 F50    
G01 X40.5822 Y24.4357 F50    
G01 X40.4712 Y24.2180 
G01 X40.3957 Y23.9855 
G01 X40.3575 Y23.7442 
G01 X40.3575 Y23.4998 
G01 X40.3957 Y23.2585 
G01 X40.4712 Y23.0260 
G01 X40.5822 Y22.8083 
G01 X40.7258 Y22.6106 
G01 X40.8986 Y22.4378 
G01 X41.0167 Y22.3520 
G01 X40.8986 Y22.2662 
G01 X40.7258 Y22.0934 
G01 X40.5822 Y21.8957 
G01 X40.4712 Y21.6780 
G01 X40.3957 Y21.4455 
G01 X40.3575 Y21.2042 
G01 X40.3575 Y20.9598 
G01 X40.3957 Y20.7185 
G01 X40.4712 Y20.4860 
G01 X40.5822 Y20.2683 
G01 X40.7258 Y20.0706 
G01 X40.8986 Y19.8978 
G01 X41.0167 Y19.8120 
G01 X40.8986 Y19.7262 
G01 X40.7258 Y19.5534 
G01 X40.5822 Y19.3557 
G01 X40.4712 Y19.1380 
G01 X40.3957 Y18.9055 
G01 X40.3575 Y18.6642 
G01 X40.3575 Y18.4198 
G01 X40.3957 Y18.1785 
G01 X40.4712 Y17.9460 
G01 X40.5822 Y17.7283 
G01 X40.7258 Y17.5306 
G01 X40.8986 Y17.3578 
G01 X41.0167 Y17.2720 
G01 X40.8986 Y17.1862 
G01 X40.7258 Y17.0134 
G01 X40.5822 Y16.8157 
G01 X40.4712 Y16.5980 
G01 X40.3957 Y16.3655 
G01 X40.3575 Y16.1242 
G01 X40.3575 Y15.8798 
G01 X40.3957 Y15.6385 
G01 X40.4712 Y15.4060 
G01 X40.5822 Y15.1883 
G01 X40.7258 Y14.9906 
G01 X40.8986 Y14.8178 
G01 X41.0167 Y14.7320 
G01 X40.8986 Y14.6462 
G01 X40.7258 Y14.4734 
G01 X40.5822 Y14.2757 
G01 X40.4712 Y14.0580 
G01 X40.3957 Y13.8255 
G01 X40.3575 Y13.5842 
G01 X40.3575 Y13.3398 
G01 X40.3957 Y13.0985 
G01 X40.4712 Y12.8660 
G01 X40.5822 Y12.6483 
G01 X40.7258 Y12.4506 
G01 X40.8986 Y12.2778 
G01 X41.0167 Y12.1920 
G01 X40.8986 Y12.1062 
G01 X40.7258 Y11.9334 
G01 X40.5822 Y11.7357 
G01 X40.4712 Y11.5180 
G01 X40.3957 Y11.2855 
G01 X40.3575 Y11.0442 
G01 X40.3575 Y10.7998 
G01 X40.3957 Y10.5585 
G01 X40.4712 Y10.3260 
G01 X40.5822 Y10.1083 
G01 X40.7258 Y9.9106  
G01 X40.8986 Y9.7378  
G01 X41.0167 Y9.6520  
G01 X40.8986 Y9.5662  
G01 X40.7258 Y9.3934  
G01 X40.5822 Y9.1957  
G01 X40.4712 Y8.9780  
G01 X40.3957 Y8.7455  
G01 X40.3575 Y8.5042  
G01 X40.3575 Y8.2598  
G01 X40.3957 Y8.0185  
G01 X40.4712 Y7.7860  
G01 X40.5822 Y7.5683  
G01 X40.7258 Y7.3706  
G01 X40.8986 Y7.1978  
G01 X41.0167 Y7.1120  
G01 X40.8986 Y7.0262  
G01 X40.7258 Y6.8534  
G01 X40.5822 Y6.6557  
G01 X40.4712 Y6.4380  
G01 X40.3957 Y6.2055  
G01 X40.3575 Y5.9642  
G01 X40.3575 Y5.7198  
G01 X40.3957 Y5.4785  
G01 X40.4712 Y5.2460  
G01 X40.5822 Y5.0283  
G01 X40.7258 Y4.8306  
G01 X40.8986 Y4.6578  
G01 X41.0963 Y4.5142  
G01 X41.3140 Y4.4032  
G01 X41.5465 Y4.3277  
G01 X41.7878 Y4.2895  
G01 X42.0322 Y4.2895  
G01 X42.2735 Y4.3277  
G01 X42.5060 Y4.4032  
G01 X42.7237 Y4.5142  
G01 X42.9214 Y4.6578  
G01 X43.0942 Y4.8306  
G01 X43.2378 Y5.0283  
G01 X43.3488 Y5.2460  
G01 X43.4243 Y5.4785  
G01 X43.4625 Y5.7198  
G01 X43.4625 Y5.9642  
G01 X43.4243 Y6.2055  
G01 X43.3488 Y6.4380  
G01 X43.2378 Y6.6557  
G01 X43.0942 Y6.8534  
G01 X42.9214 Y7.0262  
G01 X42.8033 Y7.1120  
G01 X42.9214 Y7.1978  
G01 X43.0942 Y7.3706  
G01 X43.2378 Y7.5683  
G01 X43.3488 Y7.7860  
G01 X43.4243 Y8.0185  
G01 X43.4625 Y8.2598  
G01 X43.4625 Y8.5042  
G01 X43.4243 Y8.7455  
G01 X43.3488 Y8.9780  
G01 X43.2378 Y9.1957  
G01 X43.0942 Y9.3934  
G01 X42.9214 Y9.5662  
G01 X42.8033 Y9.6520  
G01 X42.9214 Y9.7378  
G01 X43.0942 Y9.9106  
G01 X43.2378 Y10.1083 
G01 X43.3488 Y10.3260 
G01 X43.4243 Y10.5585 
G01 X43.4625 Y10.7998 
G01 X43.4625 Y11.0442 
G01 X43.4243 Y11.2855 
G01 X43.3488 Y11.5180 
G01 X43.2378 Y11.7357 
G01 X43.0942 Y11.9334 
G01 X42.9214 Y12.1062 
G01 X42.8033 Y12.1920 
G01 X42.9214 Y12.2778 
G01 X43.0942 Y12.4506 
G01 X43.2378 Y12.6483 
G01 X43.3488 Y12.8660 
G01 X43.4243 Y13.0985 
G01 X43.4625 Y13.3398 
G01 X43.4625 Y13.5842 
G01 X43.4243 Y13.8255 
G01 X43.3488 Y14.0580 
G01 X43.2378 Y14.2757 
G01 X43.0942 Y14.4734 
G01 X42.9214 Y14.6462 
G01 X42.8033 Y14.7320 
G01 X42.9214 Y14.8178 
G01 X43.0942 Y14.9906 
G01 X43.2378 Y15.1883 
G01 X43.3488 Y15.4060 
G01 X43.4243 Y15.6385 
G01 X43.4625 Y15.8798 
G01 X43.4625 Y16.1242 
G01 X43.4243 Y16.3655 
G01 X43.3488 Y16.5980 
G01 X43.2378 Y16.8157 
G01 X43.0942 Y17.0134 
G01 X42.9214 Y17.1862 
G01 X42.8033 Y17.2720 
G01 X42.9214 Y17.3578 
G01 X43.0942 Y17.5306 
G01 X43.2378 Y17.7283 
G01 X43.3488 Y17.9460 
G01 X43.4243 Y18.1785 
G01 X43.4625 Y18.4198 
G01 X43.4625 Y18.6642 
G01 X43.4243 Y18.9055 
G01 X43.3488 Y19.1380 
G01 X43.2378 Y19.3557 
G01 X43.0942 Y19.5534 
G01 X42.9214 Y19.7262 
G01 X42.8033 Y19.8120 
G01 X42.9214 Y19.8978 
G01 X43.0942 Y20.0706 
G01 X43.2378 Y20.2683 
G01 X43.3488 Y20.4860 
G01 X43.4243 Y20.7185 
G01 X43.4625 Y20.9598 
G01 X43.4625 Y21.2042 
G01 X43.4243 Y21.4455 
G01 X43.3488 Y21.6780 
G01 X43.2378 Y21.8957 
G01 X43.0942 Y22.0934 
G01 X42.9214 Y22.2662 
G01 X42.8033 Y22.3520 
G01 X42.9214 Y22.4378 
G01 X43.0942 Y22.6106 
G01 X43.2378 Y22.8083 
G01 X43.3488 Y23.0260 
G01 X43.4243 Y23.2585 
G01 X43.4625 Y23.4998 
G01 X43.4625 Y23.7442 
G01 X43.4243 Y23.9855 
G01 X43.3488 Y24.2180 
G01 X43.2378 Y24.4357 
G01 X43.0942 Y24.6334 
G01 X42.9214 Y24.8062 
G01 X42.7237 Y24.9498 
G01 X42.5060 Y25.0608 
G01 X42.2735 Y25.1363 
G01 X42.0322 Y25.1745 
G01 X41.7878 Y25.1745 
G01 X41.5465 Y25.1363 
G01 X41.3140 Y25.0608 
G01 X41.0963 Y24.9498 
G01 X40.8986 Y24.8062 
G01 X40.7258 Y24.6334 
G00 Z5.0000  
G00 X40.8423 Y28.5172 
G01 Z-0.0250 F50    
G01 X41.0600 Y28.4062 F50    
G01 X41.2925 Y28.3307 
G01 X41.5338 Y28.2925 
G01 X41.7782 Y28.2925 
G01 X42.0195 Y28.3307 
G01 X42.2520 Y28.4062 
G01 X42.4697 Y28.5172 
G01 X42.6674 Y28.6608 
G01 X42.8402 Y28.8336 
G01 X42.9838 Y29.0313 
G01 X43.0948 Y29.2490 
G01 X43.1703 Y29.4815 
G01 X43.2085 Y29.7228 
G01 X43.2085 Y29.9672 
G01 X43.1703 Y30.2085 
G01 X43.0948 Y30.4410 
G01 X42.9838 Y30.6587 
G01 X42.8402 Y30.8564 
G01 X42.6674 Y31.0292 
G01 X42.5493 Y31.1150 
G01 X42.6674 Y31.2008 
G01 X42.8402 Y31.3736 
G01 X42.9838 Y31.5713 
G01 X43.0948 Y31.7890 
G01 X43.1703 Y32.0215 
G01 X43.2085 Y32.2628 
G01 X43.2085 Y32.5072 
G01 X43.1703 Y32.7485 
G01 X43.0948 Y32.9810 
G01 X42.9838 Y33.1987 
G01 X42.8402 Y33.3964 
G01 X42.6674 Y33.5692 
G01 X42.5493 Y33.6550 
G01 X42.6674 Y33.7408 
G01 X42.8402 Y33.9136 
G01 X42.9838 Y34.1113 
G01 X43.0948 Y34.3290 
G01 X43.1703 Y34.5615 
G01 X43.2085 Y34.8028 
G01 X43.2085 Y35.0472 
G01 X43.1703 Y35.2885 
G01 X43.0948 Y35.5210 
G01 X42.9838 Y35.7387 
G01 X42.8402 Y35.9364 
G01 X42.6674 Y36.1092 
G01 X42.5493 Y36.1950 
G01 X42.6674 Y36.2808 
G01 X42.8402 Y36.4536 
G01 X42.9838 Y36.6513 
G01 X43.0948 Y36.8690 
G01 X43.1703 Y37.1015 
G01 X43.2085 Y37.3428 
G01 X43.2085 Y37.5872 
G01 X43.1703 Y37.8285 
G01 X43.0948 Y38.0610 
G01 X42.9838 Y38.2787 
G01 X42.8402 Y38.4764 
G01 X42.6674 Y38.6492 
G01 X42.5493 Y38.7350 
G01 X42.6674 Y38.8208 
G01 X42.8402 Y38.9936 
G01 X42.9838 Y39.1913 
G01 X43.0948 Y39.4090 
G01 X43.1703 Y39.6415 
G01 X43.2085 Y39.8828 
G01 X43.2085 Y40.1272 
G01 X43.1703 Y40.3685 
G01 X43.0948 Y40.6010 
G01 X42.9838 Y40.8187 
G01 X42.8402 Y41.0164 
G01 X42.6674 Y41.1892 
G01 X42.5493 Y41.2750 
G01 X42.6674 Y41.3608 
G01 X42.8402 Y41.5336 
G01 X42.9838 Y41.7313 
G01 X43.0948 Y41.9490 
G01 X43.1703 Y42.1815 
G01 X43.2085 Y42.4228 
G01 X43.2085 Y42.6672 
G01 X43.1703 Y42.9085 
G01 X43.0948 Y43.1410 
G01 X42.9838 Y43.3587 
G01 X42.8402 Y43.5564 
G01 X42.6674 Y43.7292 
G01 X42.5493 Y43.8150 
G01 X42.6674 Y43.9008 
G01 X42.8402 Y44.0736 
G01 X42.9838 Y44.2713 
G01 X43.0948 Y44.4890 
G01 X43.1703 Y44.7215 
G01 X43.2085 Y44.9628 
G01 X43.2085 Y45.2072 
G01 X43.1703 Y45.4485 
G01 X43.0948 Y45.6810 
G01 X42.9838 Y45.8987 
G01 X42.8402 Y46.0964 
G01 X42.6674 Y46.2692 
G01 X42.5493 Y46.3550 
G01 X42.6674 Y46.4408 
G01 X42.8402 Y46.6136 
G01 X42.9838 Y46.8113 
G01 X43.0948 Y47.0290 
G01 X43.1703 Y47.2615 
G01 X43.2085 Y47.5028 
G01 X43.2085 Y47.7472 
G01 X43.1703 Y47.9885 
G01 X43.0948 Y48.2210 
G01 X42.9838 Y48.4387 
G01 X42.8402 Y48.6364 
G01 X42.6674 Y48.8092 
G01 X42.4697 Y48.9528 
G01 X42.2520 Y49.0638 
G01 X42.0195 Y49.1393 
G01 X41.7782 Y49.1775 
G01 X41.5338 Y49.1775 
G01 X41.2925 Y49.1393 
G01 X41.0600 Y49.0638 
G01 X40.8423 Y48.9528 
G01 X40.6446 Y48.8092 
G01 X40.4718 Y48.6364 
G01 X40.3282 Y48.4387 
G01 X40.2172 Y48.2210 
G01 X40.1417 Y47.9885 
G01 X40.1035 Y47.7472 
G01 X40.1035 Y47.5028 
G01 X40.1417 Y47.2615 
G01 X40.2172 Y47.0290 
G01 X40.3282 Y46.8113 
G01 X40.4718 Y46.6136 
G01 X40.6446 Y46.4408 
G01 X40.7627 Y46.3550 
G01 X40.6446 Y46.2692 
G01 X40.4718 Y46.0964 
G01 X40.3282 Y45.8987 
G01 X40.2172 Y45.6810 
G01 X40.1417 Y45.4485 
G01 X40.1035 Y45.2072 
G01 X40.1035 Y44.9628 
G01 X40.1417 Y44.7215 
G01 X40.2172 Y44.4890 
G01 X40.3282 Y44.2713 
G01 X40.4718 Y44.0736 
G01 X40.6446 Y43.9008 
G01 X40.7627 Y43.8150 
G01 X40.6446 Y43.7292 
G01 X40.4718 Y43.5564 
G01 X40.3282 Y43.3587 
G01 X40.2172 Y43.1410 
G01 X40.1417 Y42.9085 
G01 X40.1035 Y42.6672 
G01 X40.1035 Y42.4228 
G01 X40.1417 Y42.1815 
G01 X40.2172 Y41.9490 
G01 X40.3282 Y41.7313 
G01 X40.4718 Y41.5336 
G01 X40.6446 Y41.3608 
G01 X40.7627 Y41.2750 
G01 X40.6446 Y41.1892 
G01 X40.4718 Y41.0164 
G01 X40.3282 Y40.8187 
G01 X40.2172 Y40.6010 
G01 X40.1417 Y40.3685 
G01 X40.1035 Y40.1272 
G01 X40.1035 Y39.8828 
G01 X40.1417 Y39.6415 
G01 X40.2172 Y39.4090 
G01 X40.3282 Y39.1913 
G01 X40.4718 Y38.9936 
G01 X40.6446 Y38.8208 
G01 X40.7627 Y38.7350 
G01 X40.6446 Y38.6492 
G01 X40.4718 Y38.4764 
G01 X40.3282 Y38.2787 
G01 X40.2172 Y38.0610 
G01 X40.1417 Y37.8285 
G01 X40.1035 Y37.5872 
G01 X40.1035 Y37.3428 
G01 X40.1417 Y37.1015 
G01 X40.2172 Y36.8690 
G01 X40.3282 Y36.6513 
G01 X40.4718 Y36.4536 
G01 X40.6446 Y36.2808 
G01 X40.7627 Y36.1950 
G01 X40.6446 Y36.1092 
G01 X40.4718 Y35.9364 
G01 X40.3282 Y35.7387 
G01 X40.2172 Y35.5210 
G01 X40.1417 Y35.2885 
G01 X40.1035 Y35.0472 
G01 X40.1035 Y34.8028 
G01 X40.1417 Y34.5615 
G01 X40.2172 Y34.3290 
G01 X40.3282 Y34.1113 
G01 X40.4718 Y33.9136 
G01 X40.6446 Y33.7408 
G01 X40.7627 Y33.6550 
G01 X40.6446 Y33.5692 
G01 X40.4718 Y33.3964 
G01 X40.3282 Y33.1987 
G01 X40.2172 Y32.9810 
G01 X40.1417 Y32.7485 
G01 X40.1035 Y32.5072 
G01 X40.1035 Y32.2628 
G01 X40.1417 Y32.0215 
G01 X40.2172 Y31.7890 
G01 X40.3282 Y31.5713 
G01 X40.4718 Y31.3736 
G01 X40.6446 Y31.2008 
G01 X40.7627 Y31.1150 
G01 X40.6446 Y31.0292 
G01 X40.4718 Y30.8564 
G01 X40.3282 Y30.6587 
G01 X40.2172 Y30.4410 
G01 X40.1417 Y30.2085 
G01 X40.1035 Y29.9672 
G01 X40.1035 Y29.7228 
G01 X40.1417 Y29.4815 
G01 X40.2172 Y29.2490 
G01 X40.3282 Y29.0313 
G01 X40.4718 Y28.8336 
G01 X40.6446 Y28.6608 
G01 X40.8423 Y28.5172 
G00 Z5.0000  
G00 X48.9935 Y28.5702 
G01 Z-0.0250 F50    
G01 X48.9935 Y28.3258 F50    
G01 X49.0317 Y28.0845 
G01 X49.1072 Y27.8520 
G01 X49.2182 Y27.6343 
G01 X49.3618 Y27.4366 
G01 X49.5346 Y27.2638 
G01 X49.6527 Y27.1780 
G01 X49.5346 Y27.0922 
G01 X49.3618 Y26.9194 
G01 X49.2182 Y26.7217 
G01 X49.1072 Y26.5040 
G01 X49.0317 Y26.2715 
G01 X48.9935 Y26.0302 
G01 X48.9935 Y25.7858 
G01 X49.0317 Y25.5445 
G01 X49.1072 Y25.3120 
G01 X49.2182 Y25.0943 
G01 X49.3618 Y24.8966 
G01 X49.5346 Y24.7238 
G01 X49.6527 Y24.6380 
G01 X49.5346 Y24.5522 
G01 X49.3618 Y24.3794 
G01 X49.2182 Y24.1817 
G01 X49.1072 Y23.9640 
G01 X49.0317 Y23.7315 
G01 X48.9935 Y23.4902 
G01 X48.9935 Y23.2458 
G01 X49.0317 Y23.0045 
G01 X49.1072 Y22.7720 
G01 X49.2182 Y22.5543 
G01 X49.3618 Y22.3566 
G01 X49.5346 Y22.1838 
G01 X49.6527 Y22.0980 
G01 X49.5346 Y22.0122 
G01 X49.3618 Y21.8394 
G01 X49.2182 Y21.6417 
G01 X49.1072 Y21.4240 
G01 X49.0317 Y21.1915 
G01 X48.9935 Y20.9502 
G01 X48.9935 Y20.7058 
G01 X49.0317 Y20.4645 
G01 X49.1072 Y20.2320 
G01 X49.2182 Y20.0143 
G01 X49.3618 Y19.8166 
G01 X49.5346 Y19.6438 
G01 X49.6527 Y19.5580 
G01 X49.5346 Y19.4722 
G01 X49.3618 Y19.2994 
G01 X49.2182 Y19.1017 
G01 X49.1072 Y18.8840 
G01 X49.0317 Y18.6515 
G01 X48.9935 Y18.4102 
G01 X48.9935 Y18.1658 
G01 X49.0317 Y17.9245 
G01 X49.1072 Y17.6920 
G01 X49.2182 Y17.4743 
G01 X49.3618 Y17.2766 
G01 X49.5346 Y17.1038 
G01 X49.6527 Y17.0180 
G01 X49.5346 Y16.9322 
G01 X49.3618 Y16.7594 
G01 X49.2182 Y16.5617 
G01 X49.1072 Y16.3440 
G01 X49.0317 Y16.1115 
G01 X48.9935 Y15.8702 
G01 X48.9935 Y15.6258 
G01 X49.0317 Y15.3845 
G01 X49.1072 Y15.1520 
G01 X49.2182 Y14.9343 
G01 X49.3618 Y14.7366 
G01 X49.5346 Y14.5638 
G01 X49.6527 Y14.4780 
G01 X49.5346 Y14.3922 
G01 X49.3618 Y14.2194 
G01 X49.2182 Y14.0217 
G01 X49.1072 Y13.8040 
G01 X49.0317 Y13.5715 
G01 X48.9935 Y13.3302 
G01 X48.9935 Y13.0858 
G01 X49.0317 Y12.8445 
G01 X49.1072 Y12.6120 
G01 X49.2182 Y12.3943 
G01 X49.3618 Y12.1966 
G01 X49.5346 Y12.0238 
G01 X49.6527 Y11.9380 
G01 X49.5346 Y11.8522 
G01 X49.3618 Y11.6794 
G01 X49.2182 Y11.4817 
G01 X49.1072 Y11.2640 
G01 X49.0317 Y11.0315 
G01 X48.9935 Y10.7902 
G01 X48.9935 Y10.5458 
G01 X49.0317 Y10.3045 
G01 X49.1072 Y10.0720 
G01 X49.2182 Y9.8543  
G01 X49.3618 Y9.6566  
G01 X49.5346 Y9.4838  
G01 X49.6527 Y9.3980  
G01 X49.5346 Y9.3122  
G01 X49.3618 Y9.1394  
G01 X49.2182 Y8.9417  
G01 X49.1072 Y8.7240  
G01 X49.0317 Y8.4915  
G01 X48.9935 Y8.2502  
G01 X48.9935 Y8.0058  
G01 X49.0317 Y7.7645  
G01 X49.1072 Y7.5320  
G01 X49.2182 Y7.3143  
G01 X49.3618 Y7.1166  
G01 X49.5346 Y6.9438  
G01 X49.7323 Y6.8002  
G01 X49.9500 Y6.6892  
G01 X50.1825 Y6.6137  
G01 X50.4238 Y6.5755  
G01 X50.6682 Y6.5755  
G01 X50.9095 Y6.6137  
G01 X51.1420 Y6.6892  
G01 X51.3597 Y6.8002  
G01 X51.5574 Y6.9438  
G01 X51.7302 Y7.1166  
G01 X51.8738 Y7.3143  
G01 X51.9848 Y7.5320  
G01 X52.0603 Y7.7645  
G01 X52.0985 Y8.0058  
G01 X52.0985 Y8.2502  
G01 X52.0603 Y8.4915  
G01 X51.9848 Y8.7240  
G01 X51.8738 Y8.9417  
G01 X51.7302 Y9.1394  
G01 X51.5574 Y9.3122  
G01 X51.4393 Y9.3980  
G01 X51.5574 Y9.4838  
G01 X51.7302 Y9.6566  
G01 X51.8738 Y9.8543  
G01 X51.9848 Y10.0720 
G01 X52.0603 Y10.3045 
G01 X52.0985 Y10.5458 
G01 X52.0985 Y10.7902 
G01 X52.0603 Y11.0315 
G01 X51.9848 Y11.2640 
G01 X51.8738 Y11.4817 
G01 X51.7302 Y11.6794 
G01 X51.5574 Y11.8522 
G01 X51.4393 Y11.9380 
G01 X51.5574 Y12.0238 
G01 X51.7302 Y12.1966 
G01 X51.8738 Y12.3943 
G01 X51.9848 Y12.6120 
G01 X52.0603 Y12.8445 
G01 X52.0985 Y13.0858 
G01 X52.0985 Y13.3302 
G01 X52.0603 Y13.5715 
G01 X51.9848 Y13.8040 
G01 X51.8738 Y14.0217 
G01 X51.7302 Y14.2194 
G01 X51.5574 Y14.3922 
G01 X51.4393 Y14.4780 
G01 X51.5574 Y14.5638 
G01 X51.7302 Y14.7366 
G01 X51.8738 Y14.9343 
G01 X51.9848 Y15.1520 
G01 X52.0603 Y15.3845 
G01 X52.0985 Y15.6258 
G01 X52.0985 Y15.8702 
G01 X52.0603 Y16.1115 
G01 X51.9848 Y16.3440 
G01 X51.8738 Y16.5617 
G01 X51.7302 Y16.7594 
G01 X51.5574 Y16.9322 
G01 X51.4393 Y17.0180 
G01 X51.5574 Y17.1038 
G01 X51.7302 Y17.2766 
G01 X51.8738 Y17.4743 
