(.../eagleLibs/ULP/pcb-gcode.ulp)
(Copyright 2005 - 2012 by John Johnson)
(See readme.txt for licensing terms.)
(This file generated from the board:)
(.../EAGLE/projects/Jonica/schematic.brd)
(Current profile is .../eagleLibs/ULP/profiles/mach.pp  )
(This file generated 15/11/2018 13:57)
(Settings from pcb-machine.h)
(spindle on time = 5.0000)
(spindle speed = 40000.0000)
(tool change at 0.0000  0.0000  12.7000 )
(feed rate xy = F0     )
(feed rate z  = F50    )
(Z Axis Settings)
(  High     Up        Down     Drill)
(5.0000  	5.0000  	-0.0250 	-1.0000 )
(Settings from pcb-defaults.h)
(isolate min = 0.5000)
(isolate max = 1.0000)
(isolate step = 0.1000)
(Generated top outlines, top drill, bottom outlines, )
(Unit of measure: mm)
( Tool|       Size       |  Min Sub |  Max Sub |   Count )
( T01 | 0.800mm 0.0315in | 0.0000in | 0.0000in |       0 )
( T02 | 0.813mm 0.0320in | 0.0000in | 0.0000in |       0 )
( T03 | 1.000mm 0.0394in | 0.0000in | 0.0000in |       0 )
( T04 | 1.016mm 0.0400in | 0.0000in | 0.0000in |       0 )
( T05 | 1.194mm 0.0470in | 0.0000in | 0.0000in |       0 )
(Metric Mode)
G21
(Absolute Coordinates)
G90
S40000
G00 Z5.0000  
G00 X0.0000  Y0.0000  
M03
G04 P5.000000
M05
G00 Z12.7000 
M06 T01  ; 0.8000  
G00 Z5.0000  
M03
G04 P5.000000
G82 X28.9560 Y29.8450 Z-1.0000 F50    R5.0000  P0.000000
G00 X28.9560 Y32.3850 
G01 Z-1.0000 F50    
G00 Z5.0000  
G00 X28.9560 Y34.9250 
G01 Z-1.0000 F50    
G00 Z5.0000  
G00 X28.9560 Y37.4650 
G01 Z-1.0000 F50    
G00 Z5.0000  
G00 X28.9560 Y40.0050 
G01 Z-1.0000 F50    
G00 Z5.0000  
G00 X28.9560 Y42.5450 
G01 Z-1.0000 F50    
G00 Z5.0000  
G00 X28.9560 Y45.0850 
G01 Z-1.0000 F50    
G00 Z5.0000  
G00 X28.9560 Y47.6250 
G01 Z-1.0000 F50    
G00 Z5.0000  
G00 X28.9560 Y52.8320 
G01 Z-1.0000 F50    
G00 Z5.0000  
G00 X28.9560 Y55.3720 
G01 Z-1.0000 F50    
G00 Z5.0000  
G00 X28.9560 Y57.9120 
G01 Z-1.0000 F50    
G00 Z5.0000  
G00 X28.9560 Y60.4520 
G01 Z-1.0000 F50    
G00 Z5.0000  
G00 X28.9560 Y62.9920 
G01 Z-1.0000 F50    
G00 Z5.0000  
G00 X28.9560 Y65.5320 
G01 Z-1.0000 F50    
G00 Z5.0000  
G00 X28.9560 Y68.0720 
G01 Z-1.0000 F50    
G00 Z5.0000  
G00 X28.9560 Y70.6120 
G01 Z-1.0000 F50    
G00 Z5.0000  
G00 X41.6560 Y70.6120 
G01 Z-1.0000 F50    
G00 Z5.0000  
G00 X41.6560 Y68.0720 
G01 Z-1.0000 F50    
G00 Z5.0000  
G00 X41.6560 Y65.5320 
G01 Z-1.0000 F50    
G00 Z5.0000  
G00 X41.6560 Y62.9920 
G01 Z-1.0000 F50    
G00 Z5.0000  
G00 X41.6560 Y60.4520 
G01 Z-1.0000 F50    
G00 Z5.0000  
G00 X41.6560 Y57.9120 
G01 Z-1.0000 F50    
G00 Z5.0000  
G00 X41.6560 Y55.3720 
G01 Z-1.0000 F50    
G00 Z5.0000  
G00 X41.6560 Y52.8320 
G01 Z-1.0000 F50    
G00 Z5.0000  
G00 X41.6560 Y47.6250 
G01 Z-1.0000 F50    
G00 Z5.0000  
G00 X41.6560 Y45.0850 
G01 Z-1.0000 F50    
G00 Z5.0000  
G00 X41.6560 Y42.5450 
G01 Z-1.0000 F50    
G00 Z5.0000  
G00 X41.6560 Y40.0050 
G01 Z-1.0000 F50    
G00 Z5.0000  
G00 X41.6560 Y37.4650 
G01 Z-1.0000 F50    
G00 Z5.0000  
G00 X41.6560 Y34.9250 
G01 Z-1.0000 F50    
G00 Z5.0000  
G00 X41.6560 Y32.3850 
G01 Z-1.0000 F50    
G00 Z5.0000  
G00 X41.6560 Y29.8450 
G01 Z-1.0000 F50    
G00 Z5.0000  
G00 X41.9100 Y23.6220 
G01 Z-1.0000 F50    
G00 Z5.0000  
G00 X41.9100 Y21.0820 
G01 Z-1.0000 F50    
G00 Z5.0000  
G00 X41.9100 Y18.5420 
G01 Z-1.0000 F50    
G00 Z5.0000  
G00 X41.9100 Y16.0020 
G01 Z-1.0000 F50    
G00 Z5.0000  
G00 X41.9100 Y13.4620 
G01 Z-1.0000 F50    
G00 Z5.0000  
G00 X41.9100 Y10.9220 
G01 Z-1.0000 F50    
G00 Z5.0000  
G00 X41.9100 Y8.3820  
G01 Z-1.0000 F50    
G00 Z5.0000  
G00 X41.9100 Y5.8420  
G01 Z-1.0000 F50    
G00 Z5.0000  
G00 X29.2100 Y5.8420  
G01 Z-1.0000 F50    
G00 Z5.0000  
G00 X29.2100 Y8.3820  
G01 Z-1.0000 F50    
G00 Z5.0000  
G00 X29.2100 Y10.9220 
G01 Z-1.0000 F50    
G00 Z5.0000  
G00 X29.2100 Y13.4620 
G01 Z-1.0000 F50    
G00 Z5.0000  
G00 X29.2100 Y16.0020 
G01 Z-1.0000 F50    
G00 Z5.0000  
G00 X29.2100 Y18.5420 
G01 Z-1.0000 F50    
G00 Z5.0000  
G00 X29.2100 Y21.0820 
G01 Z-1.0000 F50    
G00 Z5.0000  
G00 X29.2100 Y23.6220 
G01 Z-1.0000 F50    
G00 Z5.0000  
M05
G00 Z12.7000 
G00 X0.0000  Y0.0000  
M06 T02  ; 0.8128  
G00 Z5.0000  
M03
G04 P5.000000
G82 X11.1760 Y4.3180  Z-1.0000 F50    R5.0000  P0.000000
G00 X11.1760 Y7.3660  
G01 Z-1.0000 F50    
G00 Z5.0000  
G00 X18.7960 Y7.3660  
G01 Z-1.0000 F50    
G00 Z5.0000  
G00 X18.7960 Y4.3180  
G01 Z-1.0000 F50    
G00 Z5.0000  
G00 X23.0596 Y5.5880  
G01 Z-1.0000 F50    
G00 Z5.0000  
G00 X25.6177 Y5.5880  
G01 Z-1.0000 F50    
G00 Z5.0000  
G00 X31.9677 Y8.3820  
G01 Z-1.0000 F50    
G00 Z5.0000  
G00 X34.7436 Y8.3820  
G01 Z-1.0000 F50    
G00 Z5.0000  
G00 X34.7436 Y16.0020 
G01 Z-1.0000 F50    
G00 Z5.0000  
G00 X31.9677 Y16.0020 
G01 Z-1.0000 F50    
G00 Z5.0000  
G00 X25.6177 Y13.2080 
G01 Z-1.0000 F50    
G00 Z5.0000  
G00 X23.0596 Y13.2080 
G01 Z-1.0000 F50    
G00 Z5.0000  
G00 X19.1770 Y20.3200 
G01 Z-1.0000 F50    
G00 Z5.0000  
G00 X19.1770 Y23.1140 
G01 Z-1.0000 F50    
G00 Z5.0000  
G00 X18.7960 Y28.5750 
G01 Z-1.0000 F50    
G00 Z5.0000  
G00 X18.7960 Y31.9536 
G01 Z-1.0000 F50    
G00 Z5.0000  
G00 X22.1524 Y29.8450 
G01 Z-1.0000 F50    
G00 Z5.0000  
G00 X25.0553 Y29.8450 
G01 Z-1.0000 F50    
G00 Z5.0000  
G00 X31.9677 Y32.3850 
G01 Z-1.0000 F50    
G00 Z5.0000  
G00 X34.7436 Y32.3850 
G01 Z-1.0000 F50    
G00 Z5.0000  
G00 X34.7436 Y40.0050 
G01 Z-1.0000 F50    
G00 Z5.0000  
G00 X31.9677 Y40.0050 
G01 Z-1.0000 F50    
G00 Z5.0000  
G00 X25.0553 Y37.4650 
G01 Z-1.0000 F50    
G00 Z5.0000  
G00 X22.1524 Y37.4650 
G01 Z-1.0000 F50    
G00 Z5.0000  
G00 X18.7960 Y45.0850 
G01 Z-1.0000 F50    
G00 Z5.0000  
G00 X18.7960 Y47.9878 
G01 Z-1.0000 F50    
G00 Z5.0000  
G00 X18.7960 Y52.4510 
G01 Z-1.0000 F50    
G00 Z5.0000  
G00 X18.7960 Y55.4990 
G01 Z-1.0000 F50    
G00 Z5.0000  
G00 X22.0980 Y52.8320 
G01 Z-1.0000 F50    
G00 Z5.0000  
G00 X25.1460 Y52.8320 
G01 Z-1.0000 F50    
G00 Z5.0000  
G00 X32.0040 Y55.3720 
G01 Z-1.0000 F50    
G00 Z5.0000  
G00 X34.7980 Y55.3720 
G01 Z-1.0000 F50    
G00 Z5.0000  
G00 X34.7980 Y62.9920 
G01 Z-1.0000 F50    
G00 Z5.0000  
G00 X32.0040 Y62.9920 
G01 Z-1.0000 F50    
G00 Z5.0000  
G00 X25.1460 Y60.4520 
G01 Z-1.0000 F50    
G00 Z5.0000  
G00 X22.0980 Y60.4520 
G01 Z-1.0000 F50    
G00 Z5.0000  
G00 X19.0500 Y68.3260 
G01 Z-1.0000 F50    
G00 Z5.0000  
G00 X19.0500 Y71.6280 
G01 Z-1.0000 F50    
G00 Z5.0000  
G00 X11.4300 Y71.6280 
G01 Z-1.0000 F50    
G00 Z5.0000  
G00 X11.4300 Y68.3260 
G01 Z-1.0000 F50    
G00 Z5.0000  
G00 X11.1760 Y55.4990 
G01 Z-1.0000 F50    
G00 Z5.0000  
G00 X11.1760 Y52.4510 
G01 Z-1.0000 F50    
G00 Z5.0000  
G00 X11.1760 Y47.9878 
G01 Z-1.0000 F50    
G00 Z5.0000  
G00 X11.1760 Y45.0850 
G01 Z-1.0000 F50    
G00 Z5.0000  
G00 X11.1760 Y31.9536 
G01 Z-1.0000 F50    
G00 Z5.0000  
G00 X11.1760 Y28.5750 
G01 Z-1.0000 F50    
G00 Z5.0000  
G00 X11.5570 Y23.1140 
G01 Z-1.0000 F50    
G00 Z5.0000  
G00 X11.5570 Y20.3200 
G01 Z-1.0000 F50    
G00 Z5.0000  
G00 X47.4980 Y73.9458 
G01 Z-1.0000 F50    
G00 Z5.0000  
G00 X47.4980 Y77.4382 
G01 Z-1.0000 F50    
G00 Z5.0000  
G00 X56.3880 Y75.9142 
G01 Z-1.0000 F50    
G00 Z5.0000  
G00 X56.3880 Y72.4218 
G01 Z-1.0000 F50    
G00 Z5.0000  
M05
G00 Z12.7000 
G00 X0.0000  Y0.0000  
M06 T03  ; 1.0000  
G00 Z5.0000  
M03
G04 P5.000000
G82 X19.8120 Y74.9300 Z-1.0000 F50    R5.0000  P0.000000
G00 X36.3340 Y68.0720 
G01 Z-1.0000 F50    
G00 Z5.0000  
G00 X46.7360 Y68.3260 
G01 Z-1.0000 F50    
G00 Z5.0000  
G00 X55.6260 Y62.7380 
G01 Z-1.0000 F50    
G00 Z5.0000  
G00 X56.8960 Y59.1820 
G01 Z-1.0000 F50    
G00 Z5.0000  
G00 X51.8160 Y53.3400 
G01 Z-1.0000 F50    
G00 Z5.0000  
G00 X49.5300 Y55.3720 
G01 Z-1.0000 F50    
G00 Z5.0000  
G00 X50.5460 Y43.6880 
G01 Z-1.0000 F50    
G00 Z5.0000  
G00 X50.5460 Y41.1480 
G01 Z-1.0000 F50    
G00 Z5.0000  
G00 X50.5460 Y38.6080 
G01 Z-1.0000 F50    
G00 Z5.0000  
G00 X50.5460 Y36.0680 
G01 Z-1.0000 F50    
G00 Z5.0000  
G00 X50.5460 Y33.5280 
G01 Z-1.0000 F50    
G00 Z5.0000  
G00 X52.8480 Y33.5280 
G01 Z-1.0000 F50    
G00 Z5.0000  
G00 X52.8480 Y30.9880 
G01 Z-1.0000 F50    
G00 Z5.0000  
G00 X50.5460 Y30.9880 
G01 Z-1.0000 F50    
G00 Z5.0000  
G00 X50.5460 Y28.4480 
G01 Z-1.0000 F50    
G00 Z5.0000  
G00 X50.5460 Y25.9080 
G01 Z-1.0000 F50    
G00 Z5.0000  
G00 X50.5460 Y23.3680 
G01 Z-1.0000 F50    
G00 Z5.0000  
G00 X50.5460 Y20.8280 
G01 Z-1.0000 F50    
G00 Z5.0000  
G00 X50.5460 Y18.2880 
G01 Z-1.0000 F50    
G00 Z5.0000  
G00 X50.5460 Y15.7480 
G01 Z-1.0000 F50    
G00 Z5.0000  
G00 X50.5460 Y13.2080 
G01 Z-1.0000 F50    
G00 Z5.0000  
G00 X50.5460 Y10.6680 
G01 Z-1.0000 F50    
G00 Z5.0000  
G00 X50.5460 Y8.1280  
G01 Z-1.0000 F50    
G00 Z5.0000  
G00 X65.7860 Y8.1280  
G01 Z-1.0000 F50    
G00 Z5.0000  
G00 X65.7860 Y10.6680 
G01 Z-1.0000 F50    
G00 Z5.0000  
G00 X65.7860 Y13.2080 
G01 Z-1.0000 F50    
G00 Z5.0000  
G00 X65.7860 Y15.7480 
G01 Z-1.0000 F50    
G00 Z5.0000  
G00 X65.7860 Y18.2880 
G01 Z-1.0000 F50    
G00 Z5.0000  
G00 X65.7860 Y20.8280 
G01 Z-1.0000 F50    
G00 Z5.0000  
G00 X65.7860 Y23.3680 
G01 Z-1.0000 F50    
G00 Z5.0000  
G00 X65.7860 Y25.9080 
G01 Z-1.0000 F50    
G00 Z5.0000  
G00 X65.7860 Y28.4480 
G01 Z-1.0000 F50    
G00 Z5.0000  
G00 X65.7860 Y30.9880 
G01 Z-1.0000 F50    
G00 Z5.0000  
G00 X65.7860 Y33.5280 
G01 Z-1.0000 F50    
G00 Z5.0000  
G00 X65.7860 Y36.0680 
G01 Z-1.0000 F50    
G00 Z5.0000  
G00 X65.7860 Y38.6080 
G01 Z-1.0000 F50    
G00 Z5.0000  
G00 X65.7860 Y41.1480 
G01 Z-1.0000 F50    
G00 Z5.0000  
G00 X65.7860 Y43.6880 
G01 Z-1.0000 F50    
G00 Z5.0000  
G00 X59.4360 Y42.4180 
G01 Z-1.0000 F50    
G00 Z5.0000  
G00 X59.9600 Y37.0680 
G01 Z-1.0000 F50    
G00 Z5.0000  
G00 X62.7380 Y25.9080 
G01 Z-1.0000 F50    
G00 Z5.0000  
G00 X37.3380 Y21.0820 
G01 Z-1.0000 F50    
G00 Z5.0000  
G00 X36.5760 Y44.9580 
G01 Z-1.0000 F50    
G00 Z5.0000  
M05
G00 Z12.7000 
G00 X0.0000  Y0.0000  
M06 T04  ; 1.0160  
G00 Z5.0000  
M03
G04 P5.000000
G82 X51.5874 Y72.3900 Z-1.0000 F50    R5.0000  P0.000000
G00 X51.5874 Y74.9300 
G01 Z-1.0000 F50    
G00 Z5.0000  
G00 X51.5874 Y77.4700 
G01 Z-1.0000 F50    
G00 Z5.0000  
M05
G00 Z12.7000 
G00 X0.0000  Y0.0000  
M06 T05  ; 1.1938  
G00 Z5.0000  
M03
G04 P5.000000
G82 X4.1275  Y6.5970  Z-1.0000 F50    R5.0000  P0.000000
G00 X4.1275  Y11.5970 
G01 Z-1.0000 F50    
G00 Z5.0000  
G00 X4.1275  Y16.5970 
G01 Z-1.0000 F50    
G00 Z5.0000  
G00 X4.1275  Y21.5970 
G01 Z-1.0000 F50    
G00 Z5.0000  
G00 X4.1275  Y31.2350 
G01 Z-1.0000 F50    
G00 Z5.0000  
G00 X4.1275  Y36.2350 
G01 Z-1.0000 F50    
G00 Z5.0000  
G00 X4.1275  Y41.2350 
G01 Z-1.0000 F50    
G00 Z5.0000  
G00 X4.1275  Y46.2350 
G01 Z-1.0000 F50    
G00 Z5.0000  
G00 X4.2035  Y55.1110 
G01 Z-1.0000 F50    
G00 Z5.0000  
G00 X4.2035  Y60.1110 
G01 Z-1.0000 F50    
G00 Z5.0000  
G00 X4.2035  Y65.1110 
G01 Z-1.0000 F50    
G00 Z5.0000  
G00 X4.2035  Y70.1110 
G01 Z-1.0000 F50    
G00 Z5.0000  
G00 X24.1700 Y80.1370 
G01 Z-1.0000 F50    
G00 Z5.0000  
G00 X29.1700 Y80.1370 
G01 Z-1.0000 F50    
G00 Z5.0000  
G00 X63.1190 Y67.5240 
G01 Z-1.0000 F50    
G00 Z5.0000  
G00 X63.1190 Y62.5240 
G01 Z-1.0000 F50    
G00 Z5.0000  
G00 X63.1190 Y56.4730 
G01 Z-1.0000 F50    
G00 Z5.0000  
G00 X63.1190 Y51.4730 
G01 Z-1.0000 F50    
G00 Z5.0000  
T01 
M05
M02
