(.../eagleLibs/ULP/pcb-gcode.ulp)
(Copyright 2005 - 2012 by John Johnson)
(See readme.txt for licensing terms.)
(This file generated from the board:)
(.../EAGLE/projects/Jonica/schematic.brd)
(Current profile is .../eagleLibs/ULP/profiles/mach.pp  )
(This file generated 16/11/2018 14:48)
(Settings from pcb-machine.h)
(spindle on time = 2.0000)
(  Tool Size)
(0.2000  )
(spindle speed = 40000.0000)
(tool change at 0.0000  0.0000  12.7000 )
(feed rate xy = F50    )
(feed rate z  = F50    )
(Z Axis Settings)
(  High     Up        Down     Drill)
(5.0000  	5.0000  	-0.0250 	-1.0000 )
(Settings from pcb-defaults.h)
(isolate min = 0.1000)
(isolate max = 1.0000)
(isolate step = 0.2500)
(Generated top outlines, bottom outlines, bottom drill, )
(Unit of measure: mm)
(Metric Mode)
G21
(Absolute Coordinates)
G90
S40000
G00 Z5.0000  
G00 X0.0000  Y0.0000  
M03
G04 P2.000000
G00 X-0.3500 Y0.3500  
G01 Z-0.0250 F50    
G01 X-67.9760 Y0.3500  F50    
G01 X-67.9760 Y83.9780 
G01 X-0.3500 Y83.9780 
G01 X-0.3500 Y0.3500  
G00 Z5.0000  
G00 X-2.1616 Y5.7966  
G01 Z-0.0250 F50    
G01 X-2.0479 Y5.9530  F50    
G01 X-1.9601 Y6.1253  
G01 X-1.9004 Y6.3093  
G01 X-1.8701 Y6.5003  
G01 X-1.8701 Y6.6937  
G01 X-1.9004 Y6.8847  
G01 X-1.9601 Y7.0687  
G01 X-2.0479 Y7.2410  
G01 X-2.1616 Y7.3974  
G01 X-2.2984 Y7.5342  
G01 X-2.4548 Y7.6479  
G01 X-2.6271 Y7.7357  
G01 X-2.8111 Y7.7954  
G01 X-3.0021 Y7.8257  
G01 X-5.2529 Y7.8257  
G01 X-5.4439 Y7.7954  
G01 X-5.6279 Y7.7357  
G01 X-5.8002 Y7.6479  
G01 X-5.9566 Y7.5342  
G01 X-6.0934 Y7.3974  
G01 X-6.1664 Y7.2970  
G01 X-8.0921 Y7.2970  
G01 X-8.8613 Y8.0662  
G01 X-8.9588 Y8.1637  
G01 X-9.0734 Y8.2403  
G01 X-9.2008 Y8.2931  
G01 X-9.3361 Y8.3200  
G01 X-9.9233 Y8.3200  
G01 X-10.0947 Y8.3786  
G01 X-10.2561 Y8.4042  
G01 X-11.2242 Y8.4042  
G01 X-13.7899 Y10.9698 
G01 X-13.8874 Y11.0673 
G01 X-14.0020 Y11.1439 
G01 X-14.1294 Y11.1967 
G01 X-14.2647 Y11.2236 
G01 X-27.5056 Y11.2236 
G01 X-27.7478 Y11.4657 
G01 X-27.8624 Y11.5423 
G01 X-27.9898 Y11.5951 
G01 X-28.1251 Y11.6220 
G01 X-28.2940 Y11.6220 
G01 X-28.3309 Y11.6728 
G01 X-28.4592 Y11.8011 
G01 X-28.6060 Y11.9077 
G01 X-28.7676 Y11.9901 
G01 X-28.9401 Y12.0461 
G01 X-29.1193 Y12.0745 
G01 X-29.3007 Y12.0745 
G01 X-29.4799 Y12.0461 
G01 X-29.6524 Y11.9901 
G01 X-29.8140 Y11.9077 
G01 X-29.9608 Y11.8011 
G01 X-30.0891 Y11.6728 
G01 X-30.1957 Y11.5260 
G01 X-30.2781 Y11.3644 
G01 X-30.3341 Y11.1919 
G01 X-30.3625 Y11.0127 
G01 X-30.3625 Y10.8313 
G01 X-30.3341 Y10.6521 
G01 X-30.2781 Y10.4796 
G01 X-30.1957 Y10.3180 
G01 X-30.0891 Y10.1712 
G01 X-29.9608 Y10.0429 
G01 X-29.8140 Y9.9363  
G01 X-29.6524 Y9.8539  
G01 X-29.4799 Y9.7979  
G01 X-29.3007 Y9.7695  
G01 X-29.1193 Y9.7695  
G01 X-28.9401 Y9.7979  
G01 X-28.7676 Y9.8539  
G01 X-28.6060 Y9.9363  
G01 X-28.4592 Y10.0429 
G01 X-28.3820 Y10.1201 
G01 X-28.3393 Y10.0774 
G01 X-28.2418 Y9.9799  
G01 X-28.1272 Y9.9033  
G01 X-27.9998 Y9.8505  
G01 X-27.8645 Y9.8236  
G01 X-14.6235 Y9.8236  
G01 X-12.8213 Y8.0214  
G01 X-12.9021 Y7.9101  
G01 X-12.9763 Y7.7645  
G01 X-13.0268 Y7.6091  
G01 X-13.0524 Y7.4477  
G01 X-13.0524 Y7.2843  
G01 X-13.0268 Y7.1229  
G01 X-12.9763 Y6.9675  
G01 X-12.9021 Y6.8219  
G01 X-12.8061 Y6.6897  
G01 X-12.6905 Y6.5741  
G01 X-12.5583 Y6.4780  
G01 X-12.4127 Y6.4039  
G01 X-12.2573 Y6.3534  
G01 X-12.0959 Y6.3278  
G01 X-11.8760 Y6.3278  
G01 X-11.8760 Y5.3562  
G01 X-12.0959 Y5.3562  
G01 X-12.2573 Y5.3306  
G01 X-12.4127 Y5.2801  
G01 X-12.5583 Y5.2059  
G01 X-12.6905 Y5.1099  
G01 X-12.8061 Y4.9943  
G01 X-12.9021 Y4.8621  
G01 X-12.9763 Y4.7165  
G01 X-13.0268 Y4.5611  
G01 X-13.0524 Y4.3997  
G01 X-13.0524 Y4.2363  
G01 X-13.0268 Y4.0749  
G01 X-12.9763 Y3.9195  
G01 X-12.9021 Y3.7739  
G01 X-12.8061 Y3.6417  
G01 X-12.6905 Y3.5261  
G01 X-12.5583 Y3.4301  
G01 X-12.4127 Y3.3559  
G01 X-12.2573 Y3.3054  
G01 X-12.0959 Y3.2798  
G01 X-10.2561 Y3.2798  
G01 X-10.0947 Y3.3054  
G01 X-9.9393 Y3.3559  
G01 X-9.7937 Y3.4301  
G01 X-9.6615 Y3.5261  
G01 X-9.5459 Y3.6417  
G01 X-9.4498 Y3.7739  
G01 X-9.3757 Y3.9195  
G01 X-9.3252 Y4.0749  
G01 X-9.2996 Y4.2363  
G01 X-9.2996 Y4.3997  
G01 X-9.3252 Y4.5611  
G01 X-9.3757 Y4.7165  
G01 X-9.4498 Y4.8621  
G01 X-9.5307 Y4.9734  
G01 X-8.6070 Y5.8970  
G01 X-6.1664 Y5.8970  
G01 X-6.0934 Y5.7966  
G01 X-5.9566 Y5.6598  
G01 X-5.8002 Y5.5461  
G01 X-5.6279 Y5.4583  
G01 X-5.4439 Y5.3986  
G01 X-5.2529 Y5.3683  
G01 X-3.0021 Y5.3683  
G01 X-2.8111 Y5.3986  
G01 X-2.6271 Y5.4583  
G01 X-2.4548 Y5.5461  
G01 X-2.2984 Y5.6598  
G01 X-2.1616 Y5.7966  
G00 Z5.0000  
G00 X-2.1616 Y10.7966 
G01 Z-0.0250 F50    
G01 X-2.0479 Y10.9530 F50    
G01 X-1.9601 Y11.1253 
G01 X-1.9004 Y11.3093 
G01 X-1.8701 Y11.5003 
G01 X-1.8701 Y11.6937 
G01 X-1.9004 Y11.8847 
G01 X-1.9601 Y12.0687 
G01 X-2.0479 Y12.2410 
G01 X-2.1616 Y12.3974 
G01 X-2.2984 Y12.5342 
G01 X-2.4548 Y12.6479 
G01 X-2.6271 Y12.7357 
G01 X-2.8111 Y12.7954 
G01 X-3.0021 Y12.8257 
G01 X-4.3663 Y12.8257 
G01 X-5.2923 Y13.7517 
G01 X-5.4069 Y13.8283 
G01 X-5.5343 Y13.8811 
G01 X-5.6696 Y13.9080 
G01 X-22.0214 Y13.9080 
G01 X-22.0214 Y14.1279 
G01 X-22.0469 Y14.2893 
G01 X-22.0974 Y14.4447 
G01 X-22.1716 Y14.5903 
G01 X-22.2677 Y14.7225 
G01 X-22.3832 Y14.8381 
G01 X-22.5154 Y14.9341 
G01 X-22.6610 Y15.0083 
G01 X-22.8164 Y15.0588 
G01 X-22.9779 Y15.0844 
G01 X-23.1413 Y15.0844 
G01 X-23.3027 Y15.0588 
G01 X-23.4581 Y15.0083 
G01 X-23.6037 Y14.9341 
G01 X-23.7359 Y14.8381 
G01 X-23.8515 Y14.7225 
G01 X-23.9475 Y14.5903 
G01 X-24.0217 Y14.4447 
G01 X-24.0722 Y14.2893 
G01 X-24.0978 Y14.1279 
G01 X-24.0978 Y13.9080 
G01 X-24.5795 Y13.9080 
G01 X-24.5795 Y14.1279 
G01 X-24.6051 Y14.2893 
G01 X-24.6556 Y14.4447 
G01 X-24.7298 Y14.5903 
G01 X-24.8258 Y14.7225 
G01 X-24.9414 Y14.8381 
G01 X-25.0736 Y14.9341 
G01 X-25.2192 Y15.0083 
G01 X-25.3746 Y15.0588 
G01 X-25.5360 Y15.0844 
G01 X-25.6994 Y15.0844 
G01 X-25.8608 Y15.0588 
G01 X-26.0162 Y15.0083 
G01 X-26.1618 Y14.9341 
G01 X-26.2940 Y14.8381 
G01 X-26.4096 Y14.7225 
G01 X-26.5056 Y14.5903 
G01 X-26.5798 Y14.4447 
G01 X-26.6303 Y14.2893 
G01 X-26.6505 Y14.1620 
G01 X-28.2940 Y14.1620 
G01 X-28.3309 Y14.2128 
G01 X-28.4592 Y14.3411 
G01 X-28.6060 Y14.4477 
G01 X-28.7676 Y14.5301 
G01 X-28.9401 Y14.5861 
G01 X-29.1193 Y14.6145 
G01 X-29.3007 Y14.6145 
G01 X-29.4799 Y14.5861 
G01 X-29.6524 Y14.5301 
G01 X-29.8140 Y14.4477 
G01 X-29.9608 Y14.3411 
G01 X-30.0891 Y14.2128 
G01 X-30.1957 Y14.0660 
G01 X-30.2781 Y13.9044 
G01 X-30.3341 Y13.7319 
G01 X-30.3625 Y13.5527 
G01 X-30.3625 Y13.3713 
G01 X-30.3341 Y13.1921 
G01 X-30.2781 Y13.0196 
G01 X-30.1957 Y12.8580 
G01 X-30.0891 Y12.7112 
G01 X-29.9608 Y12.5829 
G01 X-29.8140 Y12.4763 
G01 X-29.6524 Y12.3939 
G01 X-29.4799 Y12.3379 
G01 X-29.3007 Y12.3095 
G01 X-29.1193 Y12.3095 
G01 X-28.9401 Y12.3379 
G01 X-28.7676 Y12.3939 
G01 X-28.6060 Y12.4763 
G01 X-28.4592 Y12.5829 
G01 X-28.3309 Y12.7112 
G01 X-28.2940 Y12.7620 
G01 X-26.6559 Y12.7620 
G01 X-26.6559 Y12.2881 
G01 X-26.6303 Y12.1267 
G01 X-26.5798 Y11.9713 
G01 X-26.5056 Y11.8257 
G01 X-26.4096 Y11.6935 
G01 X-26.2940 Y11.5779 
G01 X-26.1618 Y11.4818 
G01 X-26.0162 Y11.4077 
G01 X-25.8608 Y11.3572 
G01 X-25.6994 Y11.3316 
G01 X-25.5360 Y11.3316 
G01 X-25.3746 Y11.3572 
G01 X-25.2192 Y11.4077 
G01 X-25.0736 Y11.4818 
G01 X-24.9414 Y11.5779 
G01 X-24.8258 Y11.6935 
G01 X-24.7298 Y11.8257 
G01 X-24.6556 Y11.9713 
G01 X-24.6051 Y12.1267 
G01 X-24.5795 Y12.2881 
G01 X-24.5795 Y12.5080 
G01 X-24.0978 Y12.5080 
G01 X-24.0978 Y12.2881 
G01 X-24.0722 Y12.1267 
G01 X-24.0217 Y11.9713 
G01 X-23.9475 Y11.8257 
G01 X-23.8515 Y11.6935 
G01 X-23.7359 Y11.5779 
G01 X-23.6037 Y11.4818 
G01 X-23.4581 Y11.4077 
G01 X-23.3027 Y11.3572 
G01 X-23.1413 Y11.3316 
G01 X-22.9779 Y11.3316 
G01 X-22.8164 Y11.3572 
G01 X-22.6610 Y11.4077 
G01 X-22.5154 Y11.4818 
G01 X-22.3832 Y11.5779 
G01 X-22.2677 Y11.6935 
G01 X-22.1716 Y11.8257 
G01 X-22.0974 Y11.9713 
G01 X-22.0469 Y12.1267 
G01 X-22.0214 Y12.2881 
G01 X-22.0214 Y12.5080 
G01 X-6.0284 Y12.5080 
G01 X-6.0934 Y12.3974 
G01 X-6.2071 Y12.2410 
G01 X-6.2949 Y12.0687 
G01 X-6.3546 Y11.8847 
G01 X-6.3849 Y11.6937 
G01 X-6.3849 Y11.5003 
G01 X-6.3546 Y11.3093 
G01 X-6.2949 Y11.1253 
G01 X-6.2071 Y10.9530 
G01 X-6.0934 Y10.7966 
G01 X-5.9566 Y10.6598 
G01 X-5.8002 Y10.5461 
G01 X-5.6279 Y10.4583 
G01 X-5.4439 Y10.3986 
G01 X-5.2529 Y10.3683 
G01 X-3.0021 Y10.3683 
G01 X-2.8111 Y10.3986 
G01 X-2.6271 Y10.4583 
G01 X-2.4548 Y10.5461 
G01 X-2.2984 Y10.6598 
G01 X-2.1616 Y10.7966 
G00 Z5.0000  
G00 X-2.1616 Y15.7966 
G01 Z-0.0250 F50    
G01 X-2.0479 Y15.9530 F50    
G01 X-1.9601 Y16.1253 
G01 X-1.9004 Y16.3093 
G01 X-1.8701 Y16.5003 
G01 X-1.8701 Y16.6937 
G01 X-1.9004 Y16.8847 
G01 X-1.9601 Y17.0687 
G01 X-2.0479 Y17.2410 
G01 X-2.1616 Y17.3974 
G01 X-2.2984 Y17.5342 
G01 X-2.4548 Y17.6479 
G01 X-2.6271 Y17.7357 
G01 X-2.8111 Y17.7954 
G01 X-3.0021 Y17.8257 
G01 X-5.2529 Y17.8257 
G01 X-5.4439 Y17.7954 
G01 X-5.6279 Y17.7357 
G01 X-5.8002 Y17.6479 
G01 X-5.9566 Y17.5342 
G01 X-6.0934 Y17.3974 
G01 X-6.1664 Y17.2970 
G01 X-11.6659 Y17.2970 
G01 X-11.8012 Y17.2701 
G01 X-11.9286 Y17.2173 
G01 X-12.0432 Y17.1407 
G01 X-12.4819 Y16.7020 
G01 X-28.2940 Y16.7020 
G01 X-28.3309 Y16.7528 
G01 X-28.4592 Y16.8811 
G01 X-28.6060 Y16.9877 
G01 X-28.7676 Y17.0701 
G01 X-28.9401 Y17.1261 
G01 X-29.1193 Y17.1545 
G01 X-29.3007 Y17.1545 
G01 X-29.4799 Y17.1261 
G01 X-29.6524 Y17.0701 
G01 X-29.8140 Y16.9877 
G01 X-29.9608 Y16.8811 
G01 X-30.0891 Y16.7528 
G01 X-30.1260 Y16.7020 
G01 X-30.9295 Y16.7020 
G01 X-30.9295 Y16.9219 
G01 X-30.9551 Y17.0833 
G01 X-31.0056 Y17.2387 
G01 X-31.0798 Y17.3843 
G01 X-31.1758 Y17.5165 
G01 X-31.2914 Y17.6321 
G01 X-31.4236 Y17.7281 
G01 X-31.5692 Y17.8023 
G01 X-31.7246 Y17.8528 
G01 X-31.8860 Y17.8784 
G01 X-32.0494 Y17.8784 
G01 X-32.2108 Y17.8528 
G01 X-32.3662 Y17.8023 
G01 X-32.5118 Y17.7281 
G01 X-32.6440 Y17.6321 
G01 X-32.7596 Y17.5165 
G01 X-32.8556 Y17.3843 
G01 X-32.9298 Y17.2387 
G01 X-32.9803 Y17.0833 
G01 X-33.0059 Y16.9219 
G01 X-33.0059 Y16.7020 
G01 X-33.7054 Y16.7020 
G01 X-33.7054 Y16.9219 
G01 X-33.7309 Y17.0833 
G01 X-33.7814 Y17.2387 
G01 X-33.8556 Y17.3843 
G01 X-33.9517 Y17.5165 
G01 X-34.0672 Y17.6321 
G01 X-34.1994 Y17.7281 
G01 X-34.3450 Y17.8023 
G01 X-34.5004 Y17.8528 
G01 X-34.6619 Y17.8784 
G01 X-34.8253 Y17.8784 
G01 X-34.9867 Y17.8528 
G01 X-35.1421 Y17.8023 
G01 X-35.2877 Y17.7281 
G01 X-35.4199 Y17.6321 
G01 X-35.5355 Y17.5165 
G01 X-35.6315 Y17.3843 
G01 X-35.7057 Y17.2387 
G01 X-35.7562 Y17.0833 
G01 X-35.7818 Y16.9219 
G01 X-35.7818 Y15.0821 
G01 X-35.7562 Y14.9207 
G01 X-35.7057 Y14.7653 
G01 X-35.6315 Y14.6197 
G01 X-35.5355 Y14.4875 
G01 X-35.4199 Y14.3719 
G01 X-35.2877 Y14.2759 
G01 X-35.1421 Y14.2017 
G01 X-34.9867 Y14.1512 
G01 X-34.8253 Y14.1256 
G01 X-34.6619 Y14.1256 
G01 X-34.5004 Y14.1512 
G01 X-34.3450 Y14.2017 
G01 X-34.1994 Y14.2759 
G01 X-34.0672 Y14.3719 
G01 X-33.9517 Y14.4875 
G01 X-33.8556 Y14.6197 
G01 X-33.7814 Y14.7653 
G01 X-33.7309 Y14.9207 
G01 X-33.7054 Y15.0821 
G01 X-33.7054 Y15.3020 
G01 X-33.0059 Y15.3020 
G01 X-33.0059 Y15.0821 
G01 X-32.9803 Y14.9207 
G01 X-32.9298 Y14.7653 
G01 X-32.8556 Y14.6197 
G01 X-32.7596 Y14.4875 
G01 X-32.6440 Y14.3719 
G01 X-32.5118 Y14.2759 
G01 X-32.3662 Y14.2017 
G01 X-32.2108 Y14.1512 
G01 X-32.0494 Y14.1256 
G01 X-31.8860 Y14.1256 
G01 X-31.7246 Y14.1512 
G01 X-31.5692 Y14.2017 
G01 X-31.4236 Y14.2759 
G01 X-31.2914 Y14.3719 
G01 X-31.1758 Y14.4875 
G01 X-31.0798 Y14.6197 
G01 X-31.0056 Y14.7653 
G01 X-30.9551 Y14.9207 
G01 X-30.9295 Y15.0821 
G01 X-30.9295 Y15.3020 
G01 X-30.1260 Y15.3020 
G01 X-30.0891 Y15.2512 
G01 X-29.9608 Y15.1229 
G01 X-29.8140 Y15.0163 
G01 X-29.6524 Y14.9339 
G01 X-29.4799 Y14.8779 
G01 X-29.3007 Y14.8495 
G01 X-29.1193 Y14.8495 
G01 X-28.9401 Y14.8779 
G01 X-28.7676 Y14.9339 
G01 X-28.6060 Y15.0163 
G01 X-28.4592 Y15.1229 
G01 X-28.3309 Y15.2512 
G01 X-28.2940 Y15.3020 
G01 X-12.1231 Y15.3020 
G01 X-11.9878 Y15.3289 
G01 X-11.8604 Y15.3817 
G01 X-11.7458 Y15.4583 
G01 X-11.3071 Y15.8970 
G01 X-6.1664 Y15.8970 
G01 X-6.0934 Y15.7966 
G01 X-5.9566 Y15.6598 
G01 X-5.8002 Y15.5461 
G01 X-5.6279 Y15.4583 
G01 X-5.4439 Y15.3986 
G01 X-5.2529 Y15.3683 
G01 X-3.0021 Y15.3683 
G01 X-2.8111 Y15.3986 
G01 X-2.6271 Y15.4583 
G01 X-2.4548 Y15.5461 
G01 X-2.2984 Y15.6598 
G01 X-2.1616 Y15.7966 
G00 Z5.0000  
G00 X-2.1616 Y20.7966 
G01 Z-0.0250 F50    
G01 X-2.0479 Y20.9530 F50    
G01 X-1.9601 Y21.1253 
G01 X-1.9004 Y21.3093 
G01 X-1.8701 Y21.5003 
G01 X-1.8701 Y21.6937 
G01 X-1.9004 Y21.8847 
G01 X-1.9601 Y22.0687 
G01 X-2.0479 Y22.2410 
G01 X-2.1616 Y22.3974 
G01 X-2.2984 Y22.5342 
G01 X-2.4548 Y22.6479 
G01 X-2.6271 Y22.7357 
G01 X-2.8111 Y22.7954 
G01 X-3.0021 Y22.8257 
G01 X-5.2529 Y22.8257 
G01 X-5.4439 Y22.7954 
G01 X-5.6279 Y22.7357 
G01 X-5.8002 Y22.6479 
G01 X-5.9566 Y22.5342 
G01 X-6.0934 Y22.3974 
G01 X-6.1664 Y22.2970 
G01 X-9.7500 Y22.2970 
G01 X-9.9117 Y22.4586 
G01 X-9.8308 Y22.5699 
G01 X-9.7567 Y22.7155 
G01 X-9.7062 Y22.8709 
G01 X-9.6806 Y23.0323 
G01 X-9.6806 Y23.1957 
G01 X-9.7062 Y23.3571 
G01 X-9.7567 Y23.5125 
G01 X-9.8308 Y23.6581 
G01 X-9.9269 Y23.7903 
G01 X-10.0425 Y23.9059 
G01 X-10.1747 Y24.0019 
G01 X-10.3203 Y24.0761 
G01 X-10.4757 Y24.1266 
G01 X-10.6371 Y24.1522 
G01 X-12.4769 Y24.1522 
G01 X-12.6383 Y24.1266 
G01 X-12.7937 Y24.0761 
G01 X-12.9393 Y24.0019 
G01 X-13.0715 Y23.9059 
G01 X-13.1871 Y23.7903 
G01 X-13.2831 Y23.6581 
G01 X-13.3573 Y23.5125 
G01 X-13.4078 Y23.3571 
G01 X-13.4334 Y23.1957 
G01 X-13.4334 Y23.0323 
G01 X-13.4078 Y22.8709 
G01 X-13.3573 Y22.7155 
G01 X-13.2831 Y22.5699 
G01 X-13.1871 Y22.4377 
G01 X-13.0715 Y22.3221 
G01 X-12.9393 Y22.2261 
G01 X-12.7937 Y22.1519 
G01 X-12.6383 Y22.1014 
G01 X-12.4769 Y22.0758 
G01 X-12.2570 Y22.0758 
G01 X-12.2570 Y21.3582 
G01 X-12.4769 Y21.3582 
G01 X-12.6383 Y21.3326 
G01 X-12.7937 Y21.2821 
G01 X-12.9393 Y21.2079 
G01 X-13.0715 Y21.1119 
G01 X-13.1871 Y20.9963 
G01 X-13.2831 Y20.8641 
G01 X-13.3573 Y20.7185 
G01 X-13.4078 Y20.5631 
G01 X-13.4334 Y20.4017 
G01 X-13.4334 Y20.2383 
G01 X-13.4078 Y20.0769 
G01 X-13.3573 Y19.9215 
G01 X-13.2831 Y19.7759 
G01 X-13.2023 Y19.6646 
G01 X-13.8789 Y18.9880 
G01 X-28.1438 Y18.9880 
G01 X-28.2243 Y19.1460 
G01 X-28.3309 Y19.2928 
G01 X-28.4592 Y19.4211 
G01 X-28.6060 Y19.5277 
G01 X-28.7676 Y19.6101 
G01 X-28.9401 Y19.6661 
G01 X-29.1193 Y19.6945 
G01 X-29.3007 Y19.6945 
G01 X-29.4799 Y19.6661 
G01 X-29.6524 Y19.6101 
G01 X-29.8140 Y19.5277 
G01 X-29.9608 Y19.4211 
G01 X-30.0891 Y19.2928 
G01 X-30.1957 Y19.1460 
G01 X-30.2781 Y18.9844 
G01 X-30.2911 Y18.9442 
G01 X-30.3383 Y18.8736 
G01 X-30.3911 Y18.7462 
G01 X-30.4180 Y18.6109 
G01 X-30.4180 Y18.4731 
G01 X-30.3911 Y18.3378 
G01 X-30.3383 Y18.2104 
G01 X-30.2911 Y18.1398 
G01 X-30.2781 Y18.0996 
G01 X-30.1957 Y17.9380 
G01 X-30.0891 Y17.7912 
G01 X-29.9608 Y17.6629 
G01 X-29.8140 Y17.5563 
G01 X-29.6524 Y17.4739 
G01 X-29.4799 Y17.4179 
G01 X-29.3007 Y17.3895 
G01 X-29.1193 Y17.3895 
G01 X-28.9401 Y17.4179 
G01 X-28.7676 Y17.4739 
G01 X-28.6060 Y17.5563 
G01 X-28.5623 Y17.5880 
G01 X-13.5201 Y17.5880 
G01 X-13.3848 Y17.6149 
G01 X-13.2574 Y17.6677 
G01 X-13.1428 Y17.7443 
G01 X-13.0453 Y17.8418 
G01 X-11.6052 Y19.2818 
G01 X-10.6371 Y19.2818 
G01 X-10.4757 Y19.3074 
G01 X-10.3203 Y19.3579 
G01 X-10.1747 Y19.4321 
G01 X-10.0425 Y19.5281 
G01 X-9.9269 Y19.6437 
G01 X-9.8308 Y19.7759 
G01 X-9.7567 Y19.9215 
G01 X-9.7062 Y20.0769 
G01 X-9.6806 Y20.2383 
G01 X-9.6806 Y20.4017 
G01 X-9.7062 Y20.5631 
G01 X-9.7567 Y20.7185 
G01 X-9.8147 Y20.8324 
G01 X-9.7500 Y20.8970 
G01 X-6.1664 Y20.8970 
G01 X-6.0934 Y20.7966 
G01 X-5.9566 Y20.6598 
G01 X-5.8002 Y20.5461 
G01 X-5.6279 Y20.4583 
G01 X-5.4439 Y20.3986 
G01 X-5.2529 Y20.3683 
G01 X-3.0021 Y20.3683 
G01 X-2.8111 Y20.3986 
G01 X-2.6271 Y20.4583 
G01 X-2.4548 Y20.5461 
G01 X-2.2984 Y20.6598 
G01 X-2.1616 Y20.7966 
G00 Z5.0000  
G00 X-2.1616 Y30.4346 
G01 Z-0.0250 F50    
G01 X-2.0479 Y30.5910 F50    
G01 X-1.9601 Y30.7633 
G01 X-1.9004 Y30.9473 
G01 X-1.8701 Y31.1383 
G01 X-1.8701 Y31.3317 
G01 X-1.9004 Y31.5227 
G01 X-1.9601 Y31.7067 
G01 X-2.0479 Y31.8790 
G01 X-2.1616 Y32.0354 
G01 X-2.2984 Y32.1722 
G01 X-2.4548 Y32.2859 
G01 X-2.6271 Y32.3737 
G01 X-2.8111 Y32.4334 
G01 X-3.0021 Y32.4637 
G01 X-4.3662 Y32.4637 
G01 X-4.3998 Y32.4973 
G01 X-4.5145 Y32.5739 
G01 X-4.6419 Y32.6267 
G01 X-4.7771 Y32.6536 
G01 X-9.5696 Y32.6536 
G01 X-9.6615 Y32.7455 
G01 X-9.7937 Y32.8415 
G01 X-9.9393 Y32.9157 
G01 X-10.0947 Y32.9662 
G01 X-10.2561 Y32.9918 
G01 X-11.2242 Y32.9918 
G01 X-13.3202 Y35.0877 
G01 X-13.4349 Y35.1643 
G01 X-13.5623 Y35.2171 
G01 X-13.6975 Y35.2440 
G01 X-27.8478 Y35.2440 
G01 X-27.8879 Y35.3674 
G01 X-27.9703 Y35.5290 
G01 X-28.0769 Y35.6758 
G01 X-28.2052 Y35.8041 
G01 X-28.3520 Y35.9107 
G01 X-28.5136 Y35.9931 
G01 X-28.6861 Y36.0491 
G01 X-28.8653 Y36.0775 
G01 X-29.0467 Y36.0775 
G01 X-29.2259 Y36.0491 
G01 X-29.3984 Y35.9931 
G01 X-29.5600 Y35.9107 
G01 X-29.7068 Y35.8041 
G01 X-29.8351 Y35.6758 
G01 X-29.9417 Y35.5290 
G01 X-30.0241 Y35.3674 
G01 X-30.0801 Y35.1949 
G01 X-30.1085 Y35.0157 
G01 X-30.1085 Y34.8343 
G01 X-30.0801 Y34.6551 
G01 X-30.0241 Y34.4826 
G01 X-29.9417 Y34.3210 
G01 X-29.8351 Y34.1742 
G01 X-29.7068 Y34.0459 
G01 X-29.5600 Y33.9393 
G01 X-29.3984 Y33.8569 
G01 X-29.2259 Y33.8009 
G01 X-29.0467 Y33.7725 
G01 X-28.8653 Y33.7725 
G01 X-28.6861 Y33.8009 
G01 X-28.5534 Y33.8440 
G01 X-14.0564 Y33.8440 
G01 X-12.8213 Y32.6089 
G01 X-12.9021 Y32.4977 
G01 X-12.9763 Y32.3521 
G01 X-13.0268 Y32.1967 
G01 X-13.0524 Y32.0353 
G01 X-13.0524 Y31.8718 
G01 X-13.0268 Y31.7104 
G01 X-12.9763 Y31.5550 
G01 X-12.9021 Y31.4094 
G01 X-12.8061 Y31.2772 
G01 X-12.6905 Y31.1617 
G01 X-12.5583 Y31.0656 
G01 X-12.4127 Y30.9914 
G01 X-12.2573 Y30.9409 
G01 X-12.0959 Y30.9154 
G01 X-11.8760 Y30.9154 
G01 X-11.8760 Y29.6132 
G01 X-12.0959 Y29.6132 
G01 X-12.2573 Y29.5876 
G01 X-12.4127 Y29.5371 
G01 X-12.5583 Y29.4629 
G01 X-12.6905 Y29.3669 
G01 X-12.8061 Y29.2513 
G01 X-12.9021 Y29.1191 
G01 X-12.9763 Y28.9735 
G01 X-13.0268 Y28.8181 
G01 X-13.0524 Y28.6567 
G01 X-13.0524 Y28.4933 
G01 X-13.0268 Y28.3319 
G01 X-12.9763 Y28.1765 
G01 X-12.9021 Y28.0309 
G01 X-12.8061 Y27.8987 
G01 X-12.6905 Y27.7831 
G01 X-12.5583 Y27.6870 
G01 X-12.4127 Y27.6129 
G01 X-12.2573 Y27.5624 
G01 X-12.0959 Y27.5368 
G01 X-10.2561 Y27.5368 
G01 X-10.0947 Y27.5624 
G01 X-9.9393 Y27.6129 
G01 X-9.7937 Y27.6870 
G01 X-9.6615 Y27.7831 
G01 X-9.5459 Y27.8987 
G01 X-9.4498 Y28.0309 
G01 X-9.3757 Y28.1765 
G01 X-9.3252 Y28.3319 
G01 X-9.2996 Y28.4933 
G01 X-9.2996 Y28.6567 
G01 X-9.3252 Y28.8181 
G01 X-9.3757 Y28.9735 
G01 X-9.4498 Y29.1191 
G01 X-9.5459 Y29.2513 
G01 X-9.6615 Y29.3669 
G01 X-9.7937 Y29.4629 
G01 X-9.9393 Y29.5371 
G01 X-10.0947 Y29.5876 
G01 X-10.2561 Y29.6132 
G01 X-10.4760 Y29.6132 
G01 X-10.4760 Y30.1396 
G01 X-9.3621 Y31.2536 
G01 X-6.3849 Y31.2536 
G01 X-6.3849 Y31.1383 
G01 X-6.3546 Y30.9473 
G01 X-6.2949 Y30.7633 
G01 X-6.2071 Y30.5910 
G01 X-6.0934 Y30.4346 
G01 X-5.9566 Y30.2978 
G01 X-5.8002 Y30.1841 
G01 X-5.6279 Y30.0963 
G01 X-5.4439 Y30.0366 
G01 X-5.2529 Y30.0063 
G01 X-3.0021 Y30.0063 
G01 X-2.8111 Y30.0366 
G01 X-2.6271 Y30.0963 
G01 X-2.4548 Y30.1841 
G01 X-2.2984 Y30.2978 
G01 X-2.1616 Y30.4346 
G00 Z5.0000  
G00 X-2.1616 Y35.4346 
G01 Z-0.0250 F50    
G01 X-2.0479 Y35.5910 F50    
G01 X-1.9601 Y35.7633 
G01 X-1.9004 Y35.9473 
G01 X-1.8701 Y36.1383 
G01 X-1.8701 Y36.3317 
G01 X-1.9004 Y36.5227 
G01 X-1.9601 Y36.7067 
G01 X-2.0479 Y36.8790 
G01 X-2.1616 Y37.0354 
G01 X-2.2984 Y37.1722 
G01 X-2.4548 Y37.2859 
G01 X-2.6271 Y37.3737 
G01 X-2.8111 Y37.4334 
G01 X-3.0021 Y37.4637 
G01 X-5.2529 Y37.4637 
G01 X-5.4439 Y37.4334 
G01 X-5.6279 Y37.3737 
G01 X-5.8002 Y37.2859 
G01 X-5.9566 Y37.1722 
G01 X-6.0934 Y37.0354 
G01 X-6.1664 Y36.9350 
G01 X-10.2911 Y36.9350 
G01 X-11.3648 Y38.0087 
G01 X-11.4794 Y38.0853 
G01 X-11.6068 Y38.1381 
G01 X-11.7421 Y38.1650 
G01 X-21.1142 Y38.1650 
G01 X-21.1142 Y38.3849 
G01 X-21.1398 Y38.5463 
G01 X-21.1903 Y38.7017 
G01 X-21.2645 Y38.8473 
G01 X-21.3605 Y38.9795 
G01 X-21.4761 Y39.0951 
G01 X-21.6083 Y39.1911 
G01 X-21.7539 Y39.2653 
G01 X-21.9093 Y39.3158 
G01 X-22.0707 Y39.3414 
G01 X-22.2341 Y39.3414 
G01 X-22.3955 Y39.3158 
G01 X-22.5510 Y39.2653 
G01 X-22.6966 Y39.1911 
G01 X-22.8288 Y39.0951 
G01 X-22.9443 Y38.9795 
G01 X-23.0404 Y38.8473 
G01 X-23.1146 Y38.7017 
G01 X-23.1651 Y38.5463 
G01 X-23.1906 Y38.3849 
G01 X-23.1906 Y38.1650 
G01 X-24.0171 Y38.1650 
G01 X-24.0171 Y38.3849 
G01 X-24.0426 Y38.5463 
G01 X-24.0931 Y38.7017 
G01 X-24.1673 Y38.8473 
G01 X-24.2634 Y38.9795 
G01 X-24.3789 Y39.0951 
G01 X-24.5111 Y39.1911 
G01 X-24.6567 Y39.2653 
G01 X-24.8122 Y39.3158 
G01 X-24.9736 Y39.3414 
G01 X-25.1370 Y39.3414 
G01 X-25.2984 Y39.3158 
G01 X-25.4538 Y39.2653 
G01 X-25.5994 Y39.1911 
G01 X-25.7316 Y39.0951 
G01 X-25.8472 Y38.9795 
G01 X-25.9432 Y38.8473 
G01 X-26.0174 Y38.7017 
G01 X-26.0679 Y38.5463 
G01 X-26.0935 Y38.3849 
G01 X-26.0935 Y38.1650 
G01 X-28.0400 Y38.1650 
G01 X-28.0769 Y38.2158 
G01 X-28.2052 Y38.3441 
G01 X-28.3520 Y38.4507 
G01 X-28.5136 Y38.5331 
G01 X-28.6861 Y38.5891 
G01 X-28.8653 Y38.6175 
G01 X-29.0467 Y38.6175 
G01 X-29.2259 Y38.5891 
G01 X-29.3984 Y38.5331 
G01 X-29.5600 Y38.4507 
G01 X-29.7068 Y38.3441 
G01 X-29.8351 Y38.2158 
G01 X-29.9417 Y38.0690 
G01 X-30.0241 Y37.9074 
G01 X-30.0801 Y37.7349 
G01 X-30.1085 Y37.5557 
G01 X-30.1085 Y37.3743 
G01 X-30.0801 Y37.1951 
G01 X-30.0241 Y37.0226 
G01 X-29.9417 Y36.8610 
G01 X-29.8351 Y36.7142 
G01 X-29.7068 Y36.5859 
G01 X-29.5600 Y36.4793 
G01 X-29.3984 Y36.3969 
G01 X-29.2259 Y36.3409 
G01 X-29.0467 Y36.3125 
G01 X-28.8653 Y36.3125 
G01 X-28.6861 Y36.3409 
G01 X-28.5136 Y36.3969 
G01 X-28.3520 Y36.4793 
G01 X-28.2052 Y36.5859 
G01 X-28.0769 Y36.7142 
G01 X-28.0400 Y36.7650 
G01 X-26.0935 Y36.7650 
G01 X-26.0935 Y36.5451 
G01 X-26.0679 Y36.3837 
G01 X-26.0174 Y36.2283 
G01 X-25.9432 Y36.0827 
G01 X-25.8472 Y35.9505 
G01 X-25.7316 Y35.8349 
G01 X-25.5994 Y35.7388 
G01 X-25.4538 Y35.6647 
G01 X-25.2984 Y35.6142 
G01 X-25.1370 Y35.5886 
G01 X-24.9736 Y35.5886 
G01 X-24.8122 Y35.6142 
G01 X-24.6567 Y35.6647 
G01 X-24.5111 Y35.7388 
G01 X-24.3789 Y35.8349 
G01 X-24.2634 Y35.9505 
G01 X-24.1673 Y36.0827 
G01 X-24.0931 Y36.2283 
G01 X-24.0426 Y36.3837 
G01 X-24.0171 Y36.5451 
G01 X-24.0171 Y36.7650 
G01 X-23.1906 Y36.7650 
G01 X-23.1906 Y36.5451 
G01 X-23.1651 Y36.3837 
G01 X-23.1146 Y36.2283 
G01 X-23.0404 Y36.0827 
G01 X-22.9443 Y35.9505 
G01 X-22.8288 Y35.8349 
G01 X-22.6966 Y35.7388 
G01 X-22.5510 Y35.6647 
G01 X-22.3955 Y35.6142 
G01 X-22.2341 Y35.5886 
G01 X-22.0707 Y35.5886 
G01 X-21.9093 Y35.6142 
G01 X-21.7539 Y35.6647 
G01 X-21.6083 Y35.7388 
G01 X-21.4761 Y35.8349 
G01 X-21.3605 Y35.9505 
G01 X-21.2645 Y36.0827 
G01 X-21.1903 Y36.2283 
G01 X-21.1398 Y36.3837 
G01 X-21.1142 Y36.5451 
G01 X-21.1142 Y36.7650 
G01 X-12.1009 Y36.7650 
G01 X-11.1247 Y35.7888 
G01 X-11.0272 Y35.6913 
G01 X-10.9126 Y35.6147 
G01 X-10.7852 Y35.5619 
G01 X-10.6499 Y35.5350 
G01 X-6.1664 Y35.5350 
G01 X-6.0934 Y35.4346 
G01 X-5.9566 Y35.2978 
G01 X-5.8002 Y35.1841 
G01 X-5.6279 Y35.0963 
G01 X-5.4439 Y35.0366 
G01 X-5.2529 Y35.0063 
G01 X-3.0021 Y35.0063 
G01 X-2.8111 Y35.0366 
G01 X-2.6271 Y35.0963 
G01 X-2.4548 Y35.1841 
G01 X-2.2984 Y35.2978 
G01 X-2.1616 Y35.4346 
G00 Z5.0000  
G00 X-2.1616 Y40.4346 
G01 Z-0.0250 F50    
G01 X-2.0479 Y40.5910 F50    
G01 X-1.9601 Y40.7633 
G01 X-1.9004 Y40.9473 
G01 X-1.8701 Y41.1383 
G01 X-1.8701 Y41.3317 
G01 X-1.9004 Y41.5227 
G01 X-1.9601 Y41.7067 
G01 X-2.0479 Y41.8790 
G01 X-2.1616 Y42.0354 
G01 X-2.2984 Y42.1722 
G01 X-2.4548 Y42.2859 
G01 X-2.6271 Y42.3737 
G01 X-2.8111 Y42.4334 
G01 X-3.0021 Y42.4637 
G01 X-5.2529 Y42.4637 
G01 X-5.4439 Y42.4334 
G01 X-5.6279 Y42.3737 
G01 X-5.8002 Y42.2859 
G01 X-5.9566 Y42.1722 
G01 X-6.0934 Y42.0354 
G01 X-6.2071 Y41.8790 
G01 X-6.2949 Y41.7067 
G01 X-6.3546 Y41.5227 
G01 X-6.3836 Y41.3400 
G01 X-27.3231 Y41.3400 
G01 X-27.4584 Y41.3131 
G01 X-27.5858 Y41.2603 
G01 X-27.7004 Y41.1837 
G01 X-27.7979 Y41.0862 
G01 X-28.1026 Y40.7815 
G01 X-28.2052 Y40.8841 
G01 X-28.3520 Y40.9907 
G01 X-28.5136 Y41.0731 
G01 X-28.6861 Y41.1291 
G01 X-28.8653 Y41.1575 
G01 X-29.0467 Y41.1575 
G01 X-29.2259 Y41.1291 
G01 X-29.3984 Y41.0731 
G01 X-29.5600 Y40.9907 
G01 X-29.7068 Y40.8841 
G01 X-29.8351 Y40.7558 
G01 X-29.8720 Y40.7050 
G01 X-30.9295 Y40.7050 
G01 X-30.9295 Y40.9249 
G01 X-30.9551 Y41.0863 
G01 X-31.0056 Y41.2417 
G01 X-31.0798 Y41.3873 
G01 X-31.1758 Y41.5195 
G01 X-31.2914 Y41.6351 
G01 X-31.4236 Y41.7311 
G01 X-31.5692 Y41.8053 
G01 X-31.7246 Y41.8558 
G01 X-31.8860 Y41.8814 
G01 X-32.0494 Y41.8814 
G01 X-32.2108 Y41.8558 
G01 X-32.3662 Y41.8053 
G01 X-32.5118 Y41.7311 
G01 X-32.6440 Y41.6351 
G01 X-32.7596 Y41.5195 
G01 X-32.8556 Y41.3873 
G01 X-32.9298 Y41.2417 
G01 X-32.9803 Y41.0863 
G01 X-33.0059 Y40.9249 
G01 X-33.0059 Y40.7050 
G01 X-33.7054 Y40.7050 
G01 X-33.7054 Y40.9249 
G01 X-33.7309 Y41.0863 
G01 X-33.7814 Y41.2417 
G01 X-33.8556 Y41.3873 
G01 X-33.9517 Y41.5195 
G01 X-34.0672 Y41.6351 
G01 X-34.1994 Y41.7311 
G01 X-34.3450 Y41.8053 
G01 X-34.5004 Y41.8558 
G01 X-34.6619 Y41.8814 
G01 X-34.8253 Y41.8814 
G01 X-34.9867 Y41.8558 
G01 X-35.1421 Y41.8053 
G01 X-35.2877 Y41.7311 
G01 X-35.4199 Y41.6351 
G01 X-35.5355 Y41.5195 
G01 X-35.6315 Y41.3873 
G01 X-35.7057 Y41.2417 
G01 X-35.7562 Y41.0863 
G01 X-35.7818 Y40.9249 
G01 X-35.7818 Y39.0851 
G01 X-35.7562 Y38.9237 
G01 X-35.7057 Y38.7683 
G01 X-35.6315 Y38.6227 
G01 X-35.5355 Y38.4905 
G01 X-35.4199 Y38.3749 
G01 X-35.2877 Y38.2788 
G01 X-35.1421 Y38.2047 
G01 X-34.9867 Y38.1542 
G01 X-34.8253 Y38.1286 
G01 X-34.6619 Y38.1286 
G01 X-34.5004 Y38.1542 
G01 X-34.3450 Y38.2047 
G01 X-34.1994 Y38.2788 
G01 X-34.0672 Y38.3749 
G01 X-33.9517 Y38.4905 
G01 X-33.8556 Y38.6227 
G01 X-33.7814 Y38.7683 
G01 X-33.7309 Y38.9237 
G01 X-33.7054 Y39.0851 
G01 X-33.7054 Y39.3050 
G01 X-33.0059 Y39.3050 
G01 X-33.0059 Y39.0851 
G01 X-32.9803 Y38.9237 
G01 X-32.9298 Y38.7683 
G01 X-32.8556 Y38.6227 
G01 X-32.7596 Y38.4905 
G01 X-32.6440 Y38.3749 
G01 X-32.5118 Y38.2788 
G01 X-32.3662 Y38.2047 
G01 X-32.2108 Y38.1542 
G01 X-32.0494 Y38.1286 
G01 X-31.8860 Y38.1286 
G01 X-31.7246 Y38.1542 
G01 X-31.5692 Y38.2047 
G01 X-31.4236 Y38.2788 
G01 X-31.2914 Y38.3749 
G01 X-31.1758 Y38.4905 
G01 X-31.0798 Y38.6227 
G01 X-31.0056 Y38.7683 
G01 X-30.9551 Y38.9237 
G01 X-30.9295 Y39.0851 
G01 X-30.9295 Y39.3050 
G01 X-29.8720 Y39.3050 
G01 X-29.8351 Y39.2542 
G01 X-29.7068 Y39.1259 
G01 X-29.5600 Y39.0193 
G01 X-29.3984 Y38.9369 
G01 X-29.2259 Y38.8809 
G01 X-29.0467 Y38.8525 
G01 X-28.8653 Y38.8525 
G01 X-28.6861 Y38.8809 
G01 X-28.5136 Y38.9369 
G01 X-28.3520 Y39.0193 
G01 X-28.2052 Y39.1259 
G01 X-28.0769 Y39.2542 
G01 X-28.0400 Y39.3050 
G01 X-27.8203 Y39.3050 
G01 X-27.6850 Y39.3319 
G01 X-27.5576 Y39.3847 
G01 X-27.4430 Y39.4613 
G01 X-26.9642 Y39.9400 
G01 X-4.6536 Y39.9400 
G01 X-4.5183 Y39.9669 
G01 X-4.4232 Y40.0063 
G01 X-3.0021 Y40.0063 
G01 X-2.8111 Y40.0366 
G01 X-2.6271 Y40.0963 
G01 X-2.4548 Y40.1841 
G01 X-2.2984 Y40.2978 
G01 X-2.1616 Y40.4346 
G00 Z5.0000  
G00 X-2.1616 Y45.4346 
G01 Z-0.0250 F50    
G01 X-2.0479 Y45.5910 F50    
G01 X-1.9601 Y45.7633 
G01 X-1.9004 Y45.9473 
G01 X-1.8701 Y46.1383 
G01 X-1.8701 Y46.3317 
G01 X-1.9004 Y46.5227 
G01 X-1.9601 Y46.7067 
G01 X-2.0479 Y46.8790 
G01 X-2.1616 Y47.0354 
G01 X-2.2984 Y47.1722 
G01 X-2.4548 Y47.2859 
G01 X-2.6271 Y47.3737 
G01 X-2.8111 Y47.4334 
G01 X-3.0021 Y47.4637 
G01 X-5.2529 Y47.4637 
G01 X-5.4439 Y47.4334 
G01 X-5.6279 Y47.3737 
G01 X-5.8002 Y47.2859 
G01 X-5.9566 Y47.1722 
G01 X-6.0934 Y47.0354 
G01 X-6.1664 Y46.9350 
G01 X-9.6160 Y46.9350 
G01 X-9.7863 Y47.1052 
G01 X-9.6615 Y47.1959 
G01 X-9.5459 Y47.3115 
G01 X-9.4498 Y47.4437 
G01 X-9.3757 Y47.5893 
G01 X-9.3252 Y47.7447 
G01 X-9.2996 Y47.9061 
G01 X-9.2996 Y48.0696 
G01 X-9.3252 Y48.2310 
G01 X-9.3757 Y48.3864 
G01 X-9.4498 Y48.5320 
G01 X-9.5459 Y48.6642 
G01 X-9.6615 Y48.7797 
G01 X-9.7937 Y48.8758 
G01 X-9.9393 Y48.9500 
G01 X-10.0947 Y49.0005 
G01 X-10.2561 Y49.0260 
G01 X-12.0959 Y49.0260 
G01 X-12.2573 Y49.0005 
G01 X-12.4127 Y48.9500 
G01 X-12.5583 Y48.8758 
G01 X-12.6905 Y48.7797 
G01 X-12.8061 Y48.6642 
G01 X-12.9021 Y48.5320 
G01 X-12.9763 Y48.3864 
G01 X-13.0268 Y48.2310 
G01 X-13.0524 Y48.0696 
G01 X-13.0524 Y47.9061 
G01 X-13.0268 Y47.7447 
G01 X-12.9763 Y47.5893 
G01 X-12.9021 Y47.4437 
G01 X-12.8061 Y47.3115 
G01 X-12.6905 Y47.1959 
G01 X-12.5583 Y47.0999 
G01 X-12.4127 Y47.0257 
G01 X-12.2573 Y46.9752 
G01 X-12.0959 Y46.9496 
G01 X-11.8760 Y46.9496 
G01 X-11.8760 Y46.1232 
G01 X-12.0959 Y46.1232 
G01 X-12.2573 Y46.0976 
G01 X-12.4127 Y46.0471 
G01 X-12.5583 Y45.9729 
G01 X-12.6905 Y45.8769 
G01 X-12.8061 Y45.7613 
G01 X-12.9021 Y45.6291 
G01 X-12.9763 Y45.4835 
G01 X-13.0268 Y45.3281 
G01 X-13.0524 Y45.1667 
G01 X-13.0524 Y45.0033 
G01 X-13.0268 Y44.8419 
G01 X-12.9763 Y44.6865 
G01 X-12.9021 Y44.5408 
G01 X-12.8213 Y44.4296 
G01 X-14.0059 Y43.2450 
G01 X-28.0400 Y43.2450 
G01 X-28.0769 Y43.2958 
G01 X-28.2052 Y43.4241 
G01 X-28.3520 Y43.5307 
G01 X-28.5136 Y43.6131 
G01 X-28.6861 Y43.6691 
G01 X-28.8653 Y43.6975 
G01 X-29.0467 Y43.6975 
G01 X-29.2259 Y43.6691 
G01 X-29.3984 Y43.6131 
G01 X-29.5600 Y43.5307 
G01 X-29.7068 Y43.4241 
G01 X-29.8351 Y43.2958 
G01 X-29.9417 Y43.1490 
G01 X-30.0241 Y42.9874 
G01 X-30.0801 Y42.8149 
G01 X-30.1085 Y42.6357 
G01 X-30.1085 Y42.4543 
G01 X-30.0801 Y42.2751 
G01 X-30.0241 Y42.1026 
G01 X-29.9417 Y41.9410 
G01 X-29.8351 Y41.7942 
G01 X-29.7068 Y41.6659 
G01 X-29.5600 Y41.5593 
G01 X-29.3984 Y41.4769 
G01 X-29.2259 Y41.4209 
G01 X-29.0467 Y41.3925 
G01 X-28.8653 Y41.3925 
G01 X-28.6861 Y41.4209 
G01 X-28.5136 Y41.4769 
G01 X-28.3520 Y41.5593 
G01 X-28.2052 Y41.6659 
G01 X-28.0769 Y41.7942 
G01 X-28.0400 Y41.8450 
G01 X-13.6470 Y41.8450 
G01 X-13.5118 Y41.8719 
G01 X-13.3844 Y41.9247 
G01 X-13.2698 Y42.0013 
G01 X-11.2242 Y44.0468 
G01 X-10.2561 Y44.0468 
G01 X-10.0947 Y44.0723 
G01 X-9.9393 Y44.1228 
G01 X-9.7937 Y44.1970 
G01 X-9.6615 Y44.2931 
G01 X-9.5459 Y44.4086 
G01 X-9.4498 Y44.5408 
G01 X-9.3757 Y44.6865 
G01 X-9.3252 Y44.8419 
G01 X-9.2996 Y45.0033 
G01 X-9.2996 Y45.1667 
G01 X-9.3252 Y45.3281 
G01 X-9.3757 Y45.4835 
G01 X-9.4019 Y45.5350 
G01 X-6.1664 Y45.5350 
G01 X-6.0934 Y45.4346 
G01 X-5.9566 Y45.2978 
G01 X-5.8002 Y45.1841 
G01 X-5.6279 Y45.0963 
G01 X-5.4439 Y45.0366 
G01 X-5.2529 Y45.0063 
G01 X-3.0021 Y45.0063 
G01 X-2.8111 Y45.0366 
G01 X-2.6271 Y45.0963 
G01 X-2.4548 Y45.1841 
G01 X-2.2984 Y45.2978 
G01 X-2.1616 Y45.4346 
G00 Z5.0000  
G00 X-2.2376 Y54.3106 
G01 Z-0.0250 F50    
G01 X-2.1239 Y54.4670 F50    
G01 X-2.0361 Y54.6393 
G01 X-1.9764 Y54.8233 
G01 X-1.9461 Y55.0143 
G01 X-1.9461 Y55.2077 
G01 X-1.9764 Y55.3987 
G01 X-2.0361 Y55.5827 
G01 X-2.1239 Y55.7550 
G01 X-2.2376 Y55.9114 
G01 X-2.3744 Y56.0482 
G01 X-2.5308 Y56.1619 
G01 X-2.7031 Y56.2497 
G01 X-2.8871 Y56.3094 
G01 X-3.0781 Y56.3397 
G01 X-5.3289 Y56.3397 
G01 X-5.5199 Y56.3094 
G01 X-5.7039 Y56.2497 
G01 X-5.8762 Y56.1619 
G01 X-6.0326 Y56.0482 
G01 X-6.1694 Y55.9114 
G01 X-6.2424 Y55.8110 
G01 X-9.3475 Y55.8110 
G01 X-9.3757 Y55.8975 
G01 X-9.4498 Y56.0431 
G01 X-9.5459 Y56.1753 
G01 X-9.6615 Y56.2909 
G01 X-9.7937 Y56.3869 
G01 X-9.9393 Y56.4611 
G01 X-10.0947 Y56.5116 
G01 X-10.2561 Y56.5372 
G01 X-11.2243 Y56.5372 
G01 X-12.8888 Y58.2017 
G01 X-13.0034 Y58.2783 
G01 X-13.1308 Y58.3311 
G01 X-13.2661 Y58.3580 
G01 X-20.8152 Y58.3580 
G01 X-20.8600 Y58.3879 
G01 X-20.9874 Y58.4407 
G01 X-21.1227 Y58.4676 
G01 X-25.6267 Y58.4676 
G01 X-25.7235 Y58.5323 
G01 X-25.8509 Y58.5851 
G01 X-25.9862 Y58.6120 
G01 X-28.0400 Y58.6120 
G01 X-28.0769 Y58.6628 
G01 X-28.2052 Y58.7911 
G01 X-28.3520 Y58.8977 
G01 X-28.5136 Y58.9801 
G01 X-28.6861 Y59.0361 
G01 X-28.8653 Y59.0645 
G01 X-29.0467 Y59.0645 
G01 X-29.2259 Y59.0361 
G01 X-29.3984 Y58.9801 
G01 X-29.5600 Y58.8977 
G01 X-29.7068 Y58.7911 
G01 X-29.8351 Y58.6628 
G01 X-29.9417 Y58.5160 
G01 X-30.0241 Y58.3544 
G01 X-30.0801 Y58.1819 
G01 X-30.1085 Y58.0027 
G01 X-30.1085 Y57.8213 
G01 X-30.0801 Y57.6421 
G01 X-30.0241 Y57.4696 
G01 X-29.9417 Y57.3080 
G01 X-29.8351 Y57.1612 
G01 X-29.7068 Y57.0329 
G01 X-29.5600 Y56.9263 
G01 X-29.3984 Y56.8439 
G01 X-29.2259 Y56.7879 
G01 X-29.0467 Y56.7595 
G01 X-28.8653 Y56.7595 
G01 X-28.6861 Y56.7879 
G01 X-28.5136 Y56.8439 
G01 X-28.3520 Y56.9263 
G01 X-28.2052 Y57.0329 
G01 X-28.0769 Y57.1612 
G01 X-28.0400 Y57.2120 
G01 X-26.3392 Y57.2120 
G01 X-26.2423 Y57.1473 
G01 X-26.1149 Y57.0945 
G01 X-25.9797 Y57.0676 
G01 X-21.4584 Y57.0676 
G01 X-21.4136 Y57.0377 
G01 X-21.2862 Y56.9849 
G01 X-21.1509 Y56.9580 
G01 X-13.6249 Y56.9580 
G01 X-12.8213 Y56.1544 
G01 X-12.9021 Y56.0431 
G01 X-12.9763 Y55.8975 
G01 X-13.0268 Y55.7421 
G01 X-13.0524 Y55.5807 
G01 X-13.0524 Y55.4173 
G01 X-13.0268 Y55.2559 
G01 X-12.9763 Y55.1005 
G01 X-12.9021 Y54.9549 
G01 X-12.8061 Y54.8227 
G01 X-12.6905 Y54.7071 
G01 X-12.5583 Y54.6110 
G01 X-12.4127 Y54.5369 
G01 X-12.2573 Y54.4864 
G01 X-12.0959 Y54.4608 
G01 X-11.8760 Y54.4608 
G01 X-11.8760 Y53.4892 
G01 X-12.0959 Y53.4892 
G01 X-12.2573 Y53.4636 
G01 X-12.4127 Y53.4131 
G01 X-12.5583 Y53.3389 
G01 X-12.6905 Y53.2429 
G01 X-12.8061 Y53.1273 
G01 X-12.9021 Y52.9951 
G01 X-12.9763 Y52.8495 
G01 X-13.0268 Y52.6941 
G01 X-13.0524 Y52.5327 
G01 X-13.0524 Y52.3693 
G01 X-13.0268 Y52.2079 
G01 X-12.9763 Y52.0525 
G01 X-12.9021 Y51.9069 
G01 X-12.8061 Y51.7747 
G01 X-12.6905 Y51.6591 
G01 X-12.5583 Y51.5630 
G01 X-12.4127 Y51.4889 
G01 X-12.2573 Y51.4384 
G01 X-12.0959 Y51.4128 
G01 X-10.2561 Y51.4128 
G01 X-10.0947 Y51.4384 
G01 X-9.9393 Y51.4889 
G01 X-9.7937 Y51.5630 
G01 X-9.6615 Y51.6591 
G01 X-9.5459 Y51.7747 
G01 X-9.4498 Y51.9069 
G01 X-9.3757 Y52.0525 
G01 X-9.3252 Y52.2079 
G01 X-9.2996 Y52.3693 
G01 X-9.2996 Y52.5327 
G01 X-9.3252 Y52.6941 
G01 X-9.3757 Y52.8495 
G01 X-9.4498 Y52.9951 
G01 X-9.5459 Y53.1273 
G01 X-9.6615 Y53.2429 
G01 X-9.7937 Y53.3389 
G01 X-9.9393 Y53.4131 
G01 X-10.0947 Y53.4636 
G01 X-10.2561 Y53.4892 
G01 X-10.4760 Y53.4892 
G01 X-10.4760 Y53.5581 
G01 X-9.6230 Y54.4110 
G01 X-6.2424 Y54.4110 
G01 X-6.1694 Y54.3106 
G01 X-6.0326 Y54.1738 
G01 X-5.8762 Y54.0601 
G01 X-5.7039 Y53.9723 
G01 X-5.5199 Y53.9126 
G01 X-5.3289 Y53.8823 
G01 X-3.0781 Y53.8823 
G01 X-2.8871 Y53.9126 
G01 X-2.7031 Y53.9723 
G01 X-2.5308 Y54.0601 
G01 X-2.3744 Y54.1738 
G01 X-2.2376 Y54.3106 
G00 Z5.0000  
G00 X-2.2376 Y59.3106 
G01 Z-0.0250 F50    
G01 X-2.1239 Y59.4670 F50    
G01 X-2.0361 Y59.6393 
G01 X-1.9764 Y59.8233 
G01 X-1.9461 Y60.0143 
G01 X-1.9461 Y60.2077 
G01 X-1.9764 Y60.3987 
G01 X-2.0361 Y60.5827 
G01 X-2.1239 Y60.7550 
G01 X-2.2376 Y60.9114 
G01 X-2.3744 Y61.0482 
G01 X-2.5308 Y61.1619 
G01 X-2.7031 Y61.2497 
G01 X-2.8871 Y61.3094 
G01 X-3.0781 Y61.3397 
G01 X-5.3289 Y61.3397 
G01 X-5.5199 Y61.3094 
G01 X-5.7039 Y61.2497 
G01 X-5.8762 Y61.1619 
G01 X-6.0326 Y61.0482 
G01 X-6.1694 Y60.9114 
G01 X-6.2831 Y60.7550 
G01 X-6.3396 Y60.6440 
G01 X-21.0598 Y60.6440 
G01 X-21.0598 Y61.3719 
G01 X-21.0854 Y61.5333 
G01 X-21.1359 Y61.6887 
G01 X-21.2100 Y61.8343 
G01 X-21.3061 Y61.9665 
G01 X-21.4217 Y62.0821 
G01 X-21.5539 Y62.1781 
G01 X-21.6995 Y62.2523 
G01 X-21.8549 Y62.3028 
G01 X-22.0163 Y62.3284 
G01 X-22.1797 Y62.3284 
G01 X-22.3411 Y62.3028 
G01 X-22.4965 Y62.2523 
G01 X-22.6421 Y62.1781 
G01 X-22.7743 Y62.0821 
G01 X-22.8899 Y61.9665 
G01 X-22.9859 Y61.8343 
G01 X-23.0601 Y61.6887 
G01 X-23.1106 Y61.5333 
G01 X-23.1362 Y61.3719 
G01 X-23.1362 Y61.1520 
G01 X-24.1078 Y61.1520 
G01 X-24.1078 Y61.3719 
G01 X-24.1334 Y61.5333 
G01 X-24.1839 Y61.6887 
G01 X-24.2581 Y61.8343 
G01 X-24.3541 Y61.9665 
G01 X-24.4697 Y62.0821 
G01 X-24.6019 Y62.1781 
G01 X-24.7475 Y62.2523 
G01 X-24.9029 Y62.3028 
G01 X-25.0643 Y62.3284 
G01 X-25.2277 Y62.3284 
G01 X-25.3891 Y62.3028 
G01 X-25.5445 Y62.2523 
G01 X-25.6901 Y62.1781 
G01 X-25.8223 Y62.0821 
G01 X-25.9379 Y61.9665 
G01 X-26.0339 Y61.8343 
G01 X-26.1081 Y61.6887 
G01 X-26.1586 Y61.5333 
G01 X-26.1842 Y61.3719 
G01 X-26.1842 Y61.1520 
G01 X-28.0400 Y61.1520 
G01 X-28.0769 Y61.2028 
G01 X-28.2052 Y61.3311 
G01 X-28.3520 Y61.4377 
G01 X-28.5136 Y61.5201 
G01 X-28.6861 Y61.5761 
G01 X-28.8653 Y61.6045 
G01 X-29.0467 Y61.6045 
G01 X-29.2259 Y61.5761 
G01 X-29.3984 Y61.5201 
G01 X-29.5600 Y61.4377 
G01 X-29.7068 Y61.3311 
G01 X-29.8351 Y61.2028 
G01 X-29.9417 Y61.0560 
G01 X-30.0241 Y60.8944 
G01 X-30.0801 Y60.7219 
G01 X-30.1085 Y60.5427 
G01 X-30.1085 Y60.3613 
G01 X-30.0801 Y60.1821 
G01 X-30.0241 Y60.0096 
G01 X-29.9417 Y59.8480 
G01 X-29.8351 Y59.7012 
G01 X-29.7068 Y59.5729 
G01 X-29.5600 Y59.4663 
G01 X-29.3984 Y59.3839 
G01 X-29.2259 Y59.3279 
G01 X-29.0467 Y59.2995 
G01 X-28.8653 Y59.2995 
G01 X-28.6861 Y59.3279 
G01 X-28.5136 Y59.3839 
G01 X-28.3520 Y59.4663 
G01 X-28.2052 Y59.5729 
G01 X-28.0769 Y59.7012 
G01 X-28.0400 Y59.7520 
G01 X-26.1842 Y59.7520 
G01 X-26.1842 Y59.5321 
G01 X-26.1586 Y59.3707 
G01 X-26.1081 Y59.2153 
G01 X-26.0339 Y59.0697 
G01 X-25.9379 Y58.9375 
G01 X-25.8223 Y58.8219 
G01 X-25.6901 Y58.7259 
G01 X-25.5445 Y58.6517 
G01 X-25.3891 Y58.6012 
G01 X-25.2277 Y58.5756 
G01 X-25.0643 Y58.5756 
G01 X-24.9029 Y58.6012 
G01 X-24.7475 Y58.6517 
G01 X-24.6019 Y58.7259 
G01 X-24.4697 Y58.8219 
G01 X-24.3541 Y58.9375 
G01 X-24.2581 Y59.0697 
G01 X-24.1839 Y59.2153 
G01 X-24.1334 Y59.3707 
G01 X-24.1078 Y59.5321 
G01 X-24.1078 Y59.7520 
G01 X-23.1362 Y59.7520 
G01 X-23.1362 Y59.5321 
G01 X-23.1106 Y59.3707 
G01 X-23.0601 Y59.2153 
G01 X-22.9859 Y59.0697 
G01 X-22.8899 Y58.9375 
G01 X-22.7743 Y58.8219 
G01 X-22.6421 Y58.7259 
G01 X-22.4965 Y58.6517 
G01 X-22.3411 Y58.6012 
G01 X-22.1797 Y58.5756 
G01 X-22.0163 Y58.5756 
G01 X-21.8549 Y58.6012 
G01 X-21.6995 Y58.6517 
G01 X-21.5539 Y58.7259 
G01 X-21.4217 Y58.8219 
G01 X-21.3061 Y58.9375 
G01 X-21.2100 Y59.0697 
G01 X-21.1359 Y59.2153 
G01 X-21.1265 Y59.2440 
G01 X-6.1028 Y59.2440 
G01 X-6.0326 Y59.1738 
G01 X-5.8762 Y59.0601 
G01 X-5.7039 Y58.9723 
G01 X-5.5199 Y58.9126 
G01 X-5.3289 Y58.8823 
G01 X-3.0781 Y58.8823 
G01 X-2.8871 Y58.9126 
G01 X-2.7031 Y58.9723 
G01 X-2.5308 Y59.0601 
G01 X-2.3744 Y59.1738 
G01 X-2.2376 Y59.3106 
G00 Z5.0000  
G00 X-2.2376 Y64.3106 
G01 Z-0.0250 F50    
G01 X-2.1239 Y64.4670 F50    
G01 X-2.0361 Y64.6393 
G01 X-1.9764 Y64.8233 
G01 X-1.9461 Y65.0143 
G01 X-1.9461 Y65.2077 
G01 X-1.9764 Y65.3987 
G01 X-2.0361 Y65.5827 
G01 X-2.1239 Y65.7550 
G01 X-2.2376 Y65.9114 
G01 X-2.3744 Y66.0482 
G01 X-2.5308 Y66.1619 
G01 X-2.7031 Y66.2497 
G01 X-2.8871 Y66.3094 
G01 X-3.0781 Y66.3397 
G01 X-5.3289 Y66.3397 
G01 X-5.5199 Y66.3094 
G01 X-5.7039 Y66.2497 
G01 X-5.8762 Y66.1619 
G01 X-6.0326 Y66.0482 
G01 X-6.1694 Y65.9114 
G01 X-6.2424 Y65.8110 
G01 X-9.4669 Y65.8110 
G01 X-9.6022 Y65.7841 
G01 X-9.7296 Y65.7313 
G01 X-9.8442 Y65.6547 
G01 X-10.7909 Y64.7080 
G01 X-25.9769 Y64.7080 
G01 X-26.1122 Y64.6811 
G01 X-26.2396 Y64.6283 
G01 X-26.3542 Y64.5517 
G01 X-26.4517 Y64.4542 
G01 X-27.2139 Y63.6920 
G01 X-28.0400 Y63.6920 
G01 X-28.0769 Y63.7428 
G01 X-28.2052 Y63.8711 
G01 X-28.3520 Y63.9777 
G01 X-28.5136 Y64.0601 
G01 X-28.6861 Y64.1161 
G01 X-28.8653 Y64.1445 
G01 X-29.0467 Y64.1445 
G01 X-29.2259 Y64.1161 
G01 X-29.3984 Y64.0601 
G01 X-29.5600 Y63.9777 
G01 X-29.7068 Y63.8711 
G01 X-29.8351 Y63.7428 
G01 X-29.8720 Y63.6920 
G01 X-30.9658 Y63.6920 
G01 X-30.9658 Y63.9119 
G01 X-30.9914 Y64.0733 
G01 X-31.0419 Y64.2287 
G01 X-31.1161 Y64.3743 
G01 X-31.2121 Y64.5065 
G01 X-31.3277 Y64.6221 
G01 X-31.4599 Y64.7181 
G01 X-31.6055 Y64.7923 
G01 X-31.7609 Y64.8428 
G01 X-31.9223 Y64.8684 
G01 X-32.0857 Y64.8684 
G01 X-32.2471 Y64.8428 
G01 X-32.4025 Y64.7923 
G01 X-32.5481 Y64.7181 
G01 X-32.6803 Y64.6221 
G01 X-32.7959 Y64.5065 
G01 X-32.8919 Y64.3743 
G01 X-32.9661 Y64.2287 
G01 X-33.0166 Y64.0733 
G01 X-33.0422 Y63.9119 
G01 X-33.0422 Y63.6920 
G01 X-33.7598 Y63.6920 
G01 X-33.7598 Y63.9119 
G01 X-33.7854 Y64.0733 
G01 X-33.8359 Y64.2287 
G01 X-33.9100 Y64.3743 
G01 X-34.0061 Y64.5065 
G01 X-34.1217 Y64.6221 
G01 X-34.2539 Y64.7181 
G01 X-34.3995 Y64.7923 
G01 X-34.5549 Y64.8428 
G01 X-34.7163 Y64.8684 
G01 X-34.8797 Y64.8684 
G01 X-35.0411 Y64.8428 
G01 X-35.1965 Y64.7923 
G01 X-35.3421 Y64.7181 
G01 X-35.4743 Y64.6221 
G01 X-35.5899 Y64.5065 
G01 X-35.6859 Y64.3743 
G01 X-35.7601 Y64.2287 
G01 X-35.8106 Y64.0733 
G01 X-35.8362 Y63.9119 
G01 X-35.8362 Y62.0721 
G01 X-35.8106 Y61.9107 
G01 X-35.7601 Y61.7553 
G01 X-35.6859 Y61.6097 
G01 X-35.5899 Y61.4775 
G01 X-35.4743 Y61.3619 
G01 X-35.3421 Y61.2659 
G01 X-35.1965 Y61.1917 
G01 X-35.0411 Y61.1412 
G01 X-34.8797 Y61.1156 
G01 X-34.7163 Y61.1156 
G01 X-34.5549 Y61.1412 
G01 X-34.3995 Y61.1917 
G01 X-34.2539 Y61.2659 
G01 X-34.1217 Y61.3619 
G01 X-34.0061 Y61.4775 
G01 X-33.9100 Y61.6097 
G01 X-33.8359 Y61.7553 
G01 X-33.7854 Y61.9107 
G01 X-33.7598 Y62.0721 
G01 X-33.7598 Y62.2920 
G01 X-33.0422 Y62.2920 
G01 X-33.0422 Y62.0721 
G01 X-33.0166 Y61.9107 
G01 X-32.9661 Y61.7553 
G01 X-32.8919 Y61.6097 
G01 X-32.7959 Y61.4775 
G01 X-32.6803 Y61.3619 
G01 X-32.5481 Y61.2659 
G01 X-32.4025 Y61.1917 
G01 X-32.2471 Y61.1412 
G01 X-32.0857 Y61.1156 
G01 X-31.9223 Y61.1156 
G01 X-31.7609 Y61.1412 
G01 X-31.6055 Y61.1917 
G01 X-31.4599 Y61.2659 
G01 X-31.3277 Y61.3619 
G01 X-31.2121 Y61.4775 
G01 X-31.1161 Y61.6097 
G01 X-31.0419 Y61.7553 
G01 X-30.9914 Y61.9107 
G01 X-30.9658 Y62.0721 
G01 X-30.9658 Y62.2920 
G01 X-29.8720 Y62.2920 
G01 X-29.8351 Y62.2412 
G01 X-29.7068 Y62.1129 
G01 X-29.5600 Y62.0063 
G01 X-29.3984 Y61.9239 
G01 X-29.2259 Y61.8679 
G01 X-29.0467 Y61.8395 
G01 X-28.8653 Y61.8395 
G01 X-28.6861 Y61.8679 
G01 X-28.5136 Y61.9239 
G01 X-28.3520 Y62.0063 
G01 X-28.2052 Y62.1129 
G01 X-28.0769 Y62.2412 
G01 X-28.0400 Y62.2920 
G01 X-26.8551 Y62.2920 
G01 X-26.7198 Y62.3189 
G01 X-26.5924 Y62.3717 
G01 X-26.4778 Y62.4483 
G01 X-25.6181 Y63.3080 
G01 X-10.4321 Y63.3080 
G01 X-10.2968 Y63.3349 
G01 X-10.1694 Y63.3877 
G01 X-10.0548 Y63.4643 
G01 X-9.9573 Y63.5618 
G01 X-9.1081 Y64.4110 
G01 X-6.2424 Y64.4110 
G01 X-6.1694 Y64.3106 
G01 X-6.0326 Y64.1738 
G01 X-5.8762 Y64.0601 
G01 X-5.7039 Y63.9723 
G01 X-5.5199 Y63.9126 
G01 X-5.3289 Y63.8823 
G01 X-3.0781 Y63.8823 
G01 X-2.8871 Y63.9126 
G01 X-2.7031 Y63.9723 
G01 X-2.5308 Y64.0601 
G01 X-2.3744 Y64.1738 
G01 X-2.2376 Y64.3106 
G00 Z5.0000  
G00 X-2.2376 Y69.3106 
G01 Z-0.0250 F50    
G01 X-2.1239 Y69.4670 F50    
G01 X-2.0361 Y69.6393 
G01 X-1.9764 Y69.8233 
G01 X-1.9461 Y70.0143 
G01 X-1.9461 Y70.2077 
G01 X-1.9764 Y70.3987 
G01 X-2.0361 Y70.5827 
G01 X-2.1239 Y70.7550 
G01 X-2.2376 Y70.9114 
G01 X-2.3744 Y71.0482 
G01 X-2.5308 Y71.1619 
G01 X-2.7031 Y71.2497 
G01 X-2.8871 Y71.3094 
G01 X-3.0781 Y71.3397 
G01 X-5.3289 Y71.3397 
G01 X-5.5199 Y71.3094 
G01 X-5.7039 Y71.2497 
G01 X-5.8762 Y71.1619 
G01 X-6.0326 Y71.0482 
G01 X-6.1694 Y70.9114 
G01 X-6.2424 Y70.8110 
G01 X-9.3620 Y70.8110 
G01 X-9.6806 Y71.1295 
G01 X-9.6297 Y71.2295 
G01 X-9.5792 Y71.3849 
G01 X-9.5536 Y71.5463 
G01 X-9.5536 Y71.7097 
G01 X-9.5792 Y71.8711 
G01 X-9.6297 Y72.0265 
G01 X-9.7038 Y72.1721 
G01 X-9.7999 Y72.3043 
G01 X-9.9155 Y72.4199 
G01 X-10.0477 Y72.5159 
G01 X-10.1933 Y72.5901 
G01 X-10.3487 Y72.6406 
G01 X-10.5101 Y72.6662 
G01 X-12.3499 Y72.6662 
G01 X-12.5113 Y72.6406 
G01 X-12.6667 Y72.5901 
G01 X-12.8123 Y72.5159 
G01 X-12.9445 Y72.4199 
G01 X-13.0601 Y72.3043 
G01 X-13.1561 Y72.1721 
G01 X-13.2303 Y72.0265 
G01 X-13.2808 Y71.8711 
G01 X-13.3064 Y71.7097 
G01 X-13.3064 Y71.5463 
G01 X-13.2808 Y71.3849 
G01 X-13.2303 Y71.2295 
G01 X-13.1561 Y71.0839 
G01 X-13.0601 Y70.9517 
G01 X-12.9445 Y70.8361 
G01 X-12.8123 Y70.7400 
G01 X-12.6667 Y70.6659 
G01 X-12.5113 Y70.6154 
G01 X-12.3499 Y70.5898 
G01 X-12.1300 Y70.5898 
G01 X-12.1300 Y69.3642 
G01 X-12.3499 Y69.3642 
G01 X-12.5113 Y69.3386 
G01 X-12.6667 Y69.2881 
G01 X-12.8123 Y69.2139 
G01 X-12.9445 Y69.1179 
G01 X-13.0601 Y69.0023 
G01 X-13.1561 Y68.8701 
G01 X-13.2303 Y68.7245 
G01 X-13.2808 Y68.5691 
G01 X-13.3064 Y68.4077 
G01 X-13.3064 Y68.2443 
G01 X-13.2808 Y68.0829 
G01 X-13.2303 Y67.9275 
G01 X-13.1561 Y67.7819 
G01 X-13.0753 Y67.6706 
G01 X-14.0059 Y66.7400 
G01 X-26.9929 Y66.7400 
G01 X-27.1282 Y66.7131 
G01 X-27.2556 Y66.6603 
G01 X-27.3702 Y66.5837 
G01 X-27.4677 Y66.4862 
G01 X-27.7219 Y66.2320 
G01 X-28.0400 Y66.2320 
G01 X-28.0769 Y66.2828 
G01 X-28.2052 Y66.4111 
G01 X-28.3520 Y66.5177 
G01 X-28.5136 Y66.6001 
G01 X-28.6861 Y66.6561 
G01 X-28.8653 Y66.6845 
G01 X-29.0467 Y66.6845 
G01 X-29.2259 Y66.6561 
G01 X-29.3984 Y66.6001 
G01 X-29.5600 Y66.5177 
G01 X-29.7068 Y66.4111 
G01 X-29.8351 Y66.2828 
G01 X-29.9417 Y66.1360 
G01 X-30.0241 Y65.9744 
G01 X-30.0801 Y65.8019 
G01 X-30.1085 Y65.6227 
G01 X-30.1085 Y65.4413 
G01 X-30.0801 Y65.2621 
G01 X-30.0241 Y65.0896 
G01 X-29.9417 Y64.9280 
G01 X-29.8351 Y64.7812 
G01 X-29.7068 Y64.6529 
G01 X-29.5600 Y64.5463 
G01 X-29.3984 Y64.4639 
G01 X-29.2259 Y64.4079 
G01 X-29.0467 Y64.3795 
G01 X-28.8653 Y64.3795 
G01 X-28.6861 Y64.4079 
G01 X-28.5136 Y64.4639 
G01 X-28.3520 Y64.5463 
G01 X-28.2052 Y64.6529 
G01 X-28.0769 Y64.7812 
G01 X-28.0400 Y64.8320 
G01 X-27.3631 Y64.8320 
G01 X-27.2278 Y64.8589 
G01 X-27.1004 Y64.9117 
G01 X-26.9858 Y64.9883 
G01 X-26.6340 Y65.3400 
G01 X-13.6471 Y65.3400 
G01 X-13.5118 Y65.3669 
G01 X-13.3844 Y65.4197 
G01 X-13.2698 Y65.4963 
G01 X-11.4783 Y67.2878 
G01 X-10.5101 Y67.2878 
G01 X-10.3487 Y67.3134 
G01 X-10.1933 Y67.3639 
G01 X-10.0477 Y67.4381 
G01 X-9.9155 Y67.5341 
G01 X-9.7999 Y67.6497 
G01 X-9.7038 Y67.7819 
G01 X-9.6297 Y67.9275 
G01 X-9.5792 Y68.0829 
G01 X-9.5536 Y68.2443 
G01 X-9.5536 Y68.4077 
G01 X-9.5792 Y68.5691 
G01 X-9.6297 Y68.7245 
G01 X-9.7038 Y68.8701 
G01 X-9.7847 Y68.9814 
G01 X-9.3551 Y69.4110 
G01 X-6.2424 Y69.4110 
G01 X-6.1694 Y69.3106 
G01 X-6.0326 Y69.1738 
G01 X-5.8762 Y69.0601 
G01 X-5.7039 Y68.9723 
G01 X-5.5199 Y68.9126 
G01 X-5.3289 Y68.8823 
G01 X-3.0781 Y68.8823 
G01 X-2.8871 Y68.9126 
G01 X-2.7031 Y68.9723 
G01 X-2.5308 Y69.0601 
G01 X-2.3744 Y69.1738 
G01 X-2.2376 Y69.3106 
G00 Z5.0000  
G00 X-13.8901 Y69.4000 
G01 Z-0.0250 F50    
G01 X-13.8185 Y69.5729 F50    
G01 X-13.7820 Y69.7564 
G01 X-13.7820 Y78.5796 
G01 X-13.8185 Y78.7631 
G01 X-13.8901 Y78.9360 
G01 X-13.9941 Y79.0916 
G01 X-15.7774 Y80.8749 
G01 X-15.9330 Y80.9789 
G01 X-16.1059 Y81.0505 
G01 X-16.2894 Y81.0870 
G01 X-22.9413 Y81.0870 
G01 X-22.9413 Y81.2624 
G01 X-22.9716 Y81.4534 
G01 X-23.0313 Y81.6374 
G01 X-23.1191 Y81.8097 
G01 X-23.2328 Y81.9661 
G01 X-23.3696 Y82.1029 
G01 X-23.5260 Y82.2166 
G01 X-23.6983 Y82.3044 
G01 X-23.8823 Y82.3641 
G01 X-24.0733 Y82.3944 
G01 X-24.2667 Y82.3944 
G01 X-24.4577 Y82.3641 
G01 X-24.6417 Y82.3044 
G01 X-24.8140 Y82.2166 
G01 X-24.9704 Y82.1029 
G01 X-25.1072 Y81.9661 
G01 X-25.2209 Y81.8097 
G01 X-25.3087 Y81.6374 
G01 X-25.3684 Y81.4534 
G01 X-25.3987 Y81.2624 
G01 X-25.3987 Y79.0116 
G01 X-25.3684 Y78.8206 
G01 X-25.3087 Y78.6366 
G01 X-25.2209 Y78.4643 
G01 X-25.1072 Y78.3079 
G01 X-24.9704 Y78.1711 
G01 X-24.8140 Y78.0574 
G01 X-24.6417 Y77.9696 
G01 X-24.4577 Y77.9099 
G01 X-24.2667 Y77.8796 
G01 X-24.0733 Y77.8796 
G01 X-23.8823 Y77.9099 
G01 X-23.6983 Y77.9696 
G01 X-23.5260 Y78.0574 
G01 X-23.3696 Y78.1711 
G01 X-23.2818 Y78.2589 
G01 X-20.7361 Y75.7132 
G01 X-20.8452 Y75.5631 
G01 X-20.9315 Y75.3937 
G01 X-20.9903 Y75.2129 
G01 X-21.0200 Y75.0251 
G01 X-21.0200 Y74.8349 
G01 X-20.9903 Y74.6471 
G01 X-20.9315 Y74.4663 
G01 X-20.8452 Y74.2969 
G01 X-20.7334 Y74.1430 
G01 X-20.5990 Y74.0086 
G01 X-20.4451 Y73.8968 
G01 X-20.2757 Y73.8105 
G01 X-20.0949 Y73.7517 
G01 X-19.9071 Y73.7220 
G01 X-19.7169 Y73.7220 
G01 X-19.5291 Y73.7517 
G01 X-19.3483 Y73.8105 
G01 X-19.1789 Y73.8968 
G01 X-19.0250 Y74.0086 
G01 X-18.8906 Y74.1430 
G01 X-18.7788 Y74.2969 
G01 X-18.6925 Y74.4663 
G01 X-18.6337 Y74.6471 
G01 X-18.6040 Y74.8349 
G01 X-18.6040 Y75.0251 
G01 X-18.6337 Y75.2129 
G01 X-18.6925 Y75.3937 
G01 X-18.7788 Y75.5631 
G01 X-18.8906 Y75.7170 
G01 X-19.0250 Y75.8514 
G01 X-19.1275 Y75.9258 
G01 X-19.1389 Y75.9832 
G01 X-19.1917 Y76.1106 
G01 X-19.2683 Y76.2252 
G01 X-19.3658 Y76.3227 
G01 X-22.2301 Y79.1870 
G01 X-16.7765 Y79.1870 
G01 X-15.6820 Y78.0925 
G01 X-15.6820 Y70.2435 
G01 X-16.6495 Y69.2760 
G01 X-17.7894 Y69.2760 
G01 X-17.9687 Y69.3386 
G01 X-18.1301 Y69.3642 
G01 X-19.9699 Y69.3642 
G01 X-20.1313 Y69.3386 
G01 X-20.2867 Y69.2881 
G01 X-20.4323 Y69.2139 
G01 X-20.5645 Y69.1179 
G01 X-20.6801 Y69.0023 
G01 X-20.7761 Y68.8701 
G01 X-20.8503 Y68.7245 
G01 X-20.9008 Y68.5691 
G01 X-20.9264 Y68.4077 
G01 X-20.9264 Y68.2443 
G01 X-20.9008 Y68.0829 
G01 X-20.8503 Y67.9275 
G01 X-20.7761 Y67.7819 
G01 X-20.6801 Y67.6497 
G01 X-20.5645 Y67.5341 
G01 X-20.4323 Y67.4381 
G01 X-20.2867 Y67.3639 
G01 X-20.1313 Y67.3134 
G01 X-19.9699 Y67.2878 
G01 X-18.1301 Y67.2878 
G01 X-17.9687 Y67.3134 
G01 X-17.8133 Y67.3639 
G01 X-16.1624 Y67.3760 
G01 X-15.9789 Y67.4125 
G01 X-15.8060 Y67.4841 
G01 X-15.6504 Y67.5881 
G01 X-13.9941 Y69.2444 
G01 X-13.8901 Y69.4000 
G00 Z5.0000  
G00 X-17.4199 Y70.9517 
G01 Z-0.0250 F50    
G01 X-17.3239 Y71.0839 F50    
G01 X-17.2497 Y71.2295 
G01 X-17.1992 Y71.3849 
G01 X-17.1736 Y71.5463 
G01 X-17.1736 Y71.7097 
G01 X-17.1992 Y71.8711 
G01 X-17.2497 Y72.0265 
G01 X-17.3239 Y72.1721 
G01 X-17.4199 Y72.3043 
G01 X-17.5355 Y72.4199 
G01 X-17.6677 Y72.5159 
G01 X-17.8133 Y72.5901 
G01 X-17.9687 Y72.6406 
G01 X-18.1301 Y72.6662 
G01 X-19.9699 Y72.6662 
G01 X-20.1313 Y72.6406 
G01 X-20.2867 Y72.5901 
G01 X-23.2285 Y72.5780 
G01 X-28.2200 Y77.5695 
G01 X-28.2200 Y78.3255 
G01 X-28.1191 Y78.4643 
G01 X-28.0313 Y78.6366 
G01 X-27.9716 Y78.8206 
G01 X-27.9413 Y79.0116 
G01 X-27.9413 Y81.2624 
G01 X-27.9716 Y81.4534 
G01 X-28.0313 Y81.6374 
G01 X-28.1191 Y81.8097 
G01 X-28.2328 Y81.9661 
G01 X-28.3696 Y82.1029 
G01 X-28.5260 Y82.2166 
G01 X-28.6983 Y82.3044 
G01 X-28.8823 Y82.3641 
G01 X-29.0733 Y82.3944 
G01 X-29.2667 Y82.3944 
G01 X-29.4577 Y82.3641 
G01 X-29.6417 Y82.3044 
G01 X-29.8140 Y82.2166 
G01 X-29.9704 Y82.1029 
G01 X-30.1072 Y81.9661 
G01 X-30.2209 Y81.8097 
G01 X-30.3087 Y81.6374 
G01 X-30.3684 Y81.4534 
G01 X-30.3987 Y81.2624 
G01 X-30.3987 Y79.8982 
G01 X-33.1429 Y77.1540 
G01 X-43.5029 Y77.1540 
G01 X-43.6382 Y77.1271 
G01 X-43.7656 Y77.0743 
G01 X-43.8802 Y76.9977 
G01 X-46.2322 Y74.6457 
G01 X-46.7298 Y74.6457 
G01 X-47.0680 Y74.9839 
G01 X-47.5463 Y74.9839 
G01 X-47.9385 Y75.3762 
G01 X-48.0360 Y75.4737 
G01 X-48.1507 Y75.5503 
G01 X-48.2781 Y75.6031 
G01 X-48.4133 Y75.6300 
G01 X-49.7473 Y75.6300 
G01 X-49.7782 Y75.6725 
G01 X-49.9051 Y75.7994 
G01 X-50.0502 Y75.9048 
G01 X-50.2101 Y75.9863 
G01 X-50.3807 Y76.0417 
G01 X-50.5579 Y76.0698 
G01 X-52.6169 Y76.0698 
G01 X-52.7941 Y76.0417 
G01 X-52.9647 Y75.9863 
G01 X-53.1246 Y75.9048 
G01 X-53.2697 Y75.7994 
G01 X-53.3966 Y75.6725 
G01 X-53.4275 Y75.6300 
G01 X-55.1138 Y75.6300 
G01 X-55.3498 Y75.8660 
G01 X-55.3498 Y76.3443 
G01 X-55.9580 Y76.9524 
G01 X-56.8180 Y76.9524 
G01 X-57.1562 Y76.6142 
G01 X-61.3147 Y76.6142 
G01 X-61.4499 Y76.5873 
G01 X-61.5773 Y76.5346 
G01 X-61.6920 Y76.4580 
G01 X-67.0917 Y71.0582 
G01 X-67.1683 Y70.9436 
G01 X-67.2211 Y70.8162 
G01 X-67.2480 Y70.6809 
G01 X-67.2480 Y49.9691 
G01 X-67.2211 Y49.8338 
G01 X-67.1683 Y49.7064 
G01 X-67.0917 Y49.5918 
G01 X-66.9942 Y49.4943 
G01 X-64.4540 Y46.9541 
G01 X-64.4540 Y42.1999 
G01 X-64.8059 Y41.8480 
G01 X-64.8700 Y41.8480 
G01 X-64.9069 Y41.8988 
G01 X-65.0352 Y42.0271 
G01 X-65.1820 Y42.1337 
G01 X-65.3436 Y42.2161 
G01 X-65.5161 Y42.2721 
G01 X-65.6953 Y42.3005 
G01 X-65.8767 Y42.3005 
G01 X-66.0559 Y42.2721 
G01 X-66.2284 Y42.2161 
G01 X-66.3900 Y42.1337 
G01 X-66.5368 Y42.0271 
G01 X-66.6651 Y41.8988 
G01 X-66.7717 Y41.7520 
G01 X-66.8541 Y41.5904 
G01 X-66.9101 Y41.4179 
G01 X-66.9385 Y41.2387 
G01 X-66.9385 Y41.0573 
G01 X-66.9101 Y40.8781 
G01 X-66.8541 Y40.7056 
G01 X-66.7717 Y40.5440 
G01 X-66.6651 Y40.3972 
G01 X-66.5368 Y40.2689 
G01 X-66.3900 Y40.1623 
G01 X-66.2284 Y40.0799 
G01 X-66.0559 Y40.0239 
G01 X-65.8767 Y39.9955 
G01 X-65.6953 Y39.9955 
G01 X-65.5161 Y40.0239 
G01 X-65.3436 Y40.0799 
G01 X-65.1820 Y40.1623 
G01 X-65.0352 Y40.2689 
G01 X-64.9069 Y40.3972 
G01 X-64.8700 Y40.4480 
G01 X-64.4471 Y40.4480 
G01 X-64.3118 Y40.4749 
G01 X-64.1844 Y40.5277 
G01 X-64.0698 Y40.6043 
G01 X-63.3078 Y41.3663 
G01 X-63.2103 Y41.4638 
G01 X-63.1337 Y41.5784 
G01 X-63.0809 Y41.7058 
G01 X-63.0540 Y41.8411 
G01 X-63.0540 Y47.3129 
G01 X-63.0809 Y47.4482 
G01 X-63.1337 Y47.5756 
G01 X-63.2103 Y47.6902 
G01 X-65.8480 Y50.3279 
G01 X-65.8480 Y70.3221 
G01 X-60.9558 Y75.2143 
G01 X-57.1562 Y75.2143 
G01 X-56.8180 Y74.8761 
G01 X-56.3397 Y74.8761 
G01 X-55.8500 Y74.3863 
G01 X-55.7353 Y74.3097 
G01 X-55.6079 Y74.2569 
G01 X-55.4727 Y74.2300 
G01 X-53.4275 Y74.2300 
G01 X-53.3966 Y74.1875 
G01 X-53.2697 Y74.0606 
G01 X-53.1246 Y73.9552 
G01 X-52.9647 Y73.8737 
G01 X-52.7941 Y73.8183 
G01 X-52.6169 Y73.7902 
G01 X-50.5579 Y73.7902 
G01 X-50.3807 Y73.8183 
G01 X-50.2101 Y73.8737 
G01 X-50.0502 Y73.9552 
G01 X-49.9051 Y74.0606 
G01 X-49.7782 Y74.1875 
G01 X-49.7473 Y74.2300 
G01 X-48.7722 Y74.2300 
G01 X-48.5362 Y73.9940 
G01 X-48.5362 Y73.5157 
G01 X-47.9280 Y72.9076 
G01 X-47.0680 Y72.9076 
G01 X-46.7298 Y73.2458 
G01 X-45.8733 Y73.2458 
G01 X-45.7381 Y73.2726 
G01 X-45.6107 Y73.3254 
G01 X-45.4960 Y73.4020 
G01 X-43.1441 Y75.7540 
G01 X-40.1679 Y75.7540 
G01 X-39.8160 Y75.4021 
G01 X-39.8160 Y50.7380 
G01 X-45.2809 Y50.7380 
G01 X-45.4162 Y50.7111 
G01 X-45.5436 Y50.6583 
G01 X-45.6582 Y50.5817 
G01 X-48.2957 Y47.9442 
G01 X-48.3723 Y47.8296 
G01 X-48.4251 Y47.7022 
G01 X-48.4520 Y47.5669 
G01 X-48.4520 Y37.6279 
G01 X-49.3119 Y36.7680 
G01 X-49.6300 Y36.7680 
G01 X-49.6669 Y36.8188 
G01 X-49.7952 Y36.9471 
G01 X-49.9420 Y37.0537 
G01 X-50.1036 Y37.1361 
G01 X-50.2761 Y37.1921 
G01 X-50.4553 Y37.2205 
G01 X-50.6367 Y37.2205 
G01 X-50.8159 Y37.1921 
G01 X-50.9884 Y37.1361 
G01 X-51.1500 Y37.0537 
G01 X-51.2968 Y36.9471 
G01 X-51.4251 Y36.8188 
G01 X-51.5317 Y36.6720 
G01 X-51.6141 Y36.5104 
G01 X-51.6701 Y36.3379 
G01 X-51.6985 Y36.1587 
G01 X-51.6985 Y35.9773 
G01 X-51.6701 Y35.7981 
G01 X-51.6141 Y35.6256 
G01 X-51.5317 Y35.4640 
G01 X-51.4251 Y35.3172 
G01 X-51.2968 Y35.1889 
G01 X-51.1500 Y35.0823 
G01 X-50.9884 Y34.9999 
G01 X-50.8159 Y34.9439 
G01 X-50.6367 Y34.9155 
G01 X-50.4553 Y34.9155 
G01 X-50.2761 Y34.9439 
G01 X-50.1036 Y34.9999 
G01 X-49.9420 Y35.0823 
G01 X-49.7952 Y35.1889 
G01 X-49.6669 Y35.3172 
G01 X-49.6300 Y35.3680 
G01 X-48.9531 Y35.3680 
G01 X-48.8178 Y35.3949 
G01 X-48.6904 Y35.4477 
G01 X-48.5758 Y35.5243 
G01 X-47.2083 Y36.8918 
G01 X-47.1317 Y37.0064 
G01 X-47.0789 Y37.1338 
G01 X-47.0520 Y37.2691 
G01 X-47.0520 Y47.2081 
G01 X-44.9220 Y49.3380 
G01 X-39.8160 Y49.3380 
G01 X-39.8160 Y46.4131 
G01 X-39.8160 Y46.2969 
G01 X-39.8160 Y25.5851 
G01 X-39.7891 Y25.4498 
G01 X-39.7363 Y25.3224 
G01 X-39.6597 Y25.2078 
G01 X-37.5302 Y23.0783 
G01 X-37.4156 Y23.0017 
G01 X-37.2882 Y22.9489 
G01 X-37.1529 Y22.9220 
G01 X-30.1260 Y22.9220 
G01 X-30.0891 Y22.8712 
G01 X-29.9608 Y22.7429 
G01 X-29.8140 Y22.6363 
G01 X-29.6524 Y22.5539 
G01 X-29.4799 Y22.4979 
G01 X-29.3007 Y22.4695 
G01 X-29.1193 Y22.4695 
G01 X-28.9401 Y22.4979 
G01 X-28.7676 Y22.5539 
G01 X-28.6060 Y22.6363 
G01 X-28.4592 Y22.7429 
G01 X-28.3309 Y22.8712 
G01 X-28.2243 Y23.0180 
G01 X-28.1419 Y23.1796 
G01 X-28.0859 Y23.3521 
G01 X-28.0575 Y23.5313 
G01 X-28.0575 Y23.7127 
G01 X-28.0859 Y23.8919 
G01 X-28.1419 Y24.0644 
G01 X-28.2243 Y24.2260 
G01 X-28.3309 Y24.3728 
G01 X-28.4592 Y24.5011 
G01 X-28.6060 Y24.6077 
G01 X-28.7676 Y24.6901 
G01 X-28.9401 Y24.7461 
G01 X-29.1193 Y24.7745 
G01 X-29.3007 Y24.7745 
G01 X-29.4799 Y24.7461 
G01 X-29.6524 Y24.6901 
G01 X-29.8140 Y24.6077 
G01 X-29.9608 Y24.5011 
G01 X-30.0891 Y24.3728 
G01 X-30.1260 Y24.3220 
G01 X-36.7940 Y24.3220 
G01 X-38.4160 Y25.9439 
G01 X-38.4160 Y45.9380 
G01 X-37.4290 Y46.9250 
G01 X-29.8720 Y46.9250 
G01 X-29.8351 Y46.8742 
G01 X-29.7068 Y46.7459 
G01 X-29.5600 Y46.6393 
G01 X-29.3984 Y46.5569 
G01 X-29.2259 Y46.5009 
G01 X-29.0467 Y46.4725 
G01 X-28.8653 Y46.4725 
G01 X-28.6861 Y46.5009 
G01 X-28.5136 Y46.5569 
G01 X-28.3520 Y46.6393 
G01 X-28.2052 Y46.7459 
G01 X-28.0769 Y46.8742 
G01 X-27.9703 Y47.0210 
G01 X-27.8879 Y47.1826 
G01 X-27.8319 Y47.3551 
G01 X-27.8035 Y47.5343 
G01 X-27.8035 Y47.7157 
G01 X-27.8319 Y47.8949 
G01 X-27.8879 Y48.0674 
G01 X-27.9703 Y48.2290 
G01 X-28.0769 Y48.3758 
G01 X-28.2052 Y48.5041 
G01 X-28.3520 Y48.6107 
G01 X-28.5136 Y48.6931 
G01 X-28.6861 Y48.7491 
G01 X-28.8653 Y48.7775 
G01 X-29.0467 Y48.7775 
G01 X-29.2259 Y48.7491 
G01 X-29.3984 Y48.6931 
G01 X-29.5600 Y48.6107 
G01 X-29.7068 Y48.5041 
G01 X-29.8351 Y48.3758 
G01 X-29.8720 Y48.3250 
G01 X-37.4290 Y48.3250 
G01 X-38.4160 Y49.3119 
G01 X-38.4160 Y75.4021 
G01 X-38.0641 Y75.7540 
G01 X-32.7841 Y75.7540 
G01 X-32.6488 Y75.7809 
G01 X-32.5214 Y75.8337 
G01 X-32.4068 Y75.9103 
G01 X-32.3093 Y76.0078 
G01 X-30.1200 Y78.1971 
G01 X-30.1200 Y77.0824 
G01 X-30.0835 Y76.8989 
G01 X-30.0119 Y76.7260 
G01 X-29.9079 Y76.5704 
G01 X-29.8700 Y76.5325 
G01 X-29.8700 Y71.3147 
G01 X-29.9417 Y71.2160 
G01 X-30.0241 Y71.0544 
G01 X-30.0801 Y70.8819 
G01 X-30.1085 Y70.7027 
G01 X-30.1085 Y70.5213 
G01 X-30.0801 Y70.3421 
G01 X-30.0241 Y70.1696 
G01 X-29.9417 Y70.0080 
G01 X-29.8351 Y69.8612 
G01 X-29.7068 Y69.7329 
G01 X-29.5600 Y69.6263 
G01 X-29.3984 Y69.5439 
G01 X-29.2259 Y69.4879 
G01 X-29.0467 Y69.4595 
G01 X-28.8653 Y69.4595 
G01 X-28.6861 Y69.4879 
G01 X-28.5136 Y69.5439 
G01 X-28.3520 Y69.6263 
G01 X-28.2052 Y69.7329 
G01 X-28.0769 Y69.8612 
G01 X-27.9703 Y70.0080 
G01 X-27.8879 Y70.1696 
G01 X-27.8319 Y70.3421 
G01 X-27.8035 Y70.5213 
G01 X-27.8035 Y70.7027 
G01 X-27.8319 Y70.8819 
G01 X-27.8879 Y71.0544 
G01 X-27.9703 Y71.2160 
G01 X-28.0769 Y71.3628 
G01 X-28.2052 Y71.4911 
G01 X-28.3520 Y71.5977 
G01 X-28.4700 Y71.6578 
G01 X-28.4700 Y75.1325 
G01 X-24.2276 Y70.8901 
G01 X-24.0720 Y70.7861 
G01 X-23.8991 Y70.7145 
G01 X-23.7156 Y70.6780 
G01 X-20.3105 Y70.6780 
G01 X-20.1313 Y70.6154 
G01 X-19.9699 Y70.5898 
G01 X-18.1301 Y70.5898 
G01 X-17.9687 Y70.6154 
G01 X-17.8133 Y70.6659 
G01 X-17.6677 Y70.7400 
G01 X-17.5355 Y70.8361 
G01 X-17.4199 Y70.9517 
G00 Z5.0000  
G00 X-28.2052 Y68.9511 
G01 Z-0.0250 F50    
G01 X-28.3520 Y69.0577 F50    
G01 X-28.5136 Y69.1401 
G01 X-28.6861 Y69.1961 
G01 X-28.8653 Y69.2245 
G01 X-29.0467 Y69.2245 
G01 X-29.2259 Y69.1961 
G01 X-29.3984 Y69.1401 
G01 X-29.5600 Y69.0577 
G01 X-29.7068 Y68.9511 
G01 X-29.8351 Y68.8228 
G01 X-29.8720 Y68.7720 
G01 X-35.3494 Y68.7720 
G01 X-35.4126 Y68.8590 
G01 X-35.5470 Y68.9934 
G01 X-35.7009 Y69.1052 
G01 X-35.8703 Y69.1915 
G01 X-36.0511 Y69.2503 
G01 X-36.2389 Y69.2800 
G01 X-36.4291 Y69.2800 
G01 X-36.6169 Y69.2503 
G01 X-36.7977 Y69.1915 
G01 X-36.9671 Y69.1052 
G01 X-37.1210 Y68.9934 
G01 X-37.2554 Y68.8590 
G01 X-37.3672 Y68.7051 
G01 X-37.4535 Y68.5357 
G01 X-37.5123 Y68.3549 
G01 X-37.5420 Y68.1671 
G01 X-37.5420 Y67.9769 
G01 X-37.5123 Y67.7891 
G01 X-37.4535 Y67.6083 
G01 X-37.3672 Y67.4389 
G01 X-37.2554 Y67.2850 
G01 X-37.1210 Y67.1506 
G01 X-36.9671 Y67.0388 
G01 X-36.7977 Y66.9525 
G01 X-36.6169 Y66.8937 
G01 X-36.4291 Y66.8640 
G01 X-36.2389 Y66.8640 
G01 X-36.0511 Y66.8937 
G01 X-35.8703 Y66.9525 
G01 X-35.7009 Y67.0388 
G01 X-35.5470 Y67.1506 
G01 X-35.4126 Y67.2850 
G01 X-35.3494 Y67.3720 
G01 X-29.8720 Y67.3720 
G01 X-29.8351 Y67.3212 
G01 X-29.7068 Y67.1929 
G01 X-29.5600 Y67.0863 
G01 X-29.3984 Y67.0039 
G01 X-29.2259 Y66.9479 
G01 X-29.0467 Y66.9195 
G01 X-28.8653 Y66.9195 
G01 X-28.6861 Y66.9479 
G01 X-28.5136 Y67.0039 
G01 X-28.3520 Y67.0863 
G01 X-28.2052 Y67.1929 
G01 X-28.0769 Y67.3212 
G01 X-27.9703 Y67.4680 
G01 X-27.8879 Y67.6296 
G01 X-27.8319 Y67.8021 
G01 X-27.8035 Y67.9813 
G01 X-27.8035 Y68.1627 
G01 X-27.8319 Y68.3419 
G01 X-27.8879 Y68.5144 
G01 X-27.9703 Y68.6760 
G01 X-28.0769 Y68.8228 
G01 X-28.2052 Y68.9511 
G00 Z5.0000  
G00 X-28.2052 Y56.2511 
G01 Z-0.0250 F50    
G01 X-28.3520 Y56.3577 F50    
G01 X-28.5136 Y56.4401 
G01 X-28.6861 Y56.4961 
G01 X-28.8653 Y56.5245 
G01 X-29.0467 Y56.5245 
G01 X-29.2259 Y56.4961 
G01 X-29.3984 Y56.4401 
G01 X-29.5600 Y56.3577 
G01 X-29.7068 Y56.2511 
G01 X-29.8351 Y56.1228 
G01 X-29.8720 Y56.0720 
G01 X-30.9658 Y56.0720 
G01 X-30.9658 Y56.2919 
G01 X-30.9914 Y56.4533 
G01 X-31.0419 Y56.6087 
G01 X-31.1161 Y56.7543 
G01 X-31.2121 Y56.8865 
G01 X-31.3277 Y57.0021 
G01 X-31.4599 Y57.0981 
G01 X-31.6055 Y57.1723 
G01 X-31.7609 Y57.2228 
G01 X-31.9223 Y57.2484 
G01 X-32.0857 Y57.2484 
G01 X-32.2471 Y57.2228 
G01 X-32.4025 Y57.1723 
G01 X-32.5481 Y57.0981 
G01 X-32.6803 Y57.0021 
G01 X-32.7959 Y56.8865 
G01 X-32.8919 Y56.7543 
G01 X-32.9661 Y56.6087 
G01 X-33.0166 Y56.4533 
G01 X-33.0422 Y56.2919 
G01 X-33.0422 Y54.4521 
G01 X-33.0166 Y54.2907 
G01 X-32.9661 Y54.1353 
G01 X-32.8919 Y53.9897 
G01 X-32.7959 Y53.8575 
G01 X-32.6803 Y53.7419 
G01 X-32.5481 Y53.6459 
G01 X-32.4025 Y53.5717 
G01 X-32.2471 Y53.5212 
G01 X-32.0857 Y53.4956 
G01 X-31.9223 Y53.4956 
G01 X-31.7609 Y53.5212 
G01 X-31.6055 Y53.5717 
G01 X-31.4599 Y53.6459 
G01 X-31.3277 Y53.7419 
G01 X-31.2121 Y53.8575 
G01 X-31.1161 Y53.9897 
G01 X-31.0419 Y54.1353 
G01 X-30.9914 Y54.2907 
G01 X-30.9658 Y54.4521 
G01 X-30.9658 Y54.6720 
G01 X-29.8720 Y54.6720 
G01 X-29.8351 Y54.6212 
G01 X-29.7068 Y54.4929 
G01 X-29.5600 Y54.3863 
G01 X-29.3984 Y54.3039 
G01 X-29.2259 Y54.2479 
G01 X-29.0467 Y54.2195 
G01 X-28.8653 Y54.2195 
G01 X-28.6861 Y54.2479 
G01 X-28.5136 Y54.3039 
G01 X-28.3520 Y54.3863 
G01 X-28.2052 Y54.4929 
G01 X-28.0769 Y54.6212 
G01 X-28.0400 Y54.6720 
G01 X-26.4519 Y54.6720 
G01 X-26.0173 Y54.2373 
G01 X-26.1081 Y54.0687 
G01 X-26.1586 Y53.9133 
G01 X-26.1842 Y53.7519 
G01 X-26.1842 Y51.9121 
G01 X-26.1586 Y51.7507 
G01 X-26.1081 Y51.5953 
G01 X-26.0339 Y51.4497 
G01 X-25.9379 Y51.3175 
G01 X-25.8223 Y51.2019 
G01 X-25.6901 Y51.1058 
G01 X-25.5445 Y51.0317 
G01 X-25.3891 Y50.9812 
G01 X-25.2277 Y50.9556 
G01 X-25.0643 Y50.9556 
G01 X-24.9029 Y50.9812 
G01 X-24.7475 Y51.0317 
G01 X-24.6019 Y51.1058 
G01 X-24.4697 Y51.2019 
G01 X-24.3541 Y51.3175 
G01 X-24.2581 Y51.4497 
G01 X-24.1839 Y51.5953 
G01 X-24.1334 Y51.7507 
G01 X-24.1078 Y51.9121 
G01 X-24.1078 Y53.7519 
G01 X-24.1334 Y53.9133 
G01 X-24.1839 Y54.0687 
G01 X-23.3321 Y54.9260 
G01 X-20.5012 Y54.9260 
G01 X-20.4261 Y54.8227 
G01 X-20.3105 Y54.7071 
G01 X-20.1783 Y54.6110 
G01 X-20.0327 Y54.5369 
G01 X-19.8773 Y54.4864 
G01 X-19.7159 Y54.4608 
G01 X-17.8761 Y54.4608 
G01 X-17.7147 Y54.4864 
G01 X-17.5593 Y54.5369 
G01 X-17.0305 Y54.5490 
G01 X-16.4440 Y53.9625 
G01 X-16.4440 Y50.6855 
G01 X-18.1035 Y49.0260 
G01 X-19.7159 Y49.0260 
G01 X-19.8773 Y49.0005 
G01 X-20.0327 Y48.9500 
G01 X-20.1783 Y48.8758 
G01 X-20.3105 Y48.7797 
G01 X-20.4261 Y48.6642 
G01 X-20.5221 Y48.5320 
G01 X-20.5963 Y48.3864 
G01 X-20.6468 Y48.2310 
G01 X-20.6724 Y48.0696 
G01 X-20.6724 Y47.9061 
G01 X-20.6468 Y47.7447 
G01 X-20.5963 Y47.5893 
G01 X-20.5221 Y47.4437 
G01 X-20.4261 Y47.3115 
G01 X-20.3105 Y47.1959 
G01 X-20.1783 Y47.0999 
G01 X-20.0327 Y47.0257 
G01 X-19.8773 Y46.9752 
G01 X-19.7159 Y46.9496 
G01 X-17.8761 Y46.9496 
G01 X-17.7147 Y46.9752 
G01 X-17.5593 Y47.0257 
G01 X-17.4137 Y47.0999 
G01 X-17.3530 Y47.1440 
G01 X-17.1926 Y47.2499 
G01 X-14.7561 Y49.6864 
G01 X-14.6521 Y49.8420 
G01 X-14.5805 Y50.0149 
G01 X-14.5440 Y50.1984 
G01 X-14.5440 Y54.4496 
G01 X-14.5805 Y54.6331 
G01 X-14.6521 Y54.8060 
G01 X-14.7561 Y54.9616 
G01 X-14.8884 Y55.0939 
G01 X-15.8991 Y56.1046 
G01 X-16.0314 Y56.2369 
G01 X-16.1870 Y56.3409 
G01 X-16.3599 Y56.4125 
G01 X-16.5434 Y56.4490 
G01 X-17.5355 Y56.4490 
G01 X-17.7147 Y56.5116 
G01 X-17.8761 Y56.5372 
G01 X-19.7159 Y56.5372 
G01 X-19.8773 Y56.5116 
G01 X-20.0327 Y56.4611 
G01 X-20.1783 Y56.3869 
G01 X-20.2622 Y56.3260 
G01 X-24.4529 Y56.3260 
G01 X-24.5882 Y56.2991 
G01 X-24.7156 Y56.2463 
G01 X-24.8302 Y56.1697 
G01 X-24.9279 Y56.0720 
G01 X-28.0400 Y56.0720 
G01 X-28.0769 Y56.1228 
G01 X-28.2052 Y56.2511 
G00 Z5.0000  
G00 X-28.2052 Y53.7111 
G01 Z-0.0250 F50    
G01 X-28.3520 Y53.8177 F50    
G01 X-28.5136 Y53.9001 
G01 X-28.6861 Y53.9561 
G01 X-28.8653 Y53.9845 
G01 X-29.0467 Y53.9845 
G01 X-29.2259 Y53.9561 
G01 X-29.3984 Y53.9001 
G01 X-29.5600 Y53.8177 
G01 X-29.7068 Y53.7111 
G01 X-29.8351 Y53.5828 
G01 X-29.9417 Y53.4360 
G01 X-30.0241 Y53.2744 
G01 X-30.0801 Y53.1019 
G01 X-30.1085 Y52.9227 
G01 X-30.1085 Y52.7413 
G01 X-30.0801 Y52.5621 
G01 X-30.0241 Y52.3896 
G01 X-29.9755 Y52.2944 
G01 X-30.2619 Y52.0080 
G01 X-32.9841 Y52.0080 
G01 X-34.0980 Y53.1219 
G01 X-34.0980 Y53.7656 
G01 X-34.0061 Y53.8575 
G01 X-33.9100 Y53.9897 
G01 X-33.8359 Y54.1353 
G01 X-33.7854 Y54.2907 
G01 X-33.7598 Y54.4521 
G01 X-33.7598 Y56.2919 
G01 X-33.7854 Y56.4533 
G01 X-33.8359 Y56.6087 
G01 X-33.9100 Y56.7543 
G01 X-34.0061 Y56.8865 
G01 X-34.1217 Y57.0021 
G01 X-34.2539 Y57.0981 
G01 X-34.3995 Y57.1723 
G01 X-34.5549 Y57.2228 
G01 X-34.7163 Y57.2484 
G01 X-34.8797 Y57.2484 
G01 X-35.0411 Y57.2228 
G01 X-35.1965 Y57.1723 
G01 X-35.3421 Y57.0981 
G01 X-35.4743 Y57.0021 
G01 X-35.5899 Y56.8865 
G01 X-35.6859 Y56.7543 
G01 X-35.7601 Y56.6087 
G01 X-35.8106 Y56.4533 
G01 X-35.8362 Y56.2919 
G01 X-35.8362 Y54.4521 
G01 X-35.8106 Y54.2907 
G01 X-35.7601 Y54.1353 
G01 X-35.6859 Y53.9897 
G01 X-35.5899 Y53.8575 
G01 X-35.4980 Y53.7656 
G01 X-35.4980 Y52.7631 
G01 X-35.4711 Y52.6278 
G01 X-35.4183 Y52.5004 
G01 X-35.3417 Y52.3858 
G01 X-33.7202 Y50.7643 
G01 X-33.6056 Y50.6877 
G01 X-33.4782 Y50.6349 
G01 X-33.3429 Y50.6080 
G01 X-29.5995 Y50.6080 
G01 X-27.9159 Y48.9244 
G01 X-27.7836 Y48.7921 
G01 X-27.6280 Y48.6881 
G01 X-27.4551 Y48.6165 
G01 X-27.2716 Y48.5800 
G01 X-25.7935 Y48.5800 
G01 X-23.9736 Y46.7601 
G01 X-21.5606 Y44.3471 
G01 X-21.4050 Y44.2431 
G01 X-21.2321 Y44.1715 
G01 X-21.0485 Y44.1350 
G01 X-20.0565 Y44.1350 
G01 X-19.8773 Y44.0723 
G01 X-19.7159 Y44.0468 
G01 X-17.8761 Y44.0468 
G01 X-17.7147 Y44.0723 
G01 X-17.5593 Y44.1228 
G01 X-17.4137 Y44.1970 
G01 X-17.2815 Y44.2931 
G01 X-17.1659 Y44.4086 
G01 X-17.0698 Y44.5408 
G01 X-16.9957 Y44.6865 
G01 X-16.9452 Y44.8419 
G01 X-16.9196 Y45.0033 
G01 X-16.9196 Y45.1667 
G01 X-16.9452 Y45.3281 
G01 X-16.9957 Y45.4835 
G01 X-17.0698 Y45.6291 
G01 X-17.1659 Y45.7613 
G01 X-17.2815 Y45.8769 
G01 X-17.4137 Y45.9729 
G01 X-17.5593 Y46.0471 
G01 X-17.7147 Y46.0976 
G01 X-17.8761 Y46.1232 
G01 X-19.7159 Y46.1232 
G01 X-19.8773 Y46.0976 
G01 X-20.0327 Y46.0471 
G01 X-20.5615 Y46.0350 
G01 X-22.4180 Y47.8915 
G01 X-22.4180 Y48.8825 
G01 X-22.3761 Y48.9244 
G01 X-21.4924 Y49.8081 
G01 X-21.3601 Y49.9404 
G01 X-21.2561 Y50.0960 
G01 X-21.1845 Y50.2689 
G01 X-21.1480 Y50.4524 
G01 X-21.1480 Y51.5010 
G01 X-20.0565 Y51.5010 
G01 X-19.8773 Y51.4384 
G01 X-19.7159 Y51.4128 
G01 X-17.8761 Y51.4128 
G01 X-17.7147 Y51.4384 
G01 X-17.5593 Y51.4889 
G01 X-17.4137 Y51.5630 
G01 X-17.2815 Y51.6591 
G01 X-17.1659 Y51.7747 
G01 X-17.0698 Y51.9069 
G01 X-16.9957 Y52.0525 
G01 X-16.9452 Y52.2079 
G01 X-16.9196 Y52.3693 
G01 X-16.9196 Y52.5327 
G01 X-16.9452 Y52.6941 
G01 X-16.9957 Y52.8495 
G01 X-17.0698 Y52.9951 
G01 X-17.1659 Y53.1273 
G01 X-17.2815 Y53.2429 
G01 X-17.4137 Y53.3389 
G01 X-17.5593 Y53.4131 
G01 X-17.7147 Y53.4636 
G01 X-17.8761 Y53.4892 
G01 X-19.7159 Y53.4892 
G01 X-19.8773 Y53.4636 
G01 X-20.0327 Y53.4131 
G01 X-21.0598 Y53.4010 
G01 X-21.0598 Y53.7519 
G01 X-21.0854 Y53.9133 
G01 X-21.1359 Y54.0687 
G01 X-21.2100 Y54.2143 
G01 X-21.3061 Y54.3465 
G01 X-21.4217 Y54.4621 
G01 X-21.5539 Y54.5581 
G01 X-21.6995 Y54.6323 
G01 X-21.8549 Y54.6828 
G01 X-22.0163 Y54.7084 
G01 X-22.1797 Y54.7084 
G01 X-22.3411 Y54.6828 
G01 X-22.4965 Y54.6323 
G01 X-22.6421 Y54.5581 
G01 X-22.7743 Y54.4621 
G01 X-22.8899 Y54.3465 
G01 X-22.9859 Y54.2143 
G01 X-23.0601 Y54.0687 
G01 X-23.1106 Y53.9133 
G01 X-23.1362 Y53.7519 
G01 X-23.1362 Y51.9121 
G01 X-23.1106 Y51.7507 
G01 X-23.0601 Y51.5953 
G01 X-23.0480 Y50.9395 
G01 X-23.5075 Y50.4800 
G01 X-26.7845 Y50.4800 
G01 X-28.0060 Y51.7015 
G01 X-28.0060 Y52.1788 
G01 X-27.9703 Y52.2280 
G01 X-27.8879 Y52.3896 
G01 X-27.8319 Y52.5621 
G01 X-27.8035 Y52.7413 
G01 X-27.8035 Y52.9227 
G01 X-27.8319 Y53.1019 
G01 X-27.8879 Y53.2744 
G01 X-27.9703 Y53.4360 
G01 X-28.0769 Y53.5828 
G01 X-28.2052 Y53.7111 
G00 Z5.0000  
G00 X-28.2052 Y45.9641 
G01 Z-0.0250 F50    
G01 X-28.3520 Y46.0707 F50    
G01 X-28.5136 Y46.1531 
G01 X-28.6861 Y46.2091 
G01 X-28.8653 Y46.2375 
G01 X-29.0467 Y46.2375 
G01 X-29.2259 Y46.2091 
G01 X-29.3984 Y46.1531 
G01 X-29.5600 Y46.0707 
G01 X-29.7068 Y45.9641 
G01 X-29.8351 Y45.8358 
G01 X-29.8720 Y45.7850 
G01 X-35.6946 Y45.7850 
G01 X-35.7890 Y45.8794 
G01 X-35.9429 Y45.9912 
G01 X-36.1123 Y46.0775 
G01 X-36.2931 Y46.1363 
G01 X-36.4809 Y46.1660 
G01 X-36.6711 Y46.1660 
G01 X-36.8589 Y46.1363 
G01 X-37.0397 Y46.0775 
G01 X-37.2091 Y45.9912 
G01 X-37.3630 Y45.8794 
G01 X-37.4974 Y45.7450 
G01 X-37.6092 Y45.5911 
G01 X-37.6955 Y45.4217 
G01 X-37.7543 Y45.2409 
G01 X-37.7840 Y45.0531 
G01 X-37.7840 Y44.8629 
G01 X-37.7543 Y44.6751 
G01 X-37.6955 Y44.4943 
G01 X-37.6092 Y44.3249 
G01 X-37.4974 Y44.1710 
G01 X-37.3630 Y44.0366 
G01 X-37.2091 Y43.9248 
G01 X-37.0397 Y43.8385 
G01 X-36.8589 Y43.7797 
G01 X-36.6711 Y43.7500 
G01 X-36.4809 Y43.7500 
G01 X-36.2931 Y43.7797 
G01 X-36.1123 Y43.8385 
G01 X-35.9429 Y43.9248 
G01 X-35.7890 Y44.0366 
G01 X-35.6546 Y44.1710 
G01 X-35.5428 Y44.3249 
G01 X-35.5122 Y44.3850 
G01 X-29.8720 Y44.3850 
G01 X-29.8351 Y44.3342 
G01 X-29.7068 Y44.2059 
G01 X-29.5600 Y44.0993 
G01 X-29.3984 Y44.0169 
G01 X-29.2259 Y43.9609 
G01 X-29.0467 Y43.9325 
G01 X-28.8653 Y43.9325 
G01 X-28.6861 Y43.9609 
G01 X-28.5136 Y44.0169 
G01 X-28.3520 Y44.0993 
G01 X-28.2052 Y44.2059 
G01 X-28.0769 Y44.3342 
G01 X-27.9703 Y44.4810 
G01 X-27.8879 Y44.6426 
G01 X-27.8319 Y44.8151 
G01 X-27.8035 Y44.9943 
G01 X-27.8035 Y45.1757 
G01 X-27.8319 Y45.3549 
G01 X-27.8879 Y45.5274 
G01 X-27.9703 Y45.6890 
G01 X-28.0769 Y45.8358 
G01 X-28.2052 Y45.9641 
G00 Z5.0000  
G00 X-28.2052 Y33.2641 
G01 Z-0.0250 F50    
G01 X-28.3520 Y33.3707 F50    
G01 X-28.5136 Y33.4531 
G01 X-28.6861 Y33.5091 
G01 X-28.8653 Y33.5375 
G01 X-29.0467 Y33.5375 
G01 X-29.2259 Y33.5091 
G01 X-29.3984 Y33.4531 
G01 X-29.5600 Y33.3707 
G01 X-29.7068 Y33.2641 
G01 X-29.8351 Y33.1358 
G01 X-29.8720 Y33.0850 
G01 X-30.9295 Y33.0850 
G01 X-30.9295 Y33.3049 
G01 X-30.9551 Y33.4663 
G01 X-31.0056 Y33.6217 
G01 X-31.0798 Y33.7673 
G01 X-31.1758 Y33.8995 
G01 X-31.2914 Y34.0151 
G01 X-31.4236 Y34.1111 
G01 X-31.5692 Y34.1853 
G01 X-31.7246 Y34.2358 
G01 X-31.8860 Y34.2614 
G01 X-32.0494 Y34.2614 
G01 X-32.2108 Y34.2358 
G01 X-32.3662 Y34.1853 
G01 X-32.5118 Y34.1111 
G01 X-32.6440 Y34.0151 
G01 X-32.7596 Y33.8995 
G01 X-32.8556 Y33.7673 
G01 X-32.9298 Y33.6217 
G01 X-32.9803 Y33.4663 
G01 X-33.0059 Y33.3049 
G01 X-33.0059 Y31.4651 
G01 X-32.9803 Y31.3037 
G01 X-32.9298 Y31.1483 
G01 X-32.8556 Y31.0027 
G01 X-32.7596 Y30.8705 
G01 X-32.6440 Y30.7549 
G01 X-32.5118 Y30.6589 
G01 X-32.3662 Y30.5847 
G01 X-32.2108 Y30.5342 
G01 X-32.0494 Y30.5086 
G01 X-31.8860 Y30.5086 
G01 X-31.7246 Y30.5342 
G01 X-31.5692 Y30.5847 
G01 X-31.4236 Y30.6589 
G01 X-31.2914 Y30.7549 
G01 X-31.1758 Y30.8705 
G01 X-31.0798 Y31.0027 
G01 X-31.0056 Y31.1483 
G01 X-30.9551 Y31.3037 
G01 X-30.9295 Y31.4651 
G01 X-30.9295 Y31.6850 
G01 X-29.8720 Y31.6850 
G01 X-29.8351 Y31.6342 
G01 X-29.7068 Y31.5059 
G01 X-29.5600 Y31.3993 
G01 X-29.3984 Y31.3169 
G01 X-29.2259 Y31.2609 
G01 X-29.0467 Y31.2325 
G01 X-28.8653 Y31.2325 
G01 X-28.6861 Y31.2609 
G01 X-28.5136 Y31.3169 
G01 X-28.3520 Y31.3993 
G01 X-28.2052 Y31.5059 
G01 X-28.0769 Y31.6342 
G01 X-28.0400 Y31.6850 
G01 X-27.8852 Y31.6850 
G01 X-27.4065 Y31.2063 
G01 X-26.0935 Y29.8932 
G01 X-26.0935 Y28.9251 
G01 X-26.0679 Y28.7637 
G01 X-26.0174 Y28.6083 
G01 X-25.9432 Y28.4627 
G01 X-25.8472 Y28.3305 
G01 X-25.7316 Y28.2149 
G01 X-25.5994 Y28.1188 
G01 X-25.4538 Y28.0447 
G01 X-25.2984 Y27.9942 
G01 X-25.1370 Y27.9686 
G01 X-24.9736 Y27.9686 
G01 X-24.8122 Y27.9942 
G01 X-24.6567 Y28.0447 
G01 X-24.5111 Y28.1188 
G01 X-24.3789 Y28.2149 
G01 X-24.2634 Y28.3305 
G01 X-24.1673 Y28.4627 
G01 X-24.0931 Y28.6083 
G01 X-24.0426 Y28.7637 
G01 X-24.0171 Y28.9251 
G01 X-24.0171 Y30.7649 
G01 X-24.0426 Y30.9263 
G01 X-24.0895 Y31.0705 
G01 X-22.8241 Y32.3360 
G01 X-21.6419 Y32.3360 
G01 X-20.7158 Y31.4098 
G01 X-20.6011 Y31.3332 
G01 X-20.4737 Y31.2805 
G01 X-20.4183 Y31.2694 
G01 X-20.3105 Y31.1617 
G01 X-20.1783 Y31.0656 
G01 X-20.0327 Y30.9914 
G01 X-19.8773 Y30.9409 
G01 X-19.7159 Y30.9154 
G01 X-17.8761 Y30.9154 
G01 X-17.7147 Y30.9409 
G01 X-17.5593 Y30.9914 
G01 X-17.4137 Y31.0656 
G01 X-17.2815 Y31.1617 
G01 X-17.1896 Y31.2536 
G01 X-17.0035 Y31.2536 
G01 X-15.6860 Y29.9361 
G01 X-15.6860 Y27.5949 
G01 X-19.1287 Y24.1522 
G01 X-20.0969 Y24.1522 
G01 X-20.2583 Y24.1266 
G01 X-20.4137 Y24.0761 
G01 X-20.5593 Y24.0019 
G01 X-20.6915 Y23.9059 
G01 X-20.8071 Y23.7903 
G01 X-20.9031 Y23.6581 
G01 X-20.9773 Y23.5125 
G01 X-21.0278 Y23.3571 
G01 X-21.0534 Y23.1957 
G01 X-21.0534 Y23.0323 
G01 X-21.0278 Y22.8709 
G01 X-20.9773 Y22.7155 
G01 X-20.9031 Y22.5699 
G01 X-20.8071 Y22.4377 
G01 X-20.6915 Y22.3221 
G01 X-20.5593 Y22.2261 
G01 X-20.4137 Y22.1519 
G01 X-20.2583 Y22.1014 
G01 X-20.0969 Y22.0758 
G01 X-18.2571 Y22.0758 
G01 X-18.0957 Y22.1014 
G01 X-17.9403 Y22.1519 
G01 X-17.7947 Y22.2261 
G01 X-17.6625 Y22.3221 
G01 X-17.5469 Y22.4377 
G01 X-17.4508 Y22.5699 
G01 X-17.3767 Y22.7155 
G01 X-17.3262 Y22.8709 
G01 X-17.3006 Y23.0323 
G01 X-17.3006 Y23.1957 
G01 X-17.3262 Y23.3571 
G01 X-17.3767 Y23.5125 
G01 X-17.4508 Y23.6581 
G01 X-17.5317 Y23.7694 
G01 X-14.5398 Y26.7613 
G01 X-14.4423 Y26.8588 
G01 X-14.3657 Y26.9734 
G01 X-14.3129 Y27.1008 
G01 X-14.2860 Y27.2361 
G01 X-14.2860 Y30.2949 
G01 X-14.3129 Y30.4302 
G01 X-14.3657 Y30.5576 
G01 X-14.4423 Y30.6722 
G01 X-14.5398 Y30.7697 
G01 X-16.1698 Y32.3998 
G01 X-16.2673 Y32.4973 
G01 X-16.3820 Y32.5739 
G01 X-16.5094 Y32.6267 
G01 X-16.6446 Y32.6536 
G01 X-17.1896 Y32.6536 
G01 X-17.2815 Y32.7455 
G01 X-17.4137 Y32.8415 
G01 X-17.5593 Y32.9157 
G01 X-17.7147 Y32.9662 
G01 X-17.8761 Y32.9918 
G01 X-19.7159 Y32.9918 
G01 X-19.8773 Y32.9662 
G01 X-20.0327 Y32.9157 
G01 X-20.1712 Y32.8451 
G01 X-20.8083 Y33.4822 
G01 X-20.9058 Y33.5797 
G01 X-21.0204 Y33.6563 
G01 X-21.1478 Y33.7091 
G01 X-21.2831 Y33.7360 
G01 X-23.9289 Y33.7360 
G01 X-24.0642 Y33.7091 
G01 X-24.1916 Y33.6563 
G01 X-24.3062 Y33.5797 
G01 X-24.8009 Y33.0850 
G01 X-28.0400 Y33.0850 
G01 X-28.0769 Y33.1358 
G01 X-28.2052 Y33.2641 
G00 Z5.0000  
G00 X-28.2052 Y30.7241 
G01 Z-0.0250 F50    
G01 X-28.3520 Y30.8307 F50    
G01 X-28.5136 Y30.9131 
G01 X-28.6861 Y30.9691 
G01 X-28.8653 Y30.9975 
G01 X-29.0467 Y30.9975 
G01 X-29.2259 Y30.9691 
G01 X-29.3984 Y30.9131 
G01 X-29.5600 Y30.8307 
G01 X-29.7068 Y30.7241 
G01 X-29.8351 Y30.5958 
G01 X-29.9417 Y30.4490 
G01 X-30.0241 Y30.2874 
G01 X-30.0801 Y30.1149 
G01 X-30.1085 Y29.9357 
G01 X-30.1085 Y29.7543 
G01 X-30.0987 Y29.6923 
G01 X-30.1349 Y29.6560 
G01 X-32.9841 Y29.6560 
G01 X-34.0436 Y30.7155 
G01 X-34.0436 Y30.7786 
G01 X-33.9517 Y30.8705 
G01 X-33.8556 Y31.0027 
G01 X-33.7814 Y31.1483 
G01 X-33.7309 Y31.3037 
G01 X-33.7054 Y31.4651 
G01 X-33.7054 Y33.3049 
G01 X-33.7309 Y33.4663 
G01 X-33.7814 Y33.6217 
G01 X-33.8556 Y33.7673 
G01 X-33.9517 Y33.8995 
G01 X-34.0672 Y34.0151 
G01 X-34.1994 Y34.1111 
G01 X-34.3450 Y34.1853 
G01 X-34.5004 Y34.2358 
G01 X-34.6619 Y34.2614 
G01 X-34.8253 Y34.2614 
G01 X-34.9867 Y34.2358 
G01 X-35.1421 Y34.1853 
G01 X-35.2877 Y34.1111 
G01 X-35.4199 Y34.0151 
G01 X-35.5355 Y33.8995 
G01 X-35.6315 Y33.7673 
G01 X-35.7057 Y33.6217 
G01 X-35.7562 Y33.4663 
G01 X-35.7818 Y33.3049 
G01 X-35.7818 Y31.4651 
G01 X-35.7562 Y31.3037 
G01 X-35.7057 Y31.1483 
G01 X-35.6315 Y31.0027 
G01 X-35.5355 Y30.8705 
G01 X-35.4436 Y30.7786 
G01 X-35.4436 Y30.3566 
G01 X-35.4167 Y30.2214 
G01 X-35.3639 Y30.0940 
G01 X-35.2873 Y29.9793 
G01 X-33.8177 Y28.5098 
G01 X-33.7202 Y28.4123 
G01 X-33.6056 Y28.3357 
G01 X-33.4782 Y28.2829 
G01 X-33.3429 Y28.2560 
G01 X-28.3860 Y28.2560 
G01 X-28.3860 Y27.3631 
G01 X-28.3591 Y27.2278 
G01 X-28.3063 Y27.1004 
G01 X-28.2297 Y26.9858 
G01 X-28.1322 Y26.8883 
G01 X-27.1162 Y25.8723 
G01 X-27.0016 Y25.7957 
G01 X-26.8742 Y25.7429 
G01 X-26.7389 Y25.7160 
G01 X-24.5760 Y25.7160 
G01 X-24.5760 Y23.2991 
G01 X-24.5491 Y23.1638 
G01 X-24.4963 Y23.0364 
G01 X-24.4197 Y22.9218 
G01 X-24.3222 Y22.8243 
G01 X-21.2742 Y19.7763 
G01 X-21.1596 Y19.6997 
G01 X-21.0322 Y19.6469 
G01 X-20.8969 Y19.6200 
G01 X-20.7834 Y19.6200 
G01 X-20.6915 Y19.5281 
G01 X-20.5593 Y19.4321 
G01 X-20.4137 Y19.3579 
G01 X-20.2583 Y19.3074 
G01 X-20.0969 Y19.2818 
G01 X-18.2571 Y19.2818 
G01 X-18.0957 Y19.3074 
G01 X-17.9403 Y19.3579 
G01 X-17.7947 Y19.4321 
G01 X-17.6625 Y19.5281 
G01 X-17.5469 Y19.6437 
G01 X-17.4508 Y19.7759 
G01 X-17.3767 Y19.9215 
G01 X-17.3262 Y20.0769 
G01 X-17.3006 Y20.2383 
G01 X-17.3006 Y20.4017 
G01 X-17.3262 Y20.5631 
G01 X-17.3767 Y20.7185 
G01 X-17.4508 Y20.8641 
G01 X-17.5469 Y20.9963 
G01 X-17.6625 Y21.1119 
G01 X-17.7947 Y21.2079 
G01 X-17.9403 Y21.2821 
G01 X-18.0957 Y21.3326 
G01 X-18.2571 Y21.3582 
G01 X-20.0969 Y21.3582 
G01 X-20.2583 Y21.3326 
G01 X-20.4137 Y21.2821 
G01 X-20.5593 Y21.2079 
G01 X-20.6559 Y21.1378 
G01 X-23.1760 Y23.6579 
G01 X-23.1760 Y25.7405 
G01 X-23.0364 Y25.7957 
G01 X-22.9218 Y25.8723 
G01 X-21.7062 Y27.0879 
G01 X-20.9190 Y27.8750 
G01 X-20.4024 Y27.8750 
G01 X-20.3105 Y27.7831 
G01 X-20.1783 Y27.6870 
G01 X-20.0327 Y27.6129 
G01 X-19.8773 Y27.5624 
G01 X-19.7159 Y27.5368 
G01 X-17.8761 Y27.5368 
G01 X-17.7147 Y27.5624 
G01 X-17.5593 Y27.6129 
G01 X-17.4137 Y27.6870 
G01 X-17.2815 Y27.7831 
G01 X-17.1659 Y27.8987 
G01 X-17.0698 Y28.0309 
G01 X-16.9957 Y28.1765 
G01 X-16.9452 Y28.3319 
G01 X-16.9196 Y28.4933 
G01 X-16.9196 Y28.6567 
G01 X-16.9452 Y28.8181 
G01 X-16.9957 Y28.9735 
G01 X-17.0698 Y29.1191 
G01 X-17.1659 Y29.2513 
G01 X-17.2815 Y29.3669 
G01 X-17.4137 Y29.4629 
G01 X-17.5593 Y29.5371 
G01 X-17.7147 Y29.5876 
G01 X-17.8761 Y29.6132 
G01 X-19.7159 Y29.6132 
G01 X-19.8773 Y29.5876 
G01 X-20.0327 Y29.5371 
G01 X-20.1783 Y29.4629 
G01 X-20.3105 Y29.3669 
G01 X-20.4024 Y29.2750 
G01 X-20.5925 Y29.2750 
G01 X-21.1142 Y29.7967 
G01 X-21.1142 Y30.7649 
G01 X-21.1398 Y30.9263 
G01 X-21.1903 Y31.0817 
G01 X-21.2645 Y31.2273 
G01 X-21.3605 Y31.3595 
G01 X-21.4761 Y31.4751 
G01 X-21.6083 Y31.5711 
G01 X-21.7539 Y31.6453 
G01 X-21.9093 Y31.6958 
G01 X-22.0707 Y31.7214 
G01 X-22.2341 Y31.7214 
G01 X-22.3955 Y31.6958 
G01 X-22.5510 Y31.6453 
G01 X-22.6966 Y31.5711 
G01 X-22.8288 Y31.4751 
G01 X-22.9443 Y31.3595 
G01 X-23.0404 Y31.2273 
G01 X-23.1146 Y31.0817 
G01 X-23.1651 Y30.9263 
G01 X-23.1906 Y30.7649 
G01 X-23.1906 Y28.9251 
G01 X-23.1651 Y28.7637 
G01 X-23.1146 Y28.6083 
G01 X-23.0404 Y28.4627 
G01 X-22.9443 Y28.3305 
G01 X-22.8524 Y28.2386 
G01 X-22.8524 Y27.9215 
G01 X-23.6579 Y27.1160 
G01 X-26.3801 Y27.1160 
G01 X-26.9860 Y27.7219 
G01 X-26.9860 Y28.6439 
G01 X-27.0129 Y28.7792 
G01 X-27.0657 Y28.9066 
G01 X-27.1423 Y29.0212 
G01 X-27.2398 Y29.1187 
G01 X-27.5868 Y29.4657 
G01 X-27.6843 Y29.5632 
G01 X-27.8133 Y29.6923 
G01 X-27.8035 Y29.7543 
G01 X-27.8035 Y29.9357 
G01 X-27.8319 Y30.1149 
G01 X-27.8879 Y30.2874 
G01 X-27.9703 Y30.4490 
G01 X-28.0769 Y30.5958 
G01 X-28.2052 Y30.7241 
G00 Z5.0000  
G00 X-28.4592 Y21.9611 
G01 Z-0.0250 F50    
G01 X-28.6060 Y22.0677 F50    
G01 X-28.7676 Y22.1501 
G01 X-28.9401 Y22.2061 
G01 X-29.1193 Y22.2345 
G01 X-29.3007 Y22.2345 
G01 X-29.4799 Y22.2061 
G01 X-29.6524 Y22.1501 
G01 X-29.8140 Y22.0677 
G01 X-29.9608 Y21.9611 
G01 X-30.0891 Y21.8328 
G01 X-30.1260 Y21.7820 
G01 X-36.3534 Y21.7820 
G01 X-36.4166 Y21.8690 
G01 X-36.5510 Y22.0034 
G01 X-36.7049 Y22.1152 
G01 X-36.8743 Y22.2015 
G01 X-37.0551 Y22.2603 
G01 X-37.2429 Y22.2900 
G01 X-37.4331 Y22.2900 
G01 X-37.6209 Y22.2603 
G01 X-37.8017 Y22.2015 
G01 X-37.9711 Y22.1152 
G01 X-38.1250 Y22.0034 
G01 X-38.2594 Y21.8690 
G01 X-38.3712 Y21.7151 
G01 X-38.4575 Y21.5457 
G01 X-38.5163 Y21.3649 
G01 X-38.5460 Y21.1771 
G01 X-38.5460 Y20.9869 
G01 X-38.5163 Y20.7991 
G01 X-38.4575 Y20.6183 
G01 X-38.3712 Y20.4489 
G01 X-38.2594 Y20.2950 
G01 X-38.1250 Y20.1606 
G01 X-37.9711 Y20.0488 
G01 X-37.8017 Y19.9625 
G01 X-37.6209 Y19.9037 
G01 X-37.4331 Y19.8740 
G01 X-37.2429 Y19.8740 
G01 X-37.0551 Y19.9037 
G01 X-36.8743 Y19.9625 
G01 X-36.7049 Y20.0488 
G01 X-36.5510 Y20.1606 
G01 X-36.4166 Y20.2950 
G01 X-36.3534 Y20.3820 
G01 X-30.1260 Y20.3820 
G01 X-30.0891 Y20.3312 
G01 X-29.9608 Y20.2029 
G01 X-29.8140 Y20.0963 
G01 X-29.6524 Y20.0139 
G01 X-29.4799 Y19.9579 
G01 X-29.3007 Y19.9295 
G01 X-29.1193 Y19.9295 
G01 X-28.9401 Y19.9579 
G01 X-28.7676 Y20.0139 
G01 X-28.6060 Y20.0963 
G01 X-28.4592 Y20.2029 
G01 X-28.3309 Y20.3312 
G01 X-28.2243 Y20.4780 
G01 X-28.1419 Y20.6396 
G01 X-28.0859 Y20.8121 
G01 X-28.0575 Y20.9913 
G01 X-28.0575 Y21.1727 
G01 X-28.0859 Y21.3519 
G01 X-28.1419 Y21.5244 
G01 X-28.2243 Y21.6860 
G01 X-28.3309 Y21.8328 
G01 X-28.4592 Y21.9611 
G00 Z5.0000  
G00 X-28.4592 Y9.2611  
G01 Z-0.0250 F50    
G01 X-28.6060 Y9.3677  F50    
G01 X-28.7676 Y9.4501  
G01 X-28.9401 Y9.5061  
G01 X-29.1193 Y9.5345  
G01 X-29.3007 Y9.5345  
G01 X-29.4799 Y9.5061  
G01 X-29.6524 Y9.4501  
G01 X-29.8140 Y9.3677  
G01 X-29.9608 Y9.2611  
G01 X-30.0891 Y9.1328  
G01 X-30.1260 Y9.0820  
G01 X-30.9295 Y9.0820  
G01 X-30.9295 Y9.3019  
G01 X-30.9551 Y9.4633  
G01 X-31.0056 Y9.6187  
G01 X-31.0798 Y9.7643  
G01 X-31.1758 Y9.8965  
G01 X-31.2914 Y10.0121 
G01 X-31.4236 Y10.1081 
G01 X-31.5692 Y10.1823 
G01 X-31.7246 Y10.2328 
G01 X-31.8860 Y10.2584 
G01 X-32.0494 Y10.2584 
G01 X-32.2108 Y10.2328 
G01 X-32.3662 Y10.1823 
G01 X-32.5118 Y10.1081 
G01 X-32.6440 Y10.0121 
G01 X-32.7596 Y9.8965  
G01 X-32.8556 Y9.7643  
G01 X-32.9298 Y9.6187  
G01 X-32.9803 Y9.4633  
G01 X-33.0059 Y9.3019  
G01 X-33.0059 Y7.4621  
G01 X-32.9803 Y7.3007  
G01 X-32.9298 Y7.1453  
G01 X-32.8556 Y6.9997  
G01 X-32.7596 Y6.8675  
G01 X-32.6440 Y6.7519  
G01 X-32.5118 Y6.6559  
G01 X-32.3662 Y6.5817  
G01 X-32.2108 Y6.5312  
G01 X-32.0494 Y6.5056  
G01 X-31.8860 Y6.5056  
G01 X-31.7246 Y6.5312  
G01 X-31.5692 Y6.5817  
G01 X-31.4236 Y6.6559  
G01 X-31.2914 Y6.7519  
G01 X-31.1758 Y6.8675  
G01 X-31.0798 Y6.9997  
G01 X-31.0056 Y7.1453  
G01 X-30.9551 Y7.3007  
G01 X-30.9295 Y7.4621  
G01 X-30.9295 Y7.6820  
G01 X-30.1260 Y7.6820  
G01 X-30.0891 Y7.6312  
G01 X-29.9608 Y7.5029  
G01 X-29.8140 Y7.3963  
G01 X-29.6524 Y7.3139  
G01 X-29.4799 Y7.2579  
G01 X-29.3007 Y7.2295  
G01 X-29.1193 Y7.2295  
G01 X-28.9401 Y7.2579  
G01 X-28.7676 Y7.3139  
G01 X-28.6060 Y7.3963  
G01 X-28.4592 Y7.5029  
G01 X-28.3309 Y7.6312  
G01 X-28.2940 Y7.6820  
G01 X-27.2139 Y7.6820  
G01 X-26.5042 Y6.9723  
G01 X-26.5798 Y6.8247  
G01 X-26.6303 Y6.6693  
G01 X-26.6559 Y6.5079  
G01 X-26.6559 Y4.6681  
G01 X-26.6303 Y4.5067  
G01 X-26.5798 Y4.3513  
G01 X-26.5056 Y4.2057  
G01 X-26.4096 Y4.0735  
G01 X-26.2940 Y3.9579  
G01 X-26.1618 Y3.8619  
G01 X-26.0162 Y3.7877  
G01 X-25.8608 Y3.7372  
G01 X-25.6994 Y3.7116  
G01 X-25.5360 Y3.7116  
G01 X-25.3746 Y3.7372  
G01 X-25.2192 Y3.7877  
G01 X-25.0736 Y3.8619  
G01 X-24.9414 Y3.9579  
G01 X-24.8258 Y4.0735  
G01 X-24.7298 Y4.2057  
G01 X-24.6556 Y4.3513  
G01 X-24.6051 Y4.5067  
G01 X-24.5795 Y4.6681  
G01 X-24.5795 Y6.5079  
G01 X-24.6051 Y6.6693  
G01 X-24.6556 Y6.8247  
G01 X-24.7298 Y6.9703  
G01 X-24.7617 Y7.0143  
G01 X-24.0940 Y7.6820  
G01 X-20.6231 Y7.6820  
G01 X-20.6468 Y7.6091  
G01 X-20.6724 Y7.4477  
G01 X-20.6724 Y7.2843  
G01 X-20.6468 Y7.1229  
G01 X-20.5963 Y6.9675  
G01 X-20.5221 Y6.8219  
G01 X-20.4261 Y6.6897  
G01 X-20.3105 Y6.5741  
G01 X-20.1783 Y6.4780  
G01 X-20.0327 Y6.4039  
G01 X-19.8773 Y6.3534  
G01 X-19.7159 Y6.3278  
G01 X-17.8761 Y6.3278  
G01 X-17.7147 Y6.3534  
G01 X-17.5593 Y6.4039  
G01 X-17.4137 Y6.4780  
G01 X-17.2815 Y6.5741  
G01 X-17.1659 Y6.6897  
G01 X-17.0698 Y6.8219  
G01 X-16.9957 Y6.9675  
G01 X-16.9452 Y7.1229  
G01 X-16.9196 Y7.2843  
G01 X-16.9196 Y7.4477  
G01 X-16.9452 Y7.6091  
G01 X-16.9957 Y7.7645  
G01 X-17.0698 Y7.9101  
G01 X-17.1659 Y8.0423  
G01 X-17.2815 Y8.1579  
G01 X-17.4137 Y8.2539  
G01 X-17.5593 Y8.3281  
G01 X-17.7147 Y8.3786  
G01 X-17.8761 Y8.4042  
G01 X-18.8443 Y8.4042  
G01 X-19.2683 Y8.8282  
G01 X-19.3658 Y8.9257  
G01 X-19.4804 Y9.0023  
G01 X-19.6078 Y9.0551  
G01 X-19.7431 Y9.0820  
G01 X-28.2940 Y9.0820  
G01 X-28.3309 Y9.1328  
G01 X-28.4592 Y9.2611  
G00 Z5.0000  
G00 X-28.4592 Y6.7211  
G01 Z-0.0250 F50    
G01 X-28.6060 Y6.8277  F50    
G01 X-28.7676 Y6.9101  
G01 X-28.9401 Y6.9661  
G01 X-29.1193 Y6.9945  
G01 X-29.3007 Y6.9945  
G01 X-29.4799 Y6.9661  
G01 X-29.6524 Y6.9101  
G01 X-29.8140 Y6.8277  
G01 X-29.9608 Y6.7211  
G01 X-30.0891 Y6.5928  
G01 X-30.1957 Y6.4460  
G01 X-30.2781 Y6.2844  
G01 X-30.3341 Y6.1119  
G01 X-30.3625 Y5.9327  
G01 X-30.3625 Y5.7513  
G01 X-30.3527 Y5.6893  
G01 X-30.7699 Y5.2720  
G01 X-32.9841 Y5.2720  
G01 X-34.0436 Y6.3315  
G01 X-34.0436 Y6.7756  
G01 X-33.9517 Y6.8675  
G01 X-33.8556 Y6.9997  
G01 X-33.7814 Y7.1453  
G01 X-33.7309 Y7.3007  
G01 X-33.7054 Y7.4621  
G01 X-33.7054 Y9.3019  
G01 X-33.7309 Y9.4633  
G01 X-33.7814 Y9.6187  
G01 X-33.8556 Y9.7643  
G01 X-33.9517 Y9.8965  
G01 X-34.0672 Y10.0121 
G01 X-34.1994 Y10.1081 
G01 X-34.3450 Y10.1823 
G01 X-34.5004 Y10.2328 
G01 X-34.6619 Y10.2584 
G01 X-34.8253 Y10.2584 
G01 X-34.9867 Y10.2328 
G01 X-35.1421 Y10.1823 
G01 X-35.2877 Y10.1081 
G01 X-35.4199 Y10.0121 
G01 X-35.5355 Y9.8965  
G01 X-35.6315 Y9.7643  
G01 X-35.7057 Y9.6187  
G01 X-35.7562 Y9.4633  
G01 X-35.7818 Y9.3019  
G01 X-35.7818 Y7.4621  
G01 X-35.7562 Y7.3007  
G01 X-35.7057 Y7.1453  
G01 X-35.6315 Y6.9997  
G01 X-35.5355 Y6.8675  
G01 X-35.4436 Y6.7756  
G01 X-35.4436 Y5.9726  
G01 X-35.4167 Y5.8374  
G01 X-35.3639 Y5.7100  
G01 X-35.2873 Y5.5953  
G01 X-35.1898 Y5.4978  
G01 X-33.7202 Y4.0283  
G01 X-33.6056 Y3.9517  
G01 X-33.4782 Y3.8989  
G01 X-33.3429 Y3.8720  
G01 X-29.7539 Y3.8720  
G01 X-27.3702 Y1.4883  
G01 X-27.2556 Y1.4117  
G01 X-27.1282 Y1.3589  
G01 X-26.9929 Y1.3320  
G01 X-23.8071 Y1.3320  
G01 X-23.6718 Y1.3589  
G01 X-23.5444 Y1.4117  
G01 X-23.4298 Y1.4883  
G01 X-23.3323 Y1.5858  
G01 X-22.6133 Y2.3047  
G01 X-22.5158 Y2.4022  
G01 X-22.0328 Y2.8853  
G01 X-21.9353 Y2.9828  
G01 X-21.3433 Y3.5747  
G01 X-21.3001 Y3.6180  
G01 X-20.4024 Y3.6180  
G01 X-20.3105 Y3.5261  
G01 X-20.1783 Y3.4301  
G01 X-20.0327 Y3.3559  
G01 X-19.8773 Y3.3054  
G01 X-19.7159 Y3.2798  
G01 X-17.8761 Y3.2798  
G01 X-17.7147 Y3.3054  
G01 X-17.5593 Y3.3559  
G01 X-17.4137 Y3.4301  
G01 X-17.2815 Y3.5261  
G01 X-17.1659 Y3.6417  
G01 X-17.0698 Y3.7739  
G01 X-16.9957 Y3.9195  
G01 X-16.9452 Y4.0749  
G01 X-16.9196 Y4.2363  
G01 X-16.9196 Y4.3997  
G01 X-16.9452 Y4.5611  
G01 X-16.9957 Y4.7165  
G01 X-17.0698 Y4.8621  
G01 X-17.1659 Y4.9943  
G01 X-17.2815 Y5.1099  
G01 X-17.4137 Y5.2059  
G01 X-17.5593 Y5.2801  
G01 X-17.7147 Y5.3306  
G01 X-17.8761 Y5.3562  
G01 X-19.7159 Y5.3562  
G01 X-19.8773 Y5.3306  
G01 X-20.0327 Y5.2801  
G01 X-20.1783 Y5.2059  
G01 X-20.3105 Y5.1099  
G01 X-20.4024 Y5.0180  
G01 X-21.4996 Y5.0180  
G01 X-21.8786 Y5.3969  
G01 X-22.0214 Y5.5397  
G01 X-22.0214 Y6.5079  
G01 X-22.0469 Y6.6693  
G01 X-22.0974 Y6.8247  
G01 X-22.1716 Y6.9703  
G01 X-22.2677 Y7.1025  
G01 X-22.3832 Y7.2181  
G01 X-22.5154 Y7.3141  
G01 X-22.6610 Y7.3883  
G01 X-22.8164 Y7.4388  
G01 X-22.9779 Y7.4644  
G01 X-23.1413 Y7.4644  
G01 X-23.3027 Y7.4388  
G01 X-23.4581 Y7.3883  
G01 X-23.6037 Y7.3141  
G01 X-23.7359 Y7.2181  
G01 X-23.8515 Y7.1025  
G01 X-23.9475 Y6.9703  
G01 X-24.0217 Y6.8247  
G01 X-24.0722 Y6.6693  
G01 X-24.0978 Y6.5079  
G01 X-24.0978 Y4.6681  
G01 X-24.0722 Y4.5067  
G01 X-24.0217 Y4.3513  
G01 X-23.9475 Y4.2057  
G01 X-23.8515 Y4.0735  
G01 X-23.7596 Y3.9816  
G01 X-23.7596 Y3.1384  
G01 X-24.1659 Y2.7320  
G01 X-26.6340 Y2.7320  
G01 X-28.5100 Y4.6079  
G01 X-28.5100 Y4.9260  
G01 X-28.4592 Y4.9629  
G01 X-28.3309 Y5.0912  
G01 X-28.2243 Y5.2380  
G01 X-28.1419 Y5.3996  
G01 X-28.0859 Y5.5721  
G01 X-28.0575 Y5.7513  
G01 X-28.0575 Y5.9327  
G01 X-28.0859 Y6.1119  
G01 X-28.1419 Y6.2844  
G01 X-28.2243 Y6.4460  
G01 X-28.3309 Y6.5928  
G01 X-28.4592 Y6.7211  
G00 Z5.0000  
G00 X-41.1592 Y6.7211  
G01 Z-0.0250 F50    
G01 X-41.3060 Y6.8277  F50    
G01 X-41.4676 Y6.9101  
G01 X-41.6401 Y6.9661  
G01 X-41.8193 Y6.9945  
G01 X-42.0007 Y6.9945  
G01 X-42.1799 Y6.9661  
G01 X-42.3524 Y6.9101  
G01 X-42.5140 Y6.8277  
G01 X-42.6608 Y6.7211  
G01 X-42.7891 Y6.5928  
G01 X-42.8957 Y6.4460  
G01 X-42.9781 Y6.2844  
G01 X-43.0341 Y6.1119  
G01 X-43.0625 Y5.9327  
G01 X-43.0625 Y5.7513  
G01 X-43.0341 Y5.5721  
G01 X-42.9781 Y5.3996  
G01 X-42.8957 Y5.2380  
G01 X-42.7891 Y5.0912  
G01 X-42.6608 Y4.9629  
G01 X-42.5140 Y4.8563  
G01 X-42.3524 Y4.7739  
G01 X-42.1799 Y4.7179  
G01 X-42.0007 Y4.6895  
G01 X-41.8193 Y4.6895  
G01 X-41.6401 Y4.7179  
G01 X-41.4676 Y4.7739  
G01 X-41.3060 Y4.8563  
G01 X-41.1592 Y4.9629  
G01 X-41.0309 Y5.0912  
G01 X-40.9243 Y5.2380  
G01 X-40.8419 Y5.3996  
G01 X-40.7859 Y5.5721  
G01 X-40.7575 Y5.7513  
G01 X-40.7575 Y5.9327  
G01 X-40.7859 Y6.1119  
G01 X-40.8419 Y6.2844  
G01 X-40.9243 Y6.4460  
G01 X-41.0309 Y6.5928  
G01 X-41.1592 Y6.7211  
G00 Z5.0000  
G00 X-41.1592 Y7.5029  
G01 Z-0.0250 F50    
G01 X-41.0309 Y7.6312  F50    
G01 X-40.9243 Y7.7780  
G01 X-40.8419 Y7.9396  
G01 X-40.7859 Y8.1121  
G01 X-40.7575 Y8.2913  
G01 X-40.7575 Y8.4727  
G01 X-40.7859 Y8.6519  
G01 X-40.8419 Y8.8244  
G01 X-40.9243 Y8.9860  
G01 X-41.0309 Y9.1328  
G01 X-41.1592 Y9.2611  
G01 X-41.3060 Y9.3677  
G01 X-41.4676 Y9.4501  
G01 X-41.6401 Y9.5061  
G01 X-41.8193 Y9.5345  
G01 X-42.0007 Y9.5345  
G01 X-42.1799 Y9.5061  
G01 X-42.3524 Y9.4501  
G01 X-42.5140 Y9.3677  
G01 X-42.6608 Y9.2611  
G01 X-42.7891 Y9.1328  
G01 X-42.8957 Y8.9860  
G01 X-42.9781 Y8.8244  
G01 X-43.0341 Y8.6519  
G01 X-43.0625 Y8.4727  
G01 X-43.0625 Y8.2913  
G01 X-43.0341 Y8.1121  
G01 X-42.9781 Y7.9396  
G01 X-42.8957 Y7.7780  
G01 X-42.7891 Y7.6312  
G01 X-42.6608 Y7.5029  
G01 X-42.5140 Y7.3963  
G01 X-42.3524 Y7.3139  
G01 X-42.1799 Y7.2579  
G01 X-42.0007 Y7.2295  
G01 X-41.8193 Y7.2295  
G01 X-41.6401 Y7.2579  
G01 X-41.4676 Y7.3139  
G01 X-41.3060 Y7.3963  
G01 X-41.1592 Y7.5029  
G00 Z5.0000  
G00 X-41.1592 Y10.0429 
G01 Z-0.0250 F50    
G01 X-41.0309 Y10.1712 F50    
G01 X-40.9243 Y10.3180 
G01 X-40.8419 Y10.4796 
G01 X-40.7859 Y10.6521 
G01 X-40.7575 Y10.8313 
G01 X-40.7575 Y11.0127 
G01 X-40.7859 Y11.1919 
G01 X-40.8419 Y11.3644 
G01 X-40.9243 Y11.5260 
G01 X-41.0309 Y11.6728 
G01 X-41.1592 Y11.8011 
G01 X-41.3060 Y11.9077 
G01 X-41.4676 Y11.9901 
G01 X-41.6401 Y12.0461 
G01 X-41.8193 Y12.0745 
G01 X-42.0007 Y12.0745 
G01 X-42.1799 Y12.0461 
G01 X-42.3524 Y11.9901 
G01 X-42.5140 Y11.9077 
G01 X-42.6608 Y11.8011 
G01 X-42.7891 Y11.6728 
G01 X-42.8957 Y11.5260 
G01 X-42.9781 Y11.3644 
G01 X-43.0341 Y11.1919 
G01 X-43.0625 Y11.0127 
G01 X-43.0625 Y10.8313 
G01 X-43.0341 Y10.6521 
G01 X-42.9781 Y10.4796 
G01 X-42.8957 Y10.3180 
G01 X-42.7891 Y10.1712 
G01 X-42.6608 Y10.0429 
G01 X-42.5140 Y9.9363  
G01 X-42.3524 Y9.8539  
G01 X-42.1799 Y9.7979  
G01 X-42.0007 Y9.7695  
G01 X-41.8193 Y9.7695  
G01 X-41.6401 Y9.7979  
G01 X-41.4676 Y9.8539  
G01 X-41.3060 Y9.9363  
G01 X-41.1592 Y10.0429 
G00 Z5.0000  
G00 X-41.1592 Y12.5829 
G01 Z-0.0250 F50    
G01 X-41.0309 Y12.7112 F50    
G01 X-40.9243 Y12.8580 
G01 X-40.8419 Y13.0196 
G01 X-40.7859 Y13.1921 
G01 X-40.7575 Y13.3713 
G01 X-40.7575 Y13.5527 
G01 X-40.7859 Y13.7319 
G01 X-40.8419 Y13.9044 
G01 X-40.9243 Y14.0660 
G01 X-41.0309 Y14.2128 
G01 X-41.1592 Y14.3411 
G01 X-41.3060 Y14.4477 
G01 X-41.4676 Y14.5301 
G01 X-41.6401 Y14.5861 
G01 X-41.8193 Y14.6145 
G01 X-42.0007 Y14.6145 
G01 X-42.1799 Y14.5861 
G01 X-42.3524 Y14.5301 
G01 X-42.5140 Y14.4477 
G01 X-42.6608 Y14.3411 
G01 X-42.7891 Y14.2128 
G01 X-42.8957 Y14.0660 
G01 X-42.9781 Y13.9044 
G01 X-43.0341 Y13.7319 
G01 X-43.0625 Y13.5527 
G01 X-43.0625 Y13.3713 
G01 X-43.0341 Y13.1921 
G01 X-42.9781 Y13.0196 
G01 X-42.8957 Y12.8580 
G01 X-42.7891 Y12.7112 
G01 X-42.6608 Y12.5829 
G01 X-42.5140 Y12.4763 
G01 X-42.3524 Y12.3939 
G01 X-42.1799 Y12.3379 
G01 X-42.0007 Y12.3095 
G01 X-41.8193 Y12.3095 
G01 X-41.6401 Y12.3379 
G01 X-41.4676 Y12.3939 
G01 X-41.3060 Y12.4763 
G01 X-41.1592 Y12.5829 
G00 Z5.0000  
G00 X-41.1592 Y15.1229 
G01 Z-0.0250 F50    
G01 X-41.0309 Y15.2512 F50    
G01 X-40.9243 Y15.3980 
G01 X-40.8419 Y15.5596 
G01 X-40.7859 Y15.7321 
G01 X-40.7575 Y15.9113 
G01 X-40.7575 Y16.0927 
G01 X-40.7859 Y16.2719 
G01 X-40.8419 Y16.4444 
G01 X-40.9243 Y16.6060 
G01 X-41.0309 Y16.7528 
G01 X-41.1592 Y16.8811 
G01 X-41.2100 Y16.9180 
G01 X-41.2100 Y17.6260 
G01 X-41.1592 Y17.6629 
G01 X-41.0309 Y17.7912 
G01 X-40.9243 Y17.9380 
G01 X-40.8419 Y18.0996 
G01 X-40.7859 Y18.2721 
G01 X-40.7575 Y18.4513 
G01 X-40.7575 Y18.6327 
G01 X-40.7859 Y18.8119 
G01 X-40.8419 Y18.9844 
G01 X-40.9243 Y19.1460 
G01 X-41.0309 Y19.2928 
G01 X-41.1592 Y19.4211 
G01 X-41.3060 Y19.5277 
G01 X-41.4676 Y19.6101 
G01 X-41.6401 Y19.6661 
G01 X-41.8193 Y19.6945 
G01 X-42.0007 Y19.6945 
G01 X-42.1799 Y19.6661 
G01 X-42.3524 Y19.6101 
G01 X-42.5140 Y19.5277 
G01 X-42.6608 Y19.4211 
G01 X-42.7891 Y19.2928 
G01 X-42.8957 Y19.1460 
G01 X-42.9781 Y18.9844 
G01 X-43.0341 Y18.8119 
G01 X-43.0625 Y18.6327 
G01 X-43.0625 Y18.4513 
G01 X-43.0341 Y18.2721 
G01 X-42.9781 Y18.0996 
G01 X-42.8957 Y17.9380 
G01 X-42.7891 Y17.7912 
G01 X-42.6608 Y17.6629 
G01 X-42.6100 Y17.6260 
G01 X-42.6100 Y16.9180 
G01 X-42.6608 Y16.8811 
G01 X-42.7891 Y16.7528 
G01 X-42.8957 Y16.6060 
G01 X-42.9781 Y16.4444 
G01 X-43.0341 Y16.2719 
G01 X-43.0625 Y16.0927 
G01 X-43.0625 Y15.9113 
G01 X-43.0341 Y15.7321 
G01 X-42.9781 Y15.5596 
G01 X-42.8957 Y15.3980 
G01 X-42.7891 Y15.2512 
G01 X-42.6608 Y15.1229 
G01 X-42.5140 Y15.0163 
G01 X-42.3524 Y14.9339 
G01 X-42.1799 Y14.8779 
G01 X-42.0007 Y14.8495 
G01 X-41.8193 Y14.8495 
G01 X-41.6401 Y14.8779 
G01 X-41.4676 Y14.9339 
G01 X-41.3060 Y15.0163 
G01 X-41.1592 Y15.1229 
G00 Z5.0000  
G00 X-41.1592 Y20.2029 
G01 Z-0.0250 F50    
G01 X-41.0309 Y20.3312 F50    
G01 X-40.9243 Y20.4780 
G01 X-40.8419 Y20.6396 
G01 X-40.7859 Y20.8121 
G01 X-40.7575 Y20.9913 
G01 X-40.7575 Y21.1727 
G01 X-40.7859 Y21.3519 
G01 X-40.8419 Y21.5244 
G01 X-40.9243 Y21.6860 
G01 X-41.0309 Y21.8328 
G01 X-41.1592 Y21.9611 
G01 X-41.3060 Y22.0677 
G01 X-41.4676 Y22.1501 
G01 X-41.6401 Y22.2061 
G01 X-41.8193 Y22.2345 
G01 X-42.0007 Y22.2345 
G01 X-42.1799 Y22.2061 
G01 X-42.3524 Y22.1501 
G01 X-42.5140 Y22.0677 
G01 X-42.6608 Y21.9611 
G01 X-42.7891 Y21.8328 
G01 X-42.8957 Y21.6860 
G01 X-42.9762 Y21.5280 
G01 X-49.6300 Y21.5280 
G01 X-49.6669 Y21.5788 
G01 X-49.7952 Y21.7071 
G01 X-49.9420 Y21.8137 
G01 X-50.1036 Y21.8961 
G01 X-50.2761 Y21.9521 
G01 X-50.4553 Y21.9805 
G01 X-50.6367 Y21.9805 
G01 X-50.8159 Y21.9521 
G01 X-50.9884 Y21.8961 
G01 X-51.1500 Y21.8137 
G01 X-51.2968 Y21.7071 
G01 X-51.4251 Y21.5788 
G01 X-51.5317 Y21.4320 
G01 X-51.6141 Y21.2704 
G01 X-51.6701 Y21.0979 
G01 X-51.6985 Y20.9187 
G01 X-51.6985 Y20.7373 
G01 X-51.6701 Y20.5581 
G01 X-51.6141 Y20.3856 
G01 X-51.5317 Y20.2240 
G01 X-51.4251 Y20.0772 
G01 X-51.2968 Y19.9489 
G01 X-51.1500 Y19.8423 
G01 X-50.9884 Y19.7599 
G01 X-50.8159 Y19.7039 
G01 X-50.6367 Y19.6755 
G01 X-50.4553 Y19.6755 
G01 X-50.2761 Y19.7039 
G01 X-50.1036 Y19.7599 
G01 X-49.9420 Y19.8423 
G01 X-49.7952 Y19.9489 
G01 X-49.6669 Y20.0772 
G01 X-49.6300 Y20.1280 
G01 X-42.5577 Y20.1280 
G01 X-42.5140 Y20.0963 
G01 X-42.3524 Y20.0139 
G01 X-42.1799 Y19.9579 
G01 X-42.0007 Y19.9295 
G01 X-41.8193 Y19.9295 
G01 X-41.6401 Y19.9579 
G01 X-41.4676 Y20.0139 
G01 X-41.3060 Y20.0963 
G01 X-41.1592 Y20.2029 
G00 Z5.0000  
G00 X-41.1592 Y22.7429 
G01 Z-0.0250 F50    
G01 X-41.0309 Y22.8712 F50    
G01 X-40.9243 Y23.0180 
G01 X-40.8419 Y23.1796 
G01 X-40.7859 Y23.3521 
G01 X-40.7575 Y23.5313 
G01 X-40.7575 Y23.7127 
G01 X-40.7859 Y23.8919 
G01 X-40.8419 Y24.0644 
G01 X-40.9243 Y24.2260 
G01 X-41.0309 Y24.3728 
G01 X-41.1592 Y24.5011 
G01 X-41.3060 Y24.6077 
G01 X-41.4676 Y24.6901 
G01 X-41.6401 Y24.7461 
G01 X-41.8193 Y24.7745 
G01 X-42.0007 Y24.7745 
G01 X-42.1799 Y24.7461 
G01 X-42.3524 Y24.6901 
G01 X-42.5140 Y24.6077 
G01 X-42.6608 Y24.5011 
G01 X-42.7891 Y24.3728 
G01 X-42.8260 Y24.3220 
G01 X-49.8983 Y24.3220 
G01 X-49.9420 Y24.3537 
G01 X-50.1036 Y24.4361 
G01 X-50.2761 Y24.4921 
G01 X-50.4553 Y24.5205 
G01 X-50.6367 Y24.5205 
