(.../eagleLibs/ULP/pcb-gcode.ulp)
(Copyright 2005 - 2012 by John Johnson)
(See readme.txt for licensing terms.)
(This file generated from the board:)
(.../EAGLE/projects/Jonica/schematic.brd)
(Current profile is .../eagleLibs/ULP/profiles/mach.pp  )
(This file generated 15/11/2018 13:57)
(Settings from pcb-machine.h)
(spindle on time = 5.0000)
(  Tool Size)
(0.2000  )
(spindle speed = 40000.0000)
(tool change at 0.0000  0.0000  12.7000 )
(feed rate xy = F50    )
(feed rate z  = F50    )
(Z Axis Settings)
(  High     Up        Down     Drill)
(5.0000  	5.0000  	-0.0250 	-1.0000 )
(Settings from pcb-defaults.h)
(isolate min = 0.5000)
(isolate max = 1.0000)
(isolate step = 0.1000)
(Generated top outlines, top drill, bottom outlines, )
(Unit of measure: mm)
(Metric Mode)
G21
(Absolute Coordinates)
G90
S40000
G00 Z5.0000  
G00 X0.0000  Y0.0000  
M03
G04 P5.000000
G00 X-0.7500 Y0.7500  
G01 Z-0.0250 F50    
G01 X-67.5760 Y0.7500  F50    
G01 X-67.5760 Y49.6422 
G01 X-67.5674 Y49.6157 
G01 X-67.4888 Y49.4615 
G01 X-67.3870 Y49.3214 
G01 X-67.2646 Y49.1990 
G01 X-64.8540 Y46.7884 
G01 X-64.8540 Y44.9299 
G01 X-64.9723 Y45.0158 
G01 X-65.1900 Y45.1268 
G01 X-65.4225 Y45.2023 
G01 X-65.6638 Y45.2405 
G01 X-65.9082 Y45.2405 
G01 X-66.1495 Y45.2023 
G01 X-66.3820 Y45.1268 
G01 X-66.5997 Y45.0158 
G01 X-66.7974 Y44.8722 
G01 X-66.9702 Y44.6994 
G01 X-67.1138 Y44.5017 
G01 X-67.2248 Y44.2840 
G01 X-67.3003 Y44.0515 
G01 X-67.3385 Y43.8102 
G01 X-67.3385 Y43.5658 
G01 X-67.3003 Y43.3245 
G01 X-67.2248 Y43.0920 
G01 X-67.1138 Y42.8743 
G01 X-66.9702 Y42.6766 
G01 X-66.7974 Y42.5038 
G01 X-66.6793 Y42.4180 
G01 X-66.7974 Y42.3322 
G01 X-66.9702 Y42.1594 
G01 X-67.1138 Y41.9617 
G01 X-67.2248 Y41.7440 
G01 X-67.3003 Y41.5115 
G01 X-67.3385 Y41.2702 
G01 X-67.3385 Y41.0258 
G01 X-67.3003 Y40.7845 
G01 X-67.2248 Y40.5520 
G01 X-67.1138 Y40.3343 
G01 X-66.9702 Y40.1366 
G01 X-66.7974 Y39.9638 
G01 X-66.6793 Y39.8780 
G01 X-66.7974 Y39.7922 
G01 X-66.9702 Y39.6194 
G01 X-67.1138 Y39.4217 
G01 X-67.2248 Y39.2040 
G01 X-67.3003 Y38.9715 
G01 X-67.3385 Y38.7302 
G01 X-67.3385 Y38.4858 
G01 X-67.3003 Y38.2445 
G01 X-67.2248 Y38.0120 
G01 X-67.1138 Y37.7943 
G01 X-66.9702 Y37.5966 
G01 X-66.7974 Y37.4238 
G01 X-66.6793 Y37.3380 
G01 X-66.7974 Y37.2522 
G01 X-66.9702 Y37.0794 
G01 X-67.1138 Y36.8817 
G01 X-67.2248 Y36.6640 
G01 X-67.3003 Y36.4315 
G01 X-67.3385 Y36.1902 
G01 X-67.3385 Y35.9458 
G01 X-67.3003 Y35.7045 
G01 X-67.2248 Y35.4720 
G01 X-67.1138 Y35.2543 
G01 X-66.9702 Y35.0566 
G01 X-66.7974 Y34.8838 
G01 X-66.6793 Y34.7980 
G01 X-66.7974 Y34.7122 
G01 X-66.9702 Y34.5394 
G01 X-67.1138 Y34.3417 
G01 X-67.2248 Y34.1240 
G01 X-67.3003 Y33.8915 
G01 X-67.3385 Y33.6502 
G01 X-67.3385 Y33.4058 
G01 X-67.3003 Y33.1645 
G01 X-67.2248 Y32.9320 
G01 X-67.1138 Y32.7143 
G01 X-66.9702 Y32.5166 
G01 X-66.7974 Y32.3438 
G01 X-66.6793 Y32.2580 
G01 X-66.7974 Y32.1722 
G01 X-66.9702 Y31.9994 
G01 X-67.1138 Y31.8017 
G01 X-67.2248 Y31.5840 
G01 X-67.3003 Y31.3515 
G01 X-67.3385 Y31.1102 
G01 X-67.3385 Y30.8658 
G01 X-67.3003 Y30.6245 
G01 X-67.2248 Y30.3920 
G01 X-67.1138 Y30.1743 
G01 X-66.9702 Y29.9766 
G01 X-66.7974 Y29.8038 
G01 X-66.6793 Y29.7180 
G01 X-66.7974 Y29.6322 
G01 X-66.9702 Y29.4594 
G01 X-67.1138 Y29.2617 
G01 X-67.2248 Y29.0440 
G01 X-67.3003 Y28.8115 
G01 X-67.3385 Y28.5702 
G01 X-67.3385 Y28.3258 
G01 X-67.3003 Y28.0845 
G01 X-67.2248 Y27.8520 
G01 X-67.1138 Y27.6343 
G01 X-66.9702 Y27.4366 
G01 X-66.7974 Y27.2638 
G01 X-66.6793 Y27.1780 
G01 X-66.7974 Y27.0922 
G01 X-66.9702 Y26.9194 
G01 X-67.1138 Y26.7217 
G01 X-67.2248 Y26.5040 
G01 X-67.3003 Y26.2715 
G01 X-67.3385 Y26.0302 
G01 X-67.3385 Y25.7858 
G01 X-67.3003 Y25.5445 
G01 X-67.2248 Y25.3120 
G01 X-67.1138 Y25.0943 
G01 X-66.9702 Y24.8966 
G01 X-66.7974 Y24.7238 
G01 X-66.6793 Y24.6380 
G01 X-66.7974 Y24.5522 
G01 X-66.9702 Y24.3794 
G01 X-67.1138 Y24.1817 
G01 X-67.2248 Y23.9640 
G01 X-67.3003 Y23.7315 
G01 X-67.3385 Y23.4902 
G01 X-67.3385 Y23.2458 
G01 X-67.3003 Y23.0045 
G01 X-67.2248 Y22.7720 
G01 X-67.1138 Y22.5543 
G01 X-66.9702 Y22.3566 
G01 X-66.7974 Y22.1838 
G01 X-66.6793 Y22.0980 
G01 X-66.7974 Y22.0122 
G01 X-66.9702 Y21.8394 
G01 X-67.1138 Y21.6417 
G01 X-67.2248 Y21.4240 
G01 X-67.3003 Y21.1915 
G01 X-67.3385 Y20.9502 
G01 X-67.3385 Y20.7058 
G01 X-67.3003 Y20.4645 
G01 X-67.2248 Y20.2320 
G01 X-67.1138 Y20.0143 
G01 X-66.9702 Y19.8166 
G01 X-66.7974 Y19.6438 
G01 X-66.6793 Y19.5580 
G01 X-66.7974 Y19.4722 
G01 X-66.9702 Y19.2994 
G01 X-67.1138 Y19.1017 
G01 X-67.2248 Y18.8840 
G01 X-67.3003 Y18.6515 
G01 X-67.3385 Y18.4102 
G01 X-67.3385 Y18.1658 
G01 X-67.3003 Y17.9245 
G01 X-67.2248 Y17.6920 
G01 X-67.1138 Y17.4743 
G01 X-66.9702 Y17.2766 
G01 X-66.7974 Y17.1038 
G01 X-66.6793 Y17.0180 
G01 X-66.7974 Y16.9322 
G01 X-66.9702 Y16.7594 
G01 X-67.1138 Y16.5617 
G01 X-67.2248 Y16.3440 
G01 X-67.3003 Y16.1115 
G01 X-67.3385 Y15.8702 
G01 X-67.3385 Y15.6258 
G01 X-67.3003 Y15.3845 
G01 X-67.2248 Y15.1520 
G01 X-67.1138 Y14.9343 
G01 X-66.9702 Y14.7366 
G01 X-66.7974 Y14.5638 
G01 X-66.6793 Y14.4780 
G01 X-66.7974 Y14.3922 
G01 X-66.9702 Y14.2194 
G01 X-67.1138 Y14.0217 
G01 X-67.2248 Y13.8040 
G01 X-67.3003 Y13.5715 
G01 X-67.3385 Y13.3302 
G01 X-67.3385 Y13.0858 
G01 X-67.3003 Y12.8445 
G01 X-67.2248 Y12.6120 
G01 X-67.1138 Y12.3943 
G01 X-66.9702 Y12.1966 
G01 X-66.7974 Y12.0238 
G01 X-66.6793 Y11.9380 
G01 X-66.7974 Y11.8522 
G01 X-66.9702 Y11.6794 
G01 X-67.1138 Y11.4817 
G01 X-67.2248 Y11.2640 
G01 X-67.3003 Y11.0315 
G01 X-67.3385 Y10.7902 
G01 X-67.3385 Y10.5458 
G01 X-67.3003 Y10.3045 
G01 X-67.2248 Y10.0720 
G01 X-67.1138 Y9.8543  
G01 X-66.9702 Y9.6566  
G01 X-66.7974 Y9.4838  
G01 X-66.6793 Y9.3980  
G01 X-66.7974 Y9.3122  
G01 X-66.9702 Y9.1394  
G01 X-67.1138 Y8.9417  
G01 X-67.2248 Y8.7240  
G01 X-67.3003 Y8.4915  
G01 X-67.3385 Y8.2502  
G01 X-67.3385 Y8.0058  
G01 X-67.3003 Y7.7645  
G01 X-67.2248 Y7.5320  
G01 X-67.1138 Y7.3143  
G01 X-66.9702 Y7.1166  
G01 X-66.7974 Y6.9438  
G01 X-66.5997 Y6.8002  
G01 X-66.3820 Y6.6892  
G01 X-66.1495 Y6.6137  
G01 X-65.9082 Y6.5755  
G01 X-65.6638 Y6.5755  
G01 X-65.4225 Y6.6137  
G01 X-65.1900 Y6.6892  
G01 X-64.9723 Y6.8002  
G01 X-64.7746 Y6.9438  
G01 X-64.6018 Y7.1166  
G01 X-64.4582 Y7.3143  
G01 X-64.3472 Y7.5320  
G01 X-64.2717 Y7.7645  
G01 X-64.2335 Y8.0058  
G01 X-64.2335 Y8.2502  
G01 X-64.2717 Y8.4915  
G01 X-64.3472 Y8.7240  
G01 X-64.4582 Y8.9417  
G01 X-64.6018 Y9.1394  
G01 X-64.7746 Y9.3122  
G01 X-64.8927 Y9.3980  
G01 X-64.7746 Y9.4838  
G01 X-64.6018 Y9.6566  
G01 X-64.4582 Y9.8543  
G01 X-64.3754 Y10.0168 
G01 X-64.3398 Y9.9812  
G01 X-64.2187 Y9.9002  
G01 X-64.0841 Y9.8445  
G01 X-63.9412 Y9.8160  
G01 X-63.1746 Y9.8160  
G01 X-63.0316 Y9.8445  
G01 X-62.8970 Y9.9002  
G01 X-62.8643 Y9.9221  
G01 X-62.8326 Y9.9038  
G01 X-62.6727 Y9.8456  
G01 X-62.5051 Y9.8160  
G01 X-62.0367 Y9.8160  
G01 X-61.8938 Y9.8445  
G01 X-61.7879 Y9.8883  
G01 X-61.6820 Y9.8445  
G01 X-61.5391 Y9.8160  
G01 X-61.3934 Y9.8160  
G01 X-61.2504 Y9.8445  
G01 X-61.1558 Y9.8837  
G01 X-61.0611 Y9.8445  
G01 X-60.9182 Y9.8160  
G01 X-60.7725 Y9.8160  
G01 X-60.6296 Y9.8445  
G01 X-60.4949 Y9.9002  
G01 X-60.3972 Y9.9656  
G01 X-60.3207 Y9.9182  
G01 X-60.1459 Y9.8505  
G01 X-59.9616 Y9.8160  
G01 X-59.4458 Y9.8160  
G01 X-59.3029 Y9.8445  
G01 X-59.1683 Y9.9002  
G01 X-59.0472 Y9.9812  
G01 X-58.9989 Y9.9837  
G01 X-58.9591 Y9.9492  
G01 X-58.9254 Y9.9267  
G01 X-58.8783 Y9.9031  
G01 X-58.8325 Y9.8770  
G01 X-58.7951 Y9.8615  
G01 X-58.7442 Y9.8476  
G01 X-58.6943 Y9.8310  
G01 X-58.6546 Y9.8231  
G01 X-58.6020 Y9.8193  
G01 X-58.5497 Y9.8127  
G01 X-58.5092 Y9.8127  
G01 X-58.4570 Y9.8193  
G01 X-58.4044 Y9.8231  
G01 X-58.3647 Y9.8310  
G01 X-58.3147 Y9.8476  
G01 X-58.2638 Y9.8615  
G01 X-58.2264 Y9.8770  
G01 X-58.1807 Y9.9031  
G01 X-58.1335 Y9.9267  
G01 X-58.0999 Y9.9492  
G01 X-58.0600 Y9.9837  
G01 X-58.0184 Y10.0160 
G01 X-57.9898 Y10.0447 
G01 X-57.9528 Y10.0168 
G01 X-57.7935 Y9.9182  
G01 X-57.6187 Y9.8505  
G01 X-57.4345 Y9.8160  
G01 X-56.9186 Y9.8160  
G01 X-56.7757 Y9.8445  
G01 X-56.6411 Y9.9002  
G01 X-56.5961 Y9.9303  
G01 X-56.5511 Y9.9002  
G01 X-56.4164 Y9.8445  
G01 X-56.2735 Y9.8160  
G01 X-56.1278 Y9.8160  
G01 X-55.9849 Y9.8445  
G01 X-55.8503 Y9.9002  
G01 X-55.7292 Y9.9812  
G01 X-55.6804 Y10.0299 
G01 X-55.6316 Y9.9812  
G01 X-55.5105 Y9.9002  
G01 X-55.3758 Y9.8445  
G01 X-55.2329 Y9.8160  
G01 X-55.0872 Y9.8160  
G01 X-54.9443 Y9.8445  
G01 X-54.8097 Y9.9002  
G01 X-54.6892 Y9.9807  
G01 X-54.5688 Y9.9002  
G01 X-54.4342 Y9.8445  
G01 X-54.2913 Y9.8160  
G01 X-54.1455 Y9.8160  
G01 X-54.0026 Y9.8445  
G01 X-53.8680 Y9.9002  
G01 X-53.8116 Y9.9379  
G01 X-53.7797 Y9.9182  
G01 X-53.6049 Y9.8505  
G01 X-53.4207 Y9.8160  
G01 X-52.9049 Y9.8160  
G01 X-52.7620 Y9.8445  
G01 X-52.6274 Y9.9002  
G01 X-52.5062 Y9.9812  
G01 X-52.4032 Y10.0842 
G01 X-52.3222 Y10.2053 
G01 X-52.2665 Y10.3400 
G01 X-52.2380 Y10.4829 
G01 X-52.2380 Y11.3393 
G01 X-52.2676 Y11.5069 
G01 X-52.3258 Y11.6668 
G01 X-52.4109 Y11.8142 
G01 X-52.5203 Y11.9445 
G01 X-52.6506 Y12.0539 
G01 X-52.7980 Y12.1390 
G01 X-52.9579 Y12.1972 
G01 X-53.1255 Y12.2268 
G01 X-53.4925 Y12.2268 
G01 X-53.5241 Y12.3031 
G01 X-53.6050 Y12.4243 
G01 X-53.7081 Y12.5273 
G01 X-53.8292 Y12.6082 
G01 X-53.9638 Y12.6640 
G01 X-54.1067 Y12.6924 
G01 X-54.3301 Y12.6924 
G01 X-54.4730 Y12.6640 
G01 X-54.6076 Y12.6082 
G01 X-54.7287 Y12.5273 
G01 X-54.8318 Y12.4243 
G01 X-54.9127 Y12.3031 
G01 X-54.9443 Y12.2268 
G01 X-55.2329 Y12.2268 
G01 X-55.3758 Y12.1983 
G01 X-55.4475 Y12.1686 
G01 X-55.5193 Y12.1983 
G01 X-55.6622 Y12.2268 
G01 X-56.2735 Y12.2268 
G01 X-56.4164 Y12.1983 
G01 X-56.5511 Y12.1426 
G01 X-56.6722 Y12.0616 
G01 X-56.8118 Y12.1390 
G01 X-56.9717 Y12.1972 
G01 X-57.1393 Y12.2268 
G01 X-57.6076 Y12.2268 
G01 X-57.7505 Y12.1983 
G01 X-57.8795 Y12.1449 
G01 X-57.9160 Y12.1658 
G01 X-58.0542 Y12.2118 
G01 X-58.1988 Y12.2301 
G01 X-58.3441 Y12.2197 
G01 X-58.4847 Y12.1813 
G01 X-58.5295 Y12.1588 
G01 X-58.5743 Y12.1813 
G01 X-58.7148 Y12.2197 
G01 X-58.8602 Y12.2301 
G01 X-59.0047 Y12.2118 
G01 X-59.1429 Y12.1658 
G01 X-59.2649 Y12.0962 
G01 X-59.3389 Y12.1390 
G01 X-59.4989 Y12.1972 
G01 X-59.6664 Y12.2268 
G01 X-60.1348 Y12.2268 
G01 X-60.2777 Y12.1983 
G01 X-60.4123 Y12.1426 
G01 X-60.5335 Y12.0616 
G01 X-60.6175 Y12.1161 
G01 X-60.7572 Y12.1739 
G01 X-60.8107 Y12.3031 
G01 X-60.7527 Y12.2859 
G01 X-60.6864 Y12.2585 
G01 X-60.6149 Y12.2442 
G01 X-60.5435 Y12.2300 
G01 X-60.4714 Y12.2300 
G01 X-59.7769 Y12.2300 
G01 X-59.6340 Y12.2585 
G01 X-59.4994 Y12.3142 
G01 X-59.3782 Y12.3952 
G01 X-59.2752 Y12.4982 
G01 X-59.1943 Y12.6194 
G01 X-59.1385 Y12.7540 
G01 X-59.1101 Y12.8969 
G01 X-59.1101 Y13.0426 
G01 X-59.1385 Y13.1855 
G01 X-59.1943 Y13.3201 
G01 X-59.2713 Y13.4353 
G01 X-59.2338 Y13.4915 
G01 X-59.1943 Y13.5507 
G01 X-59.1659 Y13.6191 
G01 X-59.1385 Y13.6853 
G01 X-59.1243 Y13.7569 
G01 X-59.1101 Y13.8282 
G01 X-59.1101 Y13.9004 
G01 X-59.1101 Y13.9739 
G01 X-59.1241 Y14.0443 
G01 X-59.1385 Y14.1168 
G01 X-59.1663 Y14.1840 
G01 X-59.1943 Y14.2515 
G01 X-59.2354 Y14.3130 
G01 X-59.2752 Y14.3726 
G01 X-59.3280 Y14.4254 
G01 X-59.3782 Y14.4756 
G01 X-59.4402 Y14.5170 
G01 X-59.4994 Y14.5566 
G01 X-59.5678 Y14.5849 
G01 X-59.6340 Y14.6123 
G01 X-59.7056 Y14.6266 
G01 X-59.7769 Y14.6408 
G01 X-59.8491 Y14.6408 
G01 X-60.5435 Y14.6408 
G01 X-60.6864 Y14.6123 
G01 X-60.8210 Y14.5566 
G01 X-60.8928 Y14.5086 
G01 X-60.9697 Y14.5530 
G01 X-61.1296 Y14.6112 
G01 X-61.2972 Y14.6408 
G01 X-61.5327 Y14.6408 
G01 X-61.5087 Y14.7023 
G01 X-61.3885 Y14.6725 
G01 X-61.2456 Y14.6441 
G01 X-61.0999 Y14.6441 
G01 X-60.9570 Y14.6725 
G01 X-60.8224 Y14.7282 
G01 X-60.7012 Y14.8092 
G01 X-60.5982 Y14.9122 
G01 X-60.5173 Y15.0334 
G01 X-60.4615 Y15.1680 
G01 X-60.4331 Y15.3109 
G01 X-60.4331 Y16.3879 
G01 X-60.4431 Y16.4382 
G01 X-60.4227 Y16.4874 
G01 X-60.3943 Y16.6303 
G01 X-60.3943 Y16.8536 
G01 X-60.4227 Y16.9965 
G01 X-60.4785 Y17.1311 
G01 X-60.5594 Y17.2523 
G01 X-60.6097 Y17.3026 
G01 X-60.4892 Y17.2115 
G01 X-60.3149 Y17.1248 
G01 X-60.1277 Y17.0715 
G01 X-59.9340 Y17.0536 
G01 X-59.7402 Y17.0715 
G01 X-59.7027 Y17.0822 
G01 X-59.6611 Y16.9817 
G01 X-59.5801 Y16.8606 
G01 X-59.4771 Y16.7575 
G01 X-59.3560 Y16.6766 
G01 X-59.2213 Y16.6208 
G01 X-59.0784 Y16.5924 
G01 X-58.8968 Y16.5924 
G01 X-58.8706 Y16.5891 
G01 X-58.8241 Y16.5924 
G01 X-58.7775 Y16.5924 
G01 X-58.7516 Y16.5976 
G01 X-58.7253 Y16.5994 
G01 X-58.6803 Y16.6117 
G01 X-58.6346 Y16.6208 
G01 X-58.5847 Y16.6379 
G01 X-58.5430 Y16.6588 
G01 X-58.5000 Y16.6766 
G01 X-58.4544 Y16.7031 
G01 X-58.4176 Y16.7317 
G01 X-58.3788 Y16.7575 
G01 X-58.3393 Y16.7924 
G01 X-58.3088 Y16.8276 
G01 X-58.2758 Y16.8606 
G01 X-58.2438 Y16.9025 
G01 X-58.2207 Y16.9430 
G01 X-58.1948 Y16.9817 
G01 X-58.1717 Y17.0291 
G01 X-58.1569 Y17.0733 
G01 X-58.1391 Y17.1163 
G01 X-58.1339 Y17.1423 
G01 X-58.0909 Y17.2715 
G01 X-58.0115 Y17.2115 
G01 X-57.8373 Y17.1248 
G01 X-57.6501 Y17.0715 
G01 X-57.4563 Y17.0536 
G01 X-57.2625 Y17.0715 
G01 X-57.0753 Y17.1248 
G01 X-56.9011 Y17.2115 
G01 X-56.7458 Y17.3288 
G01 X-56.6147 Y17.4727 
G01 X-56.5122 Y17.6381 
G01 X-56.4419 Y17.8196 
G01 X-56.4062 Y18.0109 
G01 X-56.4062 Y18.5160 
G01 X-56.4419 Y18.7073 
G01 X-56.5122 Y18.8888 
G01 X-56.6147 Y19.0542 
G01 X-56.7458 Y19.1981 
G01 X-56.9011 Y19.3153 
G01 X-57.0753 Y19.4021 
G01 X-57.2625 Y19.4553 
G01 X-57.4563 Y19.4733 
G01 X-57.6501 Y19.4553 
G01 X-57.8373 Y19.4021 
G01 X-57.9624 Y19.3398 
G01 X-58.0817 Y19.4078 
G01 X-58.2199 Y19.4539 
G01 X-58.3645 Y19.4721 
G01 X-58.5098 Y19.4618 
G01 X-58.6503 Y19.4233 
G01 X-58.6951 Y19.4009 
G01 X-58.7399 Y19.4233 
G01 X-58.8805 Y19.4618 
G01 X-59.0258 Y19.4721 
G01 X-59.1704 Y19.4539 
G01 X-59.3086 Y19.4078 
G01 X-59.4279 Y19.3398 
G01 X-59.5530 Y19.4021 
G01 X-59.7402 Y19.4553 
G01 X-59.9340 Y19.4733 
G01 X-60.1277 Y19.4553 
G01 X-60.3149 Y19.4021 
G01 X-60.3824 Y19.3685 
G01 X-60.5411 Y19.4404 
G01 X-60.6840 Y19.4688 
G01 X-61.2954 Y19.4688 
G01 X-61.4383 Y19.4404 
G01 X-61.5100 Y19.4107 
G01 X-61.5817 Y19.4404 
G01 X-61.7246 Y19.4688 
G01 X-62.3360 Y19.4688 
G01 X-62.4789 Y19.4404 
G01 X-62.6135 Y19.3846 
G01 X-62.6730 Y19.3449 
G01 X-62.6945 Y19.4096 
G01 X-62.7084 Y19.4604 
G01 X-62.7239 Y19.4978 
G01 X-62.7500 Y19.5436 
G01 X-62.7736 Y19.5907 
G01 X-62.7961 Y19.6244 
G01 X-62.8306 Y19.6642 
G01 X-62.8629 Y19.7059 
G01 X-62.8916 Y19.7345 
G01 X-62.9332 Y19.7668 
G01 X-62.9730 Y19.8013 
G01 X-63.0067 Y19.8238 
G01 X-63.0538 Y19.8474 
G01 X-63.0996 Y19.8735 
G01 X-63.1370 Y19.8890 
G01 X-63.1878 Y19.9029 
G01 X-63.2378 Y19.9196 
G01 X-63.2775 Y19.9275 
G01 X-63.3301 Y19.9312 
G01 X-63.3824 Y19.9378 
G01 X-63.4229 Y19.9378 
G01 X-63.4752 Y19.9312 
G01 X-63.5277 Y19.9275 
G01 X-63.5674 Y19.9196 
G01 X-63.6174 Y19.9029 
G01 X-63.6683 Y19.8890 
G01 X-63.7057 Y19.8735 
G01 X-63.7514 Y19.8474 
G01 X-63.7986 Y19.8238 
G01 X-63.8322 Y19.8013 
G01 X-63.8721 Y19.7668 
G01 X-63.9137 Y19.7345 
G01 X-63.9423 Y19.7059 
G01 X-63.9746 Y19.6642 
G01 X-64.0092 Y19.6244 
G01 X-64.0317 Y19.5907 
G01 X-64.0552 Y19.5436 
G01 X-64.0813 Y19.4978 
G01 X-64.0968 Y19.4604 
G01 X-64.1107 Y19.4096 
G01 X-64.3170 Y18.7908 
G01 X-64.3472 Y18.8840 
G01 X-64.4582 Y19.1017 
G01 X-64.6018 Y19.2994 
G01 X-64.7746 Y19.4722 
G01 X-64.8927 Y19.5580 
G01 X-64.7746 Y19.6438 
G01 X-64.6018 Y19.8166 
G01 X-64.4582 Y20.0143 
G01 X-64.3472 Y20.2320 
G01 X-64.2717 Y20.4645 
G01 X-64.2335 Y20.7058 
G01 X-64.2335 Y20.9502 
G01 X-64.2717 Y21.1915 
G01 X-64.3472 Y21.4240 
G01 X-64.4582 Y21.6417 
G01 X-64.6018 Y21.8394 
G01 X-64.7746 Y22.0122 
G01 X-64.8927 Y22.0980 
G01 X-64.7746 Y22.1838 
G01 X-64.6904 Y22.2680 
G01 X-61.6354 Y22.2680 
G01 X-61.4644 Y22.2951 
G01 X-61.2997 Y22.3486 
G01 X-61.1455 Y22.4272 
G01 X-61.0054 Y22.5290 
G01 X-60.8830 Y22.6514 
G01 X-54.0250 Y29.5094 
G01 X-53.9232 Y29.6495 
G01 X-53.8741 Y29.7459 
G01 X-53.6908 Y29.6127 
G01 X-53.4653 Y29.4978 
G01 X-53.2245 Y29.4196 
G01 X-52.9746 Y29.3800 
G01 X-52.7214 Y29.3800 
G01 X-52.4715 Y29.4196 
G01 X-52.2307 Y29.4978 
G01 X-52.0052 Y29.6127 
G01 X-51.8005 Y29.7615 
G01 X-51.6739 Y29.8880 
G01 X-51.6416 Y29.8880 
G01 X-51.5574 Y29.8038 
G01 X-51.4393 Y29.7180 
G01 X-51.5574 Y29.6322 
G01 X-51.7302 Y29.4594 
G01 X-51.8738 Y29.2617 
G01 X-51.9848 Y29.0440 
G01 X-52.0603 Y28.8115 
G01 X-52.0985 Y28.5702 
G01 X-52.0985 Y28.3258 
G01 X-52.0603 Y28.0845 
G01 X-51.9848 Y27.8520 
G01 X-51.8738 Y27.6343 
G01 X-51.7302 Y27.4366 
G01 X-51.5574 Y27.2638 
G01 X-51.4393 Y27.1780 
G01 X-51.5574 Y27.0922 
G01 X-51.7302 Y26.9194 
G01 X-51.8738 Y26.7217 
G01 X-51.9848 Y26.5040 
G01 X-52.0603 Y26.2715 
G01 X-52.0985 Y26.0302 
G01 X-52.0985 Y25.7858 
G01 X-52.0603 Y25.5445 
G01 X-51.9848 Y25.3120 
G01 X-51.8738 Y25.0943 
G01 X-51.7302 Y24.8966 
G01 X-51.5574 Y24.7238 
G01 X-51.4393 Y24.6380 
G01 X-51.5574 Y24.5522 
G01 X-51.7302 Y24.3794 
G01 X-51.8738 Y24.1817 
G01 X-51.9848 Y23.9640 
G01 X-52.0603 Y23.7315 
G01 X-52.0985 Y23.4902 
G01 X-52.0985 Y23.2458 
G01 X-52.0603 Y23.0045 
G01 X-51.9848 Y22.7720 
G01 X-51.8738 Y22.5543 
G01 X-51.7302 Y22.3566 
G01 X-51.5574 Y22.1838 
G01 X-51.4393 Y22.0980 
G01 X-51.5574 Y22.0122 
G01 X-51.7302 Y21.8394 
G01 X-51.8738 Y21.6417 
G01 X-51.9848 Y21.4240 
G01 X-52.0603 Y21.1915 
G01 X-52.0985 Y20.9502 
G01 X-52.0985 Y20.7058 
G01 X-52.0603 Y20.4645 
G01 X-51.9848 Y20.2320 
G01 X-51.8738 Y20.0143 
G01 X-51.7302 Y19.8166 
G01 X-51.5574 Y19.6438 
G01 X-51.4393 Y19.5580 
G01 X-51.5574 Y19.4722 
G01 X-51.7302 Y19.2994 
G01 X-51.8738 Y19.1017 
G01 X-51.9848 Y18.8840 
G01 X-52.0603 Y18.6515 
G01 X-52.0985 Y18.4102 
G01 X-52.0985 Y18.1658 
G01 X-52.0603 Y17.9245 
G01 X-51.9848 Y17.6920 
G01 X-51.8738 Y17.4743 
G01 X-51.7302 Y17.2766 
G01 X-51.5574 Y17.1038 
G01 X-51.4393 Y17.0180 
G01 X-51.5574 Y16.9322 
G01 X-51.7302 Y16.7594 
G01 X-51.8738 Y16.5617 
G01 X-51.9848 Y16.3440 
G01 X-52.0603 Y16.1115 
G01 X-52.0985 Y15.8702 
G01 X-52.0985 Y15.6258 
G01 X-52.0603 Y15.3845 
G01 X-51.9848 Y15.1520 
G01 X-51.8738 Y14.9343 
G01 X-51.7302 Y14.7366 
G01 X-51.5574 Y14.5638 
G01 X-51.4393 Y14.4780 
G01 X-51.5574 Y14.3922 
G01 X-51.7302 Y14.2194 
G01 X-51.8738 Y14.0217 
G01 X-51.9848 Y13.8040 
G01 X-52.0603 Y13.5715 
G01 X-52.0985 Y13.3302 
G01 X-52.0985 Y13.0858 
G01 X-52.0603 Y12.8445 
G01 X-51.9848 Y12.6120 
G01 X-51.8738 Y12.3943 
G01 X-51.7302 Y12.1966 
G01 X-51.5574 Y12.0238 
G01 X-51.4393 Y11.9380 
G01 X-51.5574 Y11.8522 
G01 X-51.7302 Y11.6794 
G01 X-51.8738 Y11.4817 
G01 X-51.9848 Y11.2640 
G01 X-52.0603 Y11.0315 
G01 X-52.0985 Y10.7902 
G01 X-52.0985 Y10.5458 
G01 X-52.0603 Y10.3045 
G01 X-51.9848 Y10.0720 
G01 X-51.8738 Y9.8543  
G01 X-51.7302 Y9.6566  
G01 X-51.5574 Y9.4838  
G01 X-51.4393 Y9.3980  
G01 X-51.5574 Y9.3122  
G01 X-51.7302 Y9.1394  
G01 X-51.8738 Y8.9417  
G01 X-51.9848 Y8.7240  
G01 X-52.0603 Y8.4915  
G01 X-52.0985 Y8.2502  
G01 X-52.0985 Y8.0058  
G01 X-52.0603 Y7.7645  
G01 X-51.9848 Y7.5320  
G01 X-51.8738 Y7.3143  
G01 X-51.7302 Y7.1166  
G01 X-51.5574 Y6.9438  
G01 X-51.3597 Y6.8002  
G01 X-51.1420 Y6.6892  
G01 X-50.9095 Y6.6137  
G01 X-50.6682 Y6.5755  
G01 X-50.4238 Y6.5755  
G01 X-50.1825 Y6.6137  
G01 X-49.9500 Y6.6892  
G01 X-49.7323 Y6.8002  
G01 X-49.5346 Y6.9438  
G01 X-49.3618 Y7.1166  
G01 X-49.2182 Y7.3143  
G01 X-49.1072 Y7.5320  
G01 X-49.0317 Y7.7645  
G01 X-48.9935 Y8.0058  
G01 X-48.9935 Y8.2502  
G01 X-49.0317 Y8.4915  
G01 X-49.1072 Y8.7240  
G01 X-49.2182 Y8.9417  
G01 X-49.3618 Y9.1394  
G01 X-49.5346 Y9.3122  
G01 X-49.6527 Y9.3980  
G01 X-49.5346 Y9.4838  
G01 X-49.3618 Y9.6566  
G01 X-49.2182 Y9.8543  
G01 X-49.1072 Y10.0720 
G01 X-49.0317 Y10.3045 
G01 X-48.9935 Y10.5458 
G01 X-48.9935 Y10.7902 
G01 X-49.0317 Y11.0315 
G01 X-49.1072 Y11.2640 
G01 X-49.2182 Y11.4817 
G01 X-49.3618 Y11.6794 
G01 X-49.5346 Y11.8522 
G01 X-49.6527 Y11.9380 
G01 X-49.5346 Y12.0238 
G01 X-49.3618 Y12.1966 
G01 X-49.2182 Y12.3943 
G01 X-49.1072 Y12.6120 
G01 X-49.0317 Y12.8445 
G01 X-48.9935 Y13.0858 
G01 X-48.9935 Y13.3302 
G01 X-49.0317 Y13.5715 
G01 X-49.1072 Y13.8040 
G01 X-49.2182 Y14.0217 
G01 X-49.3618 Y14.2194 
G01 X-49.5346 Y14.3922 
G01 X-49.6527 Y14.4780 
G01 X-49.5346 Y14.5638 
G01 X-49.3618 Y14.7366 
G01 X-49.2182 Y14.9343 
G01 X-49.1072 Y15.1520 
G01 X-49.0317 Y15.3845 
G01 X-48.9935 Y15.6258 
G01 X-48.9935 Y15.8702 
G01 X-49.0317 Y16.1115 
G01 X-49.1072 Y16.3440 
G01 X-49.2182 Y16.5617 
G01 X-49.3618 Y16.7594 
G01 X-49.5346 Y16.9322 
G01 X-49.6527 Y17.0180 
G01 X-49.5346 Y17.1038 
G01 X-49.3618 Y17.2766 
G01 X-49.2182 Y17.4743 
G01 X-49.1072 Y17.6920 
G01 X-49.0317 Y17.9245 
G01 X-48.9935 Y18.1658 
G01 X-48.9935 Y18.4102 
G01 X-49.0317 Y18.6515 
G01 X-49.1072 Y18.8840 
G01 X-49.2182 Y19.1017 
G01 X-49.3618 Y19.2994 
G01 X-49.5346 Y19.4722 
G01 X-49.6527 Y19.5580 
G01 X-49.5346 Y19.6438 
G01 X-49.4504 Y19.7280 
G01 X-42.9189 Y19.7280 
G01 X-43.0942 Y19.5534 
G01 X-43.2378 Y19.3557 
G01 X-43.3488 Y19.1380 
G01 X-43.4243 Y18.9055 
G01 X-43.4625 Y18.6642 
G01 X-43.4625 Y18.4198 
G01 X-43.4243 Y18.1785 
G01 X-43.3488 Y17.9460 
G01 X-43.2378 Y17.7283 
G01 X-43.0942 Y17.5306 
G01 X-43.0100 Y17.4464 
G01 X-43.0100 Y17.0976 
G01 X-43.0942 Y17.0134 
G01 X-43.2378 Y16.8157 
G01 X-43.3488 Y16.5980 
G01 X-43.4243 Y16.3655 
G01 X-43.4625 Y16.1242 
G01 X-43.4625 Y15.8798 
G01 X-43.4243 Y15.6385 
G01 X-43.3488 Y15.4060 
G01 X-43.2378 Y15.1883 
G01 X-43.0942 Y14.9906 
G01 X-42.9214 Y14.8178 
G01 X-42.8033 Y14.7320 
G01 X-42.9214 Y14.6462 
G01 X-43.0942 Y14.4734 
G01 X-43.2378 Y14.2757 
G01 X-43.3488 Y14.0580 
G01 X-43.4243 Y13.8255 
G01 X-43.4625 Y13.5842 
G01 X-43.4625 Y13.3398 
G01 X-43.4243 Y13.0985 
G01 X-43.3488 Y12.8660 
G01 X-43.2378 Y12.6483 
G01 X-43.0942 Y12.4506 
G01 X-42.9214 Y12.2778 
G01 X-42.8033 Y12.1920 
G01 X-42.9214 Y12.1062 
G01 X-43.0942 Y11.9334 
G01 X-43.2378 Y11.7357 
G01 X-43.3488 Y11.5180 
G01 X-43.4243 Y11.2855 
G01 X-43.4625 Y11.0442 
G01 X-43.4625 Y10.7998 
G01 X-43.4243 Y10.5585 
G01 X-43.3488 Y10.3260 
G01 X-43.2378 Y10.1083 
G01 X-43.0942 Y9.9106  
G01 X-42.9214 Y9.7378  
G01 X-42.8033 Y9.6520  
G01 X-42.9214 Y9.5662  
G01 X-43.0942 Y9.3934  
G01 X-43.2378 Y9.1957  
G01 X-43.3488 Y8.9780  
G01 X-43.4243 Y8.7455  
G01 X-43.4625 Y8.5042  
G01 X-43.4625 Y8.2598  
G01 X-43.4243 Y8.0185  
G01 X-43.3488 Y7.7860  
G01 X-43.2378 Y7.5683  
G01 X-43.0942 Y7.3706  
G01 X-42.9214 Y7.1978  
G01 X-42.8033 Y7.1120  
G01 X-42.9214 Y7.0262  
G01 X-43.0942 Y6.8534  
G01 X-43.2378 Y6.6557  
G01 X-43.3488 Y6.4380  
G01 X-43.4243 Y6.2055  
G01 X-43.4625 Y5.9642  
G01 X-43.4625 Y5.7198  
G01 X-43.4243 Y5.4785  
G01 X-43.3488 Y5.2460  
G01 X-43.2378 Y5.0283  
G01 X-43.0942 Y4.8306  
G01 X-42.9214 Y4.6578  
G01 X-42.7237 Y4.5142  
G01 X-42.5060 Y4.4032  
G01 X-42.2735 Y4.3277  
G01 X-42.0322 Y4.2895  
G01 X-41.7878 Y4.2895  
G01 X-41.5465 Y4.3277  
G01 X-41.3140 Y4.4032  
G01 X-41.0963 Y4.5142  
G01 X-40.8986 Y4.6578  
G01 X-40.7258 Y4.8306  
G01 X-40.5822 Y5.0283  
G01 X-40.4712 Y5.2460  
G01 X-40.3957 Y5.4785  
G01 X-40.3575 Y5.7198  
G01 X-40.3575 Y5.9642  
G01 X-40.3957 Y6.2055  
G01 X-40.4712 Y6.4380  
G01 X-40.5822 Y6.6557  
G01 X-40.7258 Y6.8534  
G01 X-40.8986 Y7.0262  
G01 X-41.0167 Y7.1120  
G01 X-40.8986 Y7.1978  
G01 X-40.7258 Y7.3706  
G01 X-40.5822 Y7.5683  
G01 X-40.4712 Y7.7860  
G01 X-40.3957 Y8.0185  
G01 X-40.3575 Y8.2598  
G01 X-40.3575 Y8.5042  
G01 X-40.3957 Y8.7455  
G01 X-40.4712 Y8.9780  
G01 X-40.5822 Y9.1957  
G01 X-40.7258 Y9.3934  
G01 X-40.8986 Y9.5662  
G01 X-41.0167 Y9.6520  
G01 X-40.8986 Y9.7378  
G01 X-40.7258 Y9.9106  
G01 X-40.5822 Y10.1083 
G01 X-40.4712 Y10.3260 
G01 X-40.3957 Y10.5585 
G01 X-40.3575 Y10.7998 
G01 X-40.3575 Y11.0442 
G01 X-40.3957 Y11.2855 
G01 X-40.4712 Y11.5180 
G01 X-40.5822 Y11.7357 
G01 X-40.7258 Y11.9334 
G01 X-40.8986 Y12.1062 
G01 X-41.0167 Y12.1920 
G01 X-40.8986 Y12.2778 
G01 X-40.7258 Y12.4506 
G01 X-40.5822 Y12.6483 
G01 X-40.4712 Y12.8660 
G01 X-40.3957 Y13.0985 
G01 X-40.3575 Y13.3398 
G01 X-40.3575 Y13.5842 
G01 X-40.3957 Y13.8255 
G01 X-40.4712 Y14.0580 
G01 X-40.5822 Y14.2757 
G01 X-40.7258 Y14.4734 
G01 X-40.8986 Y14.6462 
G01 X-41.0167 Y14.7320 
G01 X-40.8986 Y14.8178 
G01 X-40.7258 Y14.9906 
G01 X-40.5822 Y15.1883 
G01 X-40.4712 Y15.4060 
G01 X-40.3957 Y15.6385 
G01 X-40.3575 Y15.8798 
G01 X-40.3575 Y16.1242 
G01 X-40.3957 Y16.3655 
G01 X-40.4712 Y16.5980 
G01 X-40.5822 Y16.8157 
G01 X-40.7258 Y17.0134 
G01 X-40.8100 Y17.0976 
G01 X-40.8100 Y17.4464 
G01 X-40.7258 Y17.5306 
G01 X-40.5822 Y17.7283 
G01 X-40.4712 Y17.9460 
G01 X-40.3957 Y18.1785 
G01 X-40.3575 Y18.4198 
G01 X-40.3575 Y18.6642 
G01 X-40.3957 Y18.9055 
G01 X-40.4712 Y19.1380 
G01 X-40.5822 Y19.3557 
G01 X-40.7258 Y19.5534 
G01 X-40.8986 Y19.7262 
G01 X-41.0167 Y19.8120 
G01 X-40.8986 Y19.8978 
G01 X-40.7258 Y20.0706 
G01 X-40.5822 Y20.2683 
G01 X-40.4712 Y20.4860 
G01 X-40.3957 Y20.7185 
G01 X-40.3575 Y20.9598 
G01 X-40.3575 Y21.2042 
G01 X-40.3957 Y21.4455 
G01 X-40.4712 Y21.6780 
G01 X-40.5822 Y21.8957 
G01 X-40.7258 Y22.0934 
G01 X-40.8986 Y22.2662 
G01 X-41.0167 Y22.3520 
G01 X-40.8986 Y22.4378 
G01 X-40.7258 Y22.6106 
G01 X-40.5822 Y22.8083 
G01 X-40.4712 Y23.0260 
G01 X-40.3957 Y23.2585 
G01 X-40.3575 Y23.4998 
G01 X-40.3575 Y23.7442 
G01 X-40.3957 Y23.9855 
G01 X-40.4712 Y24.2180 
G01 X-40.5822 Y24.4357 
G01 X-40.7258 Y24.6334 
G01 X-40.8986 Y24.8062 
G01 X-41.0963 Y24.9498 
G01 X-41.3140 Y25.0608 
G01 X-41.5465 Y25.1363 
G01 X-41.7878 Y25.1745 
G01 X-42.0322 Y25.1745 
G01 X-42.2735 Y25.1363 
G01 X-42.5060 Y25.0608 
G01 X-42.7237 Y24.9498 
G01 X-42.9214 Y24.8062 
G01 X-43.0056 Y24.7220 
G01 X-49.5371 Y24.7220 
G01 X-49.4504 Y24.8080 
G01 X-46.6494 Y24.8080 
G01 X-46.4784 Y24.8351 
G01 X-46.3137 Y24.8886 
G01 X-46.1595 Y24.9672 
G01 X-46.0194 Y25.0690 
G01 X-43.3570 Y27.7314 
G01 X-43.2552 Y27.8715 
G01 X-43.1766 Y28.0257 
G01 X-43.1231 Y28.1904 
G01 X-43.0960 Y28.3614 
G01 X-43.0960 Y29.2529 
G01 X-42.9838 Y29.0313 
G01 X-42.8402 Y28.8336 
G01 X-42.6674 Y28.6608 
G01 X-42.4697 Y28.5172 
G01 X-42.2520 Y28.4062 
G01 X-42.0195 Y28.3307 
G01 X-41.7782 Y28.2925 
G01 X-41.5338 Y28.2925 
G01 X-41.2925 Y28.3307 
G01 X-41.0600 Y28.4062 
G01 X-40.8423 Y28.5172 
G01 X-40.6446 Y28.6608 
G01 X-40.4718 Y28.8336 
G01 X-40.3282 Y29.0313 
G01 X-40.2172 Y29.2490 
G01 X-40.2160 Y25.5674 
G01 X-40.1889 Y25.3964 
G01 X-40.1354 Y25.2317 
G01 X-40.0568 Y25.0775 
G01 X-39.9550 Y24.9374 
G01 X-37.9230 Y22.9054 
G01 X-37.8006 Y22.7830 
G01 X-37.6605 Y22.6812 
G01 X-37.6272 Y22.6642 
G01 X-37.7145 Y22.6504 
G01 X-37.9553 Y22.5722 
G01 X-38.1808 Y22.4573 
G01 X-38.3855 Y22.3085 
G01 X-38.5645 Y22.1295 
G01 X-38.7133 Y21.9248 
G01 X-38.8282 Y21.6993 
G01 X-38.9064 Y21.4585 
G01 X-38.9460 Y21.2086 
G01 X-38.9460 Y20.9554 
G01 X-38.9064 Y20.7055 
G01 X-38.8282 Y20.4647 
G01 X-38.7133 Y20.2392 
G01 X-38.5645 Y20.0345 
G01 X-38.3855 Y19.8555 
G01 X-38.1808 Y19.7067 
G01 X-37.9553 Y19.5918 
G01 X-37.7145 Y19.5136 
G01 X-37.4646 Y19.4740 
G01 X-37.2114 Y19.4740 
G01 X-36.9615 Y19.5136 
G01 X-36.7207 Y19.5918 
G01 X-36.4952 Y19.7067 
G01 X-36.2905 Y19.8555 
G01 X-36.1639 Y19.9820 
G01 X-30.3056 Y19.9820 
G01 X-30.2214 Y19.8978 
G01 X-30.1033 Y19.8120 
G01 X-30.2214 Y19.7262 
G01 X-30.3942 Y19.5534 
G01 X-30.5378 Y19.3557 
G01 X-30.6488 Y19.1380 
G01 X-30.7374 Y18.9643 
G01 X-30.7909 Y18.7996 
G01 X-30.8180 Y18.6286 
G01 X-30.8180 Y18.4554 
G01 X-30.7909 Y18.2844 
G01 X-30.7374 Y18.1197 
G01 X-30.6588 Y17.9655 
G01 X-30.5378 Y17.7283 
G01 X-30.3942 Y17.5306 
G01 X-30.2214 Y17.3578 
G01 X-30.1033 Y17.2720 
G01 X-30.2214 Y17.1862 
G01 X-30.3056 Y17.1020 
G01 X-30.5530 Y17.1020 
G01 X-30.5649 Y17.1770 
G01 X-30.6349 Y17.3923 
G01 X-30.7376 Y17.5940 
G01 X-30.8707 Y17.7771 
G01 X-31.0308 Y17.9372 
G01 X-31.2139 Y18.0703 
G01 X-31.4156 Y18.1730 
G01 X-31.6309 Y18.2430 
G01 X-31.8545 Y18.2784 
G01 X-32.0809 Y18.2784 
G01 X-32.3045 Y18.2430 
G01 X-32.5198 Y18.1730 
G01 X-32.7215 Y18.0703 
G01 X-32.9046 Y17.9372 
G01 X-33.0647 Y17.7771 
G01 X-33.1978 Y17.5940 
G01 X-33.3005 Y17.3923 
G01 X-33.3556 Y17.2227 
G01 X-33.4107 Y17.3923 
G01 X-33.5135 Y17.5940 
G01 X-33.6466 Y17.7771 
G01 X-33.8066 Y17.9372 
G01 X-33.9898 Y18.0703 
G01 X-34.1915 Y18.1730 
G01 X-34.4068 Y18.2430 
G01 X-34.6304 Y18.2784 
G01 X-34.8567 Y18.2784 
G01 X-35.0803 Y18.2430 
G01 X-35.2956 Y18.1730 
G01 X-35.4973 Y18.0703 
G01 X-35.6805 Y17.9372 
G01 X-35.8406 Y17.7771 
G01 X-35.9736 Y17.5940 
G01 X-36.0764 Y17.3923 
G01 X-36.1463 Y17.1770 
G01 X-36.1818 Y16.9534 
G01 X-36.1818 Y15.0506 
G01 X-36.1463 Y14.8270 
G01 X-36.0764 Y14.6117 
G01 X-35.9736 Y14.4100 
G01 X-35.8406 Y14.2269 
G01 X-35.6805 Y14.0668 
G01 X-35.4973 Y13.9337 
G01 X-35.2956 Y13.8310 
G01 X-35.0803 Y13.7610 
G01 X-34.8567 Y13.7256 
G01 X-34.6304 Y13.7256 
G01 X-34.4068 Y13.7610 
G01 X-34.1915 Y13.8310 
G01 X-33.9898 Y13.9337 
G01 X-33.8066 Y14.0668 
G01 X-33.6466 Y14.2269 
G01 X-33.5135 Y14.4100 
G01 X-33.4107 Y14.6117 
G01 X-33.3556 Y14.7813 
G01 X-33.3005 Y14.6117 
G01 X-33.1978 Y14.4100 
G01 X-33.0647 Y14.2269 
G01 X-32.9046 Y14.0668 
G01 X-32.7215 Y13.9337 
G01 X-32.5198 Y13.8310 
G01 X-32.3045 Y13.7610 
G01 X-32.0809 Y13.7256 
G01 X-31.8545 Y13.7256 
G01 X-31.6309 Y13.7610 
G01 X-31.4156 Y13.8310 
G01 X-31.2139 Y13.9337 
G01 X-31.0308 Y14.0668 
G01 X-30.8707 Y14.2269 
G01 X-30.7376 Y14.4100 
G01 X-30.6349 Y14.6117 
G01 X-30.5649 Y14.8270 
G01 X-30.5530 Y14.9020 
G01 X-30.3056 Y14.9020 
G01 X-30.2214 Y14.8178 
G01 X-30.1033 Y14.7320 
G01 X-30.2214 Y14.6462 
G01 X-30.3942 Y14.4734 
G01 X-30.5378 Y14.2757 
G01 X-30.6488 Y14.0580 
G01 X-30.7243 Y13.8255 
G01 X-30.7625 Y13.5842 
G01 X-30.7625 Y13.3398 
G01 X-30.7243 Y13.0985 
G01 X-30.6488 Y12.8660 
G01 X-30.5378 Y12.6483 
G01 X-30.3942 Y12.4506 
G01 X-30.2214 Y12.2778 
G01 X-30.1033 Y12.1920 
G01 X-30.2214 Y12.1062 
G01 X-30.3942 Y11.9334 
G01 X-30.5378 Y11.7357 
G01 X-30.6488 Y11.5180 
G01 X-30.7243 Y11.2855 
G01 X-30.7625 Y11.0442 
G01 X-30.7625 Y10.7998 
G01 X-30.7243 Y10.5585 
G01 X-30.6488 Y10.3260 
G01 X-30.5378 Y10.1083 
G01 X-30.3942 Y9.9106  
G01 X-30.2214 Y9.7378  
G01 X-30.1033 Y9.6520  
G01 X-30.2214 Y9.5662  
G01 X-30.3056 Y9.4820  
G01 X-30.5530 Y9.4820  
G01 X-30.5649 Y9.5570  
G01 X-30.6349 Y9.7723  
G01 X-30.7376 Y9.9740  
G01 X-30.8707 Y10.1571 
G01 X-31.0308 Y10.3172 
G01 X-31.2139 Y10.4503 
G01 X-31.4156 Y10.5530 
G01 X-31.6309 Y10.6230 
G01 X-31.8545 Y10.6584 
G01 X-32.0809 Y10.6584 
G01 X-32.3045 Y10.6230 
G01 X-32.5198 Y10.5530 
G01 X-32.7215 Y10.4503 
G01 X-32.9046 Y10.3172 
G01 X-33.0647 Y10.1571 
G01 X-33.1978 Y9.9740  
G01 X-33.3005 Y9.7723  
G01 X-33.3556 Y9.6027  
G01 X-33.4107 Y9.7723  
G01 X-33.5135 Y9.9740  
G01 X-33.6466 Y10.1571 
G01 X-33.8066 Y10.3172 
G01 X-33.9898 Y10.4503 
G01 X-34.1915 Y10.5530 
G01 X-34.4068 Y10.6230 
G01 X-34.6304 Y10.6584 
G01 X-34.8567 Y10.6584 
G01 X-35.0803 Y10.6230 
G01 X-35.2956 Y10.5530 
G01 X-35.4973 Y10.4503 
G01 X-35.6805 Y10.3172 
G01 X-35.8406 Y10.1571 
G01 X-35.9736 Y9.9740  
G01 X-36.0764 Y9.7723  
G01 X-36.1463 Y9.5570  
G01 X-36.1818 Y9.3334  
G01 X-36.1818 Y7.4306  
G01 X-36.1463 Y7.2070  
G01 X-36.0764 Y6.9917  
G01 X-35.9736 Y6.7900  
G01 X-35.8436 Y6.6110  
G01 X-35.8436 Y5.9550  
G01 X-35.8165 Y5.7840  
G01 X-35.7630 Y5.6193  
G01 X-35.6844 Y5.4650  
G01 X-35.5826 Y5.3250  
G01 X-35.4602 Y5.2025  
G01 X-33.9906 Y3.7330  
G01 X-33.8505 Y3.6312  
G01 X-33.6963 Y3.5526  
G01 X-33.5316 Y3.4991  
G01 X-33.3606 Y3.4720  
G01 X-29.9196 Y3.4720  
G01 X-27.6406 Y1.1930  
G01 X-27.5005 Y1.0912  
G01 X-27.3463 Y1.0126  
G01 X-27.1816 Y0.9591  
G01 X-27.0106 Y0.9320  
G01 X-23.7894 Y0.9320  
G01 X-23.6184 Y0.9591  
G01 X-23.4537 Y1.0126  
G01 X-23.2995 Y1.0912  
G01 X-23.1594 Y1.1930  
G01 X-22.3430 Y2.0094  
G01 X-21.7624 Y2.5900  
G01 X-21.1344 Y3.2180  
G01 X-20.5670 Y3.2180  
G01 X-20.3880 Y3.0879  
G01 X-20.1863 Y2.9852  
G01 X-19.9710 Y2.9152  
G01 X-19.7474 Y2.8798  
G01 X-17.8446 Y2.8798  
G01 X-17.6210 Y2.9152  
G01 X-17.4057 Y2.9852  
G01 X-17.2040 Y3.0879  
G01 X-17.0209 Y3.2210  
G01 X-16.8608 Y3.3811  
G01 X-16.7277 Y3.5642  
G01 X-16.6250 Y3.7659  
G01 X-16.5550 Y3.9812  
G01 X-16.5196 Y4.2048  
G01 X-16.5196 Y4.4312  
G01 X-16.5550 Y4.6548  
G01 X-16.6250 Y4.8701  
G01 X-16.7277 Y5.0718  
G01 X-16.8608 Y5.2549  
G01 X-17.0209 Y5.4150  
G01 X-17.2040 Y5.5481  
G01 X-17.4057 Y5.6508  
G01 X-17.6210 Y5.7208  
G01 X-17.8446 Y5.7562  
G01 X-19.7474 Y5.7562  
G01 X-19.9710 Y5.7208  
G01 X-20.1863 Y5.6508  
G01 X-20.3880 Y5.5481  
G01 X-20.5670 Y5.4180  
G01 X-21.3339 Y5.4180  
G01 X-21.6082 Y5.6922  
G01 X-21.6214 Y6.5394  
G01 X-21.6568 Y6.7630  
G01 X-21.7267 Y6.9783  
G01 X-21.8295 Y7.1800  
G01 X-21.9036 Y7.2820  
G01 X-21.0724 Y7.2820  
G01 X-21.0724 Y7.2528  
G01 X-21.0370 Y7.0292  
G01 X-20.9670 Y6.8139  
G01 X-20.8643 Y6.6122  
G01 X-20.7312 Y6.4291  
G01 X-20.5711 Y6.2690  
G01 X-20.3880 Y6.1359  
G01 X-20.1863 Y6.0332  
G01 X-19.9710 Y5.9632  
G01 X-19.7474 Y5.9278  
G01 X-17.8446 Y5.9278  
G01 X-17.6210 Y5.9632  
G01 X-17.4057 Y6.0332  
G01 X-17.2040 Y6.1359  
G01 X-17.0209 Y6.2690  
G01 X-16.8608 Y6.4291  
G01 X-16.7277 Y6.6122  
G01 X-16.6250 Y6.8139  
G01 X-16.5550 Y7.0292  
G01 X-16.5196 Y7.2528  
G01 X-16.5196 Y7.4792  
G01 X-16.5550 Y7.7028  
G01 X-16.6250 Y7.9181  
G01 X-16.7277 Y8.1198  
G01 X-16.8608 Y8.3029  
G01 X-17.0209 Y8.4630  
G01 X-17.2040 Y8.5961  
G01 X-17.4057 Y8.6988  
G01 X-17.6210 Y8.7688  
G01 X-17.8446 Y8.8042  
G01 X-18.6786 Y8.8042  
G01 X-19.0954 Y9.2210  
G01 X-19.2355 Y9.3228  
G01 X-19.3897 Y9.4014  
G01 X-19.4581 Y9.4236  
G01 X-14.7892 Y9.4236  
G01 X-13.3257 Y7.9600  
G01 X-13.3470 Y7.9181  
G01 X-13.4170 Y7.7028  
G01 X-13.4524 Y7.4792  
G01 X-13.4524 Y7.2528  
G01 X-13.4170 Y7.0292  
G01 X-13.3470 Y6.8139  
G01 X-13.2443 Y6.6122  
G01 X-13.1112 Y6.4291  
G01 X-12.9511 Y6.2690  
G01 X-12.7680 Y6.1359  
G01 X-12.5663 Y6.0332  
G01 X-12.3510 Y5.9632  
G01 X-12.2760 Y5.9513  
G01 X-12.2760 Y5.7327  
G01 X-12.3510 Y5.7208  
G01 X-12.5663 Y5.6508  
G01 X-12.7680 Y5.5481  
G01 X-12.9511 Y5.4150  
G01 X-13.1112 Y5.2549  
G01 X-13.2443 Y5.0718  
G01 X-13.3470 Y4.8701  
G01 X-13.4170 Y4.6548  
G01 X-13.4524 Y4.4312  
G01 X-13.4524 Y4.2048  
G01 X-13.4170 Y3.9812  
G01 X-13.3470 Y3.7659  
G01 X-13.2443 Y3.5642  
G01 X-13.1112 Y3.3811  
G01 X-12.9511 Y3.2210  
G01 X-12.7680 Y3.0879  
G01 X-12.5663 Y2.9852  
G01 X-12.3510 Y2.9152  
G01 X-12.1274 Y2.8798  
G01 X-10.2246 Y2.8798  
G01 X-10.0010 Y2.9152  
G01 X-9.7857 Y2.9852  
G01 X-9.5840 Y3.0879  
G01 X-9.4009 Y3.2210  
G01 X-9.2408 Y3.3811  
G01 X-9.1077 Y3.5642  
G01 X-9.0050 Y3.7659  
G01 X-8.9350 Y3.9812  
G01 X-8.8996 Y4.2048  
G01 X-8.8996 Y4.4312  
G01 X-8.9350 Y4.6548  
G01 X-9.0050 Y4.8701  
G01 X-9.0263 Y4.9120  
G01 X-8.4414 Y5.4970  
G01 X-6.3595 Y5.4970  
G01 X-6.2324 Y5.3698  
G01 X-6.0630 Y5.2399  
G01 X-5.8781 Y5.1331  
G01 X-5.6809 Y5.0514  
G01 X-5.4746 Y4.9962  
G01 X-5.2630 Y4.9683  
G01 X-2.9920 Y4.9683  
G01 X-2.7804 Y4.9962  
G01 X-2.5741 Y5.0514  
G01 X-2.3769 Y5.1331  
G01 X-2.1920 Y5.2399  
G01 X-2.0226 Y5.3698  
G01 X-1.8717 Y5.5208  
G01 X-1.7417 Y5.6902  
G01 X-1.6349 Y5.8751  
G01 X-1.5532 Y6.0723  
G01 X-1.4980 Y6.2786  
G01 X-1.4701 Y6.4902  
G01 X-1.4701 Y6.7038  
G01 X-1.4980 Y6.9154  
G01 X-1.5532 Y7.1216  
G01 X-1.6349 Y7.3189  
G01 X-1.7417 Y7.5038  
G01 X-1.8717 Y7.6732  
G01 X-2.0226 Y7.8241  
G01 X-2.1920 Y7.9541  
G01 X-2.3769 Y8.0609  
G01 X-2.5741 Y8.1426  
G01 X-2.7804 Y8.1978  
G01 X-2.9920 Y8.2257  
G01 X-5.2630 Y8.2257  
G01 X-5.4746 Y8.1978  
G01 X-5.6809 Y8.1426  
G01 X-5.8781 Y8.0609  
G01 X-6.0630 Y7.9541  
G01 X-6.2324 Y7.8241  
G01 X-6.3595 Y7.6970  
G01 X-7.9264 Y7.6970  
G01 X-8.5660 Y8.3366  
G01 X-8.6884 Y8.4590  
G01 X-8.8285 Y8.5608  
G01 X-8.9827 Y8.6394  
G01 X-9.1474 Y8.6929  
G01 X-9.3184 Y8.7200  
G01 X-9.8509 Y8.7200  
G01 X-10.0010 Y8.7688  
G01 X-10.2246 Y8.8042  
G01 X-11.0586 Y8.8042  
G01 X-13.4946 Y11.2402 
G01 X-13.6170 Y11.3626 
G01 X-13.7571 Y11.4644 
G01 X-13.9113 Y11.5430 
G01 X-14.0760 Y11.5965 
G01 X-14.2470 Y11.6236 
G01 X-21.8256 Y11.6236 
G01 X-21.7267 Y11.8177 
G01 X-21.6568 Y12.0330 
G01 X-21.6449 Y12.1080 
G01 X-6.7054 Y12.1080 
G01 X-6.7570 Y11.9154 
G01 X-6.7849 Y11.7037 
G01 X-6.7849 Y11.4902 
G01 X-6.7570 Y11.2786 
G01 X-6.7018 Y11.0723 
G01 X-6.6201 Y10.8751 
G01 X-6.5133 Y10.6902 
G01 X-6.3833 Y10.5208 
G01 X-6.2324 Y10.3698 
G01 X-6.0630 Y10.2399 
G01 X-5.8781 Y10.1331 
G01 X-5.6809 Y10.0514 
G01 X-5.4746 Y9.9962  
G01 X-5.2630 Y9.9683  
G01 X-2.9920 Y9.9683  
G01 X-2.7804 Y9.9962  
G01 X-2.5741 Y10.0514 
G01 X-2.3769 Y10.1331 
G01 X-2.1920 Y10.2399 
G01 X-2.0226 Y10.3698 
G01 X-1.8717 Y10.5208 
G01 X-1.7417 Y10.6902 
G01 X-1.6349 Y10.8751 
G01 X-1.5532 Y11.0723 
G01 X-1.4980 Y11.2786 
G01 X-1.4701 Y11.4902 
G01 X-1.4701 Y11.7037 
G01 X-1.4980 Y11.9154 
G01 X-1.5532 Y12.1217 
G01 X-1.6349 Y12.3189 
G01 X-1.7417 Y12.5038 
G01 X-1.8717 Y12.6732 
G01 X-2.0226 Y12.8241 
G01 X-2.1920 Y12.9541 
G01 X-2.3769 Y13.0609 
G01 X-2.5741 Y13.1426 
G01 X-2.7804 Y13.1978 
G01 X-2.9920 Y13.2257 
G01 X-4.2006 Y13.2257 
G01 X-5.0219 Y14.0470 
G01 X-5.1620 Y14.1488 
G01 X-5.3162 Y14.2274 
G01 X-5.4809 Y14.2809 
G01 X-5.6519 Y14.3080 
G01 X-21.6449 Y14.3080 
G01 X-21.6568 Y14.3830 
G01 X-21.7267 Y14.5983 
G01 X-21.8295 Y14.8000 
G01 X-21.9036 Y14.9020 
G01 X-12.1054 Y14.9020 
G01 X-11.9344 Y14.9291 
G01 X-11.7697 Y14.9826 
G01 X-11.6155 Y15.0612 
G01 X-11.4754 Y15.1630 
G01 X-11.1414 Y15.4970 
G01 X-6.3595 Y15.4970 
G01 X-6.2324 Y15.3698 
G01 X-6.0630 Y15.2399 
G01 X-5.8781 Y15.1331 
G01 X-5.6809 Y15.0514 
G01 X-5.4746 Y14.9962 
G01 X-5.2630 Y14.9683 
G01 X-2.9920 Y14.9683 
G01 X-2.7804 Y14.9962 
G01 X-2.5741 Y15.0514 
G01 X-2.3769 Y15.1331 
G01 X-2.1920 Y15.2399 
G01 X-2.0226 Y15.3698 
G01 X-1.8717 Y15.5208 
G01 X-1.7417 Y15.6902 
G01 X-1.6349 Y15.8751 
G01 X-1.5532 Y16.0723 
G01 X-1.4980 Y16.2786 
G01 X-1.4701 Y16.4902 
G01 X-1.4701 Y16.7037 
G01 X-1.4980 Y16.9154 
G01 X-1.5532 Y17.1216 
G01 X-1.6349 Y17.3189 
G01 X-1.7417 Y17.5038 
G01 X-1.8717 Y17.6732 
G01 X-2.0226 Y17.8241 
G01 X-2.1920 Y17.9541 
G01 X-2.3769 Y18.0609 
G01 X-2.5741 Y18.1426 
G01 X-2.7804 Y18.1978 
G01 X-2.9920 Y18.2257 
G01 X-5.2630 Y18.2257 
G01 X-5.4746 Y18.1978 
G01 X-5.6809 Y18.1426 
G01 X-5.8781 Y18.0609 
G01 X-6.0630 Y17.9541 
G01 X-6.2324 Y17.8241 
G01 X-6.3595 Y17.6970 
G01 X-11.6836 Y17.6970 
G01 X-11.8546 Y17.6699 
G01 X-12.0193 Y17.6164 
G01 X-12.1735 Y17.5378 
G01 X-12.3136 Y17.4360 
G01 X-12.6476 Y17.1020 
G01 X-28.1144 Y17.1020 
G01 X-28.1986 Y17.1862 
G01 X-13.5024 Y17.1880 
G01 X-13.3314 Y17.2151 
G01 X-13.1667 Y17.2686 
G01 X-13.0125 Y17.3472 
G01 X-12.8724 Y17.4490 
G01 X-12.7500 Y17.5714 
G01 X-11.4396 Y18.8818 
G01 X-10.6056 Y18.8818 
G01 X-10.3820 Y18.9172 
G01 X-10.1667 Y18.9872 
G01 X-9.9650 Y19.0899 
G01 X-9.7819 Y19.2230 
G01 X-9.6218 Y19.3831 
G01 X-9.4887 Y19.5662 
G01 X-9.3860 Y19.7679 
G01 X-9.3160 Y19.9832 
G01 X-9.2806 Y20.2068 
G01 X-9.2806 Y20.4332 
G01 X-9.2907 Y20.4970 
G01 X-6.3595 Y20.4970 
G01 X-6.2324 Y20.3698 
G01 X-6.0630 Y20.2399 
G01 X-5.8781 Y20.1331 
G01 X-5.6809 Y20.0514 
G01 X-5.4746 Y19.9962 
G01 X-5.2630 Y19.9683 
G01 X-2.9920 Y19.9683 
G01 X-2.7804 Y19.9962 
G01 X-2.5741 Y20.0514 
G01 X-2.3769 Y20.1331 
G01 X-2.1920 Y20.2399 
G01 X-2.0226 Y20.3698 
G01 X-1.8717 Y20.5208 
G01 X-1.7417 Y20.6902 
G01 X-1.6349 Y20.8751 
G01 X-1.5532 Y21.0723 
G01 X-1.4980 Y21.2786 
G01 X-1.4701 Y21.4902 
G01 X-1.4701 Y21.7037 
G01 X-1.4980 Y21.9154 
G01 X-1.5532 Y22.1216 
G01 X-1.6349 Y22.3189 
G01 X-1.7417 Y22.5038 
G01 X-1.8717 Y22.6732 
G01 X-2.0226 Y22.8241 
G01 X-2.1920 Y22.9541 
G01 X-2.3769 Y23.0609 
G01 X-2.5741 Y23.1426 
G01 X-2.7804 Y23.1978 
G01 X-2.9920 Y23.2257 
G01 X-5.2630 Y23.2257 
G01 X-5.4746 Y23.1978 
G01 X-5.6809 Y23.1426 
G01 X-5.8781 Y23.0609 
G01 X-6.0630 Y22.9541 
G01 X-6.2324 Y22.8241 
G01 X-6.3595 Y22.6970 
G01 X-9.3421 Y22.6970 
G01 X-9.3160 Y22.7772 
G01 X-9.2806 Y23.0008 
G01 X-9.2806 Y23.2272 
G01 X-9.3160 Y23.4508 
G01 X-9.3860 Y23.6661 
G01 X-9.4887 Y23.8678 
G01 X-9.6218 Y24.0509 
G01 X-9.7819 Y24.2110 
G01 X-9.9650 Y24.3441 
G01 X-10.1667 Y24.4468 
G01 X-10.3820 Y24.5168 
G01 X-10.6056 Y24.5522 
G01 X-12.5084 Y24.5522 
G01 X-12.7320 Y24.5168 
G01 X-12.9473 Y24.4468 
G01 X-13.1490 Y24.3441 
G01 X-13.3321 Y24.2110 
G01 X-13.4922 Y24.0509 
G01 X-13.6253 Y23.8678 
G01 X-13.7280 Y23.6661 
G01 X-13.7980 Y23.4508 
G01 X-13.8334 Y23.2272 
G01 X-13.8334 Y23.0008 
G01 X-13.7980 Y22.7772 
G01 X-13.7280 Y22.5619 
G01 X-13.6253 Y22.3602 
G01 X-13.4922 Y22.1771 
G01 X-13.3321 Y22.0170 
G01 X-13.1490 Y21.8839 
G01 X-12.9473 Y21.7812 
G01 X-12.7498 Y21.7170 
G01 X-12.9473 Y21.6528 
G01 X-13.1490 Y21.5501 
G01 X-13.3321 Y21.4170 
G01 X-13.4922 Y21.2569 
G01 X-13.6253 Y21.0738 
G01 X-13.7280 Y20.8721 
G01 X-13.7980 Y20.6568 
G01 X-13.8334 Y20.4332 
G01 X-13.8334 Y20.2068 
G01 X-13.7980 Y19.9832 
G01 X-13.7280 Y19.7679 
G01 X-13.7067 Y19.7260 
G01 X-14.0446 Y19.3880 
G01 X-17.2382 Y19.3880 
G01 X-17.1087 Y19.5662 
G01 X-17.0060 Y19.7679 
G01 X-16.9360 Y19.9832 
G01 X-16.9006 Y20.2068 
G01 X-16.9006 Y20.4332 
G01 X-16.9360 Y20.6568 
G01 X-17.0060 Y20.8721 
G01 X-17.1087 Y21.0738 
G01 X-17.2418 Y21.2569 
G01 X-17.4019 Y21.4170 
G01 X-17.5850 Y21.5501 
G01 X-17.7867 Y21.6528 
G01 X-17.9842 Y21.7170 
G01 X-17.7867 Y21.7812 
G01 X-17.5850 Y21.8839 
G01 X-17.4019 Y22.0170 
G01 X-17.2418 Y22.1771 
G01 X-17.1087 Y22.3602 
G01 X-17.0060 Y22.5619 
G01 X-16.9360 Y22.7772 
G01 X-16.9006 Y23.0008 
G01 X-16.9006 Y23.2272 
G01 X-16.9360 Y23.4508 
G01 X-17.0060 Y23.6661 
G01 X-17.0273 Y23.7080 
G01 X-14.2694 Y26.4660 
G01 X-14.1470 Y26.5884 
G01 X-14.0452 Y26.7285 
G01 X-13.9666 Y26.8827 
G01 X-13.9131 Y27.0474 
G01 X-13.8860 Y27.2184 
G01 X-13.8860 Y30.3126 
G01 X-13.9131 Y30.4836 
G01 X-13.9666 Y30.6483 
G01 X-14.0452 Y30.8025 
G01 X-14.1470 Y30.9426 
G01 X-14.2694 Y31.0650 
G01 X-15.8745 Y32.6702 
G01 X-15.9970 Y32.7926 
G01 X-16.1370 Y32.8944 
G01 X-16.2913 Y32.9730 
G01 X-16.4560 Y33.0265 
G01 X-16.6270 Y33.0536 
G01 X-17.0250 Y33.0536 
G01 X-17.2040 Y33.1836 
G01 X-17.4057 Y33.2864 
G01 X-17.6210 Y33.3563 
G01 X-17.8446 Y33.3918 
G01 X-19.7474 Y33.3918 
G01 X-19.9710 Y33.3563 
G01 X-20.0810 Y33.3206 
G01 X-20.2044 Y33.4440 
G01 X-14.2221 Y33.4440 
G01 X-13.3257 Y32.5476 
G01 X-13.3470 Y32.5056 
G01 X-13.4170 Y32.2903 
G01 X-13.4524 Y32.0667 
G01 X-13.4524 Y31.8404 
G01 X-13.4170 Y31.6168 
G01 X-13.3470 Y31.4015 
G01 X-13.2443 Y31.1998 
G01 X-13.1112 Y31.0166 
G01 X-12.9511 Y30.8566 
G01 X-12.7680 Y30.7235 
G01 X-12.5663 Y30.6207 
G01 X-12.3510 Y30.5508 
G01 X-12.2760 Y30.5389 
G01 X-12.2760 Y29.9897 
G01 X-12.3510 Y29.9778 
G01 X-12.5663 Y29.9078 
G01 X-12.7680 Y29.8051 
G01 X-12.9511 Y29.6720 
G01 X-13.1112 Y29.5119 
G01 X-13.2443 Y29.3288 
G01 X-13.3470 Y29.1271 
G01 X-13.4170 Y28.9118 
G01 X-13.4524 Y28.6882 
G01 X-13.4524 Y28.4618 
G01 X-13.4170 Y28.2382 
G01 X-13.3470 Y28.0229 
G01 X-13.2443 Y27.8212 
G01 X-13.1112 Y27.6381 
G01 X-12.9511 Y27.4780 
G01 X-12.7680 Y27.3449 
G01 X-12.5663 Y27.2422 
G01 X-12.3510 Y27.1722 
G01 X-12.1274 Y27.1368 
G01 X-10.2246 Y27.1368 
G01 X-10.0010 Y27.1722 
G01 X-9.7857 Y27.2422 
G01 X-9.5840 Y27.3449 
G01 X-9.4009 Y27.4780 
G01 X-9.2408 Y27.6381 
G01 X-9.1077 Y27.8212 
G01 X-9.0050 Y28.0229 
G01 X-8.9350 Y28.2382 
G01 X-8.8996 Y28.4618 
G01 X-8.8996 Y28.6882 
G01 X-8.9350 Y28.9118 
G01 X-9.0050 Y29.1271 
G01 X-9.1077 Y29.3288 
G01 X-9.2408 Y29.5119 
G01 X-9.4009 Y29.6720 
G01 X-9.5840 Y29.8051 
G01 X-9.7857 Y29.9078 
G01 X-10.0010 Y29.9778 
G01 X-10.0624 Y29.9875 
G01 X-9.1964 Y30.8536 
G01 X-6.7401 Y30.8536 
G01 X-6.7018 Y30.7103 
G01 X-6.6201 Y30.5131 
G01 X-6.5133 Y30.3282 
G01 X-6.3833 Y30.1588 
G01 X-6.2324 Y30.0079 
G01 X-6.0630 Y29.8779 
G01 X-5.8781 Y29.7711 
G01 X-5.6809 Y29.6894 
G01 X-5.4746 Y29.6342 
G01 X-5.2630 Y29.6063 
G01 X-2.9920 Y29.6063 
G01 X-2.7804 Y29.6342 
G01 X-2.5741 Y29.6894 
G01 X-2.3769 Y29.7711 
G01 X-2.1920 Y29.8779 
G01 X-2.0226 Y30.0079 
G01 X-1.8717 Y30.1588 
G01 X-1.7417 Y30.3282 
G01 X-1.6349 Y30.5131 
G01 X-1.5532 Y30.7103 
G01 X-1.4980 Y30.9166 
G01 X-1.4701 Y31.1282 
G01 X-1.4701 Y31.3418 
G01 X-1.4980 Y31.5534 
G01 X-1.5532 Y31.7597 
G01 X-1.6349 Y31.9569 
G01 X-1.7417 Y32.1418 
G01 X-1.8717 Y32.3112 
G01 X-2.0226 Y32.4621 
G01 X-2.1920 Y32.5921 
G01 X-2.3769 Y32.6989 
G01 X-2.5741 Y32.7806 
G01 X-2.7804 Y32.8358 
G01 X-2.9920 Y32.8637 
G01 X-4.2273 Y32.8637 
G01 X-4.2695 Y32.8944 
G01 X-4.4238 Y32.9730 
G01 X-4.5885 Y33.0265 
G01 X-4.7595 Y33.0536 
G01 X-9.4050 Y33.0536 
G01 X-9.5840 Y33.1836 
G01 X-9.7857 Y33.2864 
G01 X-10.0010 Y33.3563 
G01 X-10.2246 Y33.3918 
G01 X-11.0586 Y33.3918 
G01 X-12.9274 Y35.2606 
G01 X-13.0498 Y35.3830 
G01 X-13.1899 Y35.4848 
G01 X-13.3442 Y35.5634 
G01 X-13.5089 Y35.6169 
G01 X-13.6799 Y35.6440 
G01 X-21.1013 Y35.6440 
G01 X-21.0554 Y35.6899 
G01 X-20.9224 Y35.8730 
G01 X-20.8196 Y36.0747 
G01 X-20.7496 Y36.2900 
G01 X-20.7378 Y36.3650 
G01 X-12.2666 Y36.3650 
G01 X-11.4200 Y35.5184 
G01 X-11.2976 Y35.3960 
G01 X-11.1575 Y35.2942 
G01 X-11.0033 Y35.2156 
G01 X-10.8386 Y35.1621 
G01 X-10.6676 Y35.1350 
G01 X-6.3595 Y35.1350 
G01 X-6.2324 Y35.0078 
G01 X-6.0630 Y34.8779 
G01 X-5.8781 Y34.7711 
G01 X-5.6809 Y34.6894 
G01 X-5.4746 Y34.6342 
G01 X-5.2630 Y34.6063 
G01 X-2.9920 Y34.6063 
G01 X-2.7804 Y34.6342 
G01 X-2.5741 Y34.6894 
G01 X-2.3769 Y34.7711 
G01 X-2.1920 Y34.8779 
G01 X-2.0226 Y35.0078 
G01 X-1.8717 Y35.1588 
G01 X-1.7417 Y35.3282 
G01 X-1.6349 Y35.5131 
G01 X-1.5532 Y35.7103 
G01 X-1.4980 Y35.9166 
G01 X-1.4701 Y36.1282 
G01 X-1.4701 Y36.3417 
G01 X-1.4980 Y36.5534 
G01 X-1.5532 Y36.7597 
G01 X-1.6349 Y36.9569 
G01 X-1.7417 Y37.1418 
G01 X-1.8717 Y37.3112 
G01 X-2.0226 Y37.4621 
G01 X-2.1920 Y37.5921 
G01 X-2.3769 Y37.6989 
G01 X-2.5741 Y37.7806 
G01 X-2.7804 Y37.8358 
G01 X-2.9920 Y37.8637 
G01 X-5.2630 Y37.8637 
G01 X-5.4746 Y37.8358 
G01 X-5.6809 Y37.7806 
G01 X-5.8781 Y37.6989 
G01 X-6.0630 Y37.5921 
G01 X-6.2324 Y37.4621 
G01 X-6.3595 Y37.3350 
G01 X-10.1254 Y37.3350 
G01 X-11.0944 Y38.3040 
G01 X-11.2345 Y38.4058 
G01 X-11.3887 Y38.4844 
G01 X-11.5534 Y38.5379 
G01 X-11.7244 Y38.5650 
G01 X-20.7378 Y38.5650 
G01 X-20.7496 Y38.6400 
G01 X-20.8196 Y38.8553 
G01 X-20.9224 Y39.0570 
G01 X-21.0554 Y39.2401 
G01 X-21.2155 Y39.4002 
G01 X-21.3986 Y39.5333 
G01 X-4.6359 Y39.5400 
G01 X-4.4649 Y39.5671 
G01 X-4.3442 Y39.6063 
G01 X-2.9920 Y39.6063 
G01 X-2.7804 Y39.6342 
G01 X-2.5741 Y39.6894 
G01 X-2.3769 Y39.7711 
G01 X-2.1920 Y39.8779 
G01 X-2.0226 Y40.0078 
G01 X-1.8717 Y40.1588 
G01 X-1.7417 Y40.3282 
G01 X-1.6349 Y40.5131 
G01 X-1.5532 Y40.7103 
G01 X-1.4980 Y40.9166 
G01 X-1.4701 Y41.1282 
G01 X-1.4701 Y41.3417 
G01 X-1.4980 Y41.5534 
G01 X-1.5532 Y41.7597 
G01 X-1.6349 Y41.9569 
G01 X-1.7417 Y42.1418 
G01 X-1.8717 Y42.3112 
G01 X-2.0226 Y42.4621 
G01 X-2.1920 Y42.5921 
G01 X-2.3769 Y42.6989 
G01 X-2.5741 Y42.7806 
G01 X-2.7804 Y42.8358 
G01 X-2.9920 Y42.8637 
G01 X-5.2630 Y42.8637 
G01 X-5.4746 Y42.8358 
G01 X-5.6809 Y42.7806 
G01 X-5.8781 Y42.6989 
G01 X-6.0630 Y42.5921 
G01 X-6.2324 Y42.4621 
G01 X-6.3833 Y42.3112 
G01 X-6.5133 Y42.1418 
G01 X-6.6201 Y41.9569 
G01 X-6.7018 Y41.7597 
G01 X-12.9654 Y41.7400 
G01 X-11.0586 Y43.6468 
G01 X-10.2246 Y43.6468 
G01 X-10.0010 Y43.6822 
G01 X-9.7857 Y43.7522 
G01 X-9.5840 Y43.8549 
G01 X-9.4009 Y43.9880 
G01 X-9.2408 Y44.1481 
G01 X-9.1077 Y44.3312 
G01 X-9.0050 Y44.5329 
G01 X-8.9350 Y44.7482 
G01 X-8.8996 Y44.9718 
G01 X-8.8996 Y45.1350 
G01 X-6.3595 Y45.1350 
G01 X-6.2324 Y45.0078 
G01 X-6.0630 Y44.8779 
G01 X-5.8781 Y44.7711 
G01 X-5.6809 Y44.6894 
G01 X-5.4746 Y44.6342 
G01 X-5.2630 Y44.6063 
G01 X-2.9920 Y44.6063 
G01 X-2.7804 Y44.6342 
G01 X-2.5741 Y44.6894 
G01 X-2.3769 Y44.7711 
G01 X-2.1920 Y44.8779 
G01 X-2.0226 Y45.0078 
G01 X-1.8717 Y45.1588 
G01 X-1.7417 Y45.3282 
G01 X-1.6349 Y45.5131 
G01 X-1.5532 Y45.7103 
G01 X-1.4980 Y45.9166 
G01 X-1.4701 Y46.1282 
G01 X-1.4701 Y46.3417 
G01 X-1.4980 Y46.5534 
G01 X-1.5532 Y46.7597 
G01 X-1.6349 Y46.9569 
G01 X-1.7417 Y47.1418 
G01 X-1.8717 Y47.3112 
G01 X-2.0226 Y47.4621 
G01 X-2.1920 Y47.5921 
G01 X-2.3769 Y47.6989 
G01 X-2.5741 Y47.7806 
G01 X-2.7804 Y47.8358 
G01 X-2.9920 Y47.8637 
G01 X-5.2630 Y47.8637 
G01 X-5.4746 Y47.8358 
G01 X-5.6809 Y47.7806 
G01 X-5.8781 Y47.6989 
G01 X-6.0630 Y47.5921 
G01 X-6.2324 Y47.4621 
G01 X-6.3595 Y47.3350 
G01 X-9.0563 Y47.3350 
G01 X-9.0050 Y47.4358 
G01 X-8.9350 Y47.6511 
G01 X-8.8996 Y47.8747 
G01 X-8.8996 Y48.1010 
G01 X-8.9350 Y48.3246 
G01 X-9.0050 Y48.5399 
G01 X-9.1077 Y48.7416 
G01 X-9.2408 Y48.9248 
G01 X-9.4009 Y49.0848 
G01 X-9.5840 Y49.2179 
G01 X-9.7857 Y49.3207 
G01 X-10.0010 Y49.3906 
G01 X-10.2246 Y49.4260 
G01 X-12.1274 Y49.4260 
G01 X-12.3510 Y49.3906 
G01 X-12.5663 Y49.3207 
G01 X-12.7680 Y49.2179 
G01 X-12.9511 Y49.0848 
G01 X-13.1112 Y48.9248 
G01 X-13.2443 Y48.7416 
G01 X-13.3470 Y48.5399 
G01 X-13.4170 Y48.3246 
G01 X-13.4524 Y48.1010 
G01 X-13.4524 Y47.8747 
G01 X-13.4170 Y47.6511 
G01 X-13.3470 Y47.4358 
G01 X-13.2443 Y47.2341 
G01 X-13.1112 Y47.0509 
G01 X-12.9511 Y46.8908 
G01 X-12.7680 Y46.7578 
G01 X-12.5663 Y46.6550 
G01 X-12.3510 Y46.5851 
G01 X-12.2760 Y46.5732 
G01 X-12.2760 Y46.4996 
G01 X-12.3510 Y46.4878 
G01 X-12.5663 Y46.4178 
G01 X-12.7680 Y46.3150 
G01 X-12.9511 Y46.1820 
G01 X-13.1112 Y46.0219 
G01 X-13.2443 Y45.8388 
G01 X-13.3470 Y45.6371 
G01 X-13.4170 Y45.4218 
G01 X-13.4524 Y45.1982 
G01 X-13.4524 Y44.9718 
G01 X-13.4170 Y44.7482 
G01 X-13.3470 Y44.5329 
G01 X-13.3257 Y44.4910 
G01 X-14.1716 Y43.6450 
G01 X-27.8604 Y43.6450 
G01 X-27.9446 Y43.7292 
G01 X-28.0627 Y43.8150 
G01 X-27.9446 Y43.9008 
G01 X-27.7718 Y44.0736 
G01 X-27.6282 Y44.2713 
G01 X-27.5172 Y44.4890 
G01 X-27.4417 Y44.7215 
G01 X-27.4035 Y44.9628 
G01 X-27.4035 Y45.2072 
G01 X-27.4417 Y45.4485 
G01 X-27.5172 Y45.6810 
G01 X-27.6282 Y45.8987 
G01 X-27.7718 Y46.0964 
G01 X-27.9446 Y46.2692 
G01 X-28.0627 Y46.3550 
G01 X-27.9446 Y46.4408 
G01 X-27.7718 Y46.6136 
G01 X-27.6282 Y46.8113 
G01 X-27.5172 Y47.0290 
G01 X-27.4417 Y47.2615 
G01 X-27.4035 Y47.5028 
G01 X-27.4035 Y47.7472 
G01 X-27.4417 Y47.9885 
G01 X-27.5172 Y48.2207 
G01 X-27.2842 Y48.1800 
G01 X-25.9592 Y48.1800 
G01 X-24.2475 Y46.4683 
G01 X-21.8344 Y44.0553 
G01 X-21.6625 Y43.9304 
G01 X-21.4732 Y43.8339 
G01 X-21.2711 Y43.7682 
G01 X-21.0612 Y43.7350 
G01 X-20.1334 Y43.7350 
G01 X-19.9710 Y43.6822 
G01 X-19.7474 Y43.6468 
G01 X-17.8446 Y43.6468 
G01 X-17.6210 Y43.6822 
G01 X-17.4057 Y43.7522 
G01 X-17.2040 Y43.8549 
G01 X-17.0209 Y43.9880 
G01 X-16.8608 Y44.1481 
G01 X-16.7277 Y44.3312 
G01 X-16.6250 Y44.5329 
G01 X-16.5550 Y44.7482 
G01 X-16.5196 Y44.9718 
G01 X-16.5196 Y45.1982 
G01 X-16.5550 Y45.4218 
G01 X-16.6250 Y45.6371 
G01 X-16.7277 Y45.8388 
G01 X-16.8608 Y46.0219 
G01 X-17.0209 Y46.1820 
G01 X-17.2040 Y46.3150 
G01 X-17.4057 Y46.4178 
G01 X-17.6210 Y46.4878 
G01 X-17.8446 Y46.5232 
G01 X-19.7474 Y46.5232 
G01 X-19.9710 Y46.4878 
G01 X-20.1334 Y46.4350 
G01 X-20.3958 Y46.4350 
G01 X-22.0180 Y48.0572 
G01 X-22.0180 Y48.7168 
G01 X-21.2185 Y49.5163 
G01 X-21.0683 Y49.6665 
G01 X-20.9434 Y49.8384 
G01 X-20.8469 Y50.0278 
G01 X-20.7812 Y50.2299 
G01 X-20.7480 Y50.4397 
G01 X-20.7480 Y51.1010 
G01 X-20.1334 Y51.1010 
G01 X-19.9710 Y51.0482 
G01 X-19.7474 Y51.0128 
G01 X-17.8446 Y51.0128 
G01 X-17.6210 Y51.0482 
G01 X-17.4057 Y51.1182 
G01 X-17.2040 Y51.2209 
G01 X-17.0209 Y51.3540 
G01 X-16.8608 Y51.5141 
G01 X-16.8440 Y50.8512 
G01 X-18.2691 Y49.4260 
G01 X-19.7474 Y49.4260 
G01 X-19.9710 Y49.3906 
G01 X-20.1863 Y49.3207 
G01 X-20.3880 Y49.2179 
G01 X-20.5711 Y49.0848 
G01 X-20.7312 Y48.9248 
G01 X-20.8643 Y48.7416 
G01 X-20.9670 Y48.5399 
G01 X-21.0370 Y48.3246 
G01 X-21.0724 Y48.1010 
G01 X-21.0724 Y47.8747 
G01 X-21.0370 Y47.6511 
G01 X-20.9670 Y47.4358 
G01 X-20.8643 Y47.2341 
G01 X-20.7312 Y47.0509 
G01 X-20.5711 Y46.8908 
G01 X-20.3880 Y46.7578 
G01 X-20.1863 Y46.6550 
G01 X-19.9710 Y46.5851 
G01 X-19.7474 Y46.5496 
G01 X-17.8446 Y46.5496 
G01 X-17.6210 Y46.5851 
G01 X-17.4057 Y46.6550 
G01 X-17.2040 Y46.7578 
G01 X-17.1227 Y46.8169 
G01 X-17.0906 Y46.8332 
G01 X-16.9187 Y46.9581 
G01 X-14.4643 Y49.4125 
G01 X-14.3394 Y49.5844 
G01 X-14.2429 Y49.7738 
G01 X-14.1772 Y49.9759 
G01 X-14.1440 Y50.1857 
G01 X-14.1440 Y54.4622 
G01 X-14.1772 Y54.6721 
G01 X-14.2429 Y54.8742 
G01 X-14.3394 Y55.0636 
G01 X-14.4643 Y55.2355 
G01 X-14.6145 Y55.3857 
G01 X-15.6073 Y56.3785 
G01 X-15.7575 Y56.5287 
G01 X-15.7978 Y56.5580 
G01 X-13.7906 Y56.5580 
G01 X-13.3257 Y56.0930 
G01 X-13.3470 Y56.0511 
G01 X-13.4170 Y55.8358 
G01 X-13.4524 Y55.6122 
G01 X-13.4524 Y55.3858 
G01 X-13.4170 Y55.1622 
G01 X-13.3470 Y54.9469 
G01 X-13.2443 Y54.7452 
G01 X-13.1112 Y54.5621 
G01 X-12.9511 Y54.4020 
G01 X-12.7680 Y54.2689 
G01 X-12.5663 Y54.1662 
G01 X-12.3510 Y54.0962 
G01 X-12.2760 Y54.0843 
G01 X-12.2760 Y53.8657 
G01 X-12.3510 Y53.8538 
G01 X-12.5663 Y53.7838 
G01 X-12.7680 Y53.6811 
G01 X-12.9511 Y53.5480 
G01 X-13.1112 Y53.3879 
G01 X-13.2443 Y53.2048 
G01 X-13.3470 Y53.0031 
G01 X-13.4170 Y52.7878 
G01 X-13.4524 Y52.5642 
G01 X-13.4524 Y52.3378 
G01 X-13.4170 Y52.1142 
G01 X-13.3470 Y51.8989 
G01 X-13.2443 Y51.6972 
G01 X-13.1112 Y51.5141 
G01 X-12.9511 Y51.3540 
G01 X-12.7680 Y51.2209 
G01 X-12.5663 Y51.1182 
G01 X-12.3510 Y51.0482 
G01 X-12.1274 Y51.0128 
G01 X-10.2246 Y51.0128 
G01 X-10.0010 Y51.0482 
G01 X-9.7857 Y51.1182 
G01 X-9.5840 Y51.2209 
G01 X-9.4009 Y51.3540 
G01 X-9.2408 Y51.5141 
G01 X-9.1077 Y51.6972 
G01 X-9.0050 Y51.8989 
G01 X-8.9350 Y52.1142 
G01 X-8.8996 Y52.3378 
G01 X-8.8996 Y52.5642 
G01 X-8.9350 Y52.7878 
G01 X-9.0050 Y53.0031 
G01 X-9.1077 Y53.2048 
G01 X-9.2408 Y53.3879 
G01 X-9.4009 Y53.5480 
G01 X-9.5840 Y53.6811 
G01 X-9.7187 Y53.7497 
G01 X-9.4574 Y54.0110 
G01 X-6.4355 Y54.0110 
G01 X-6.3084 Y53.8839 
G01 X-6.1390 Y53.7539 
G01 X-5.9541 Y53.6471 
G01 X-5.7569 Y53.5654 
G01 X-5.5506 Y53.5102 
G01 X-5.3389 Y53.4823 
G01 X-3.0680 Y53.4823 
G01 X-2.8564 Y53.5102 
G01 X-2.6501 Y53.5654 
G01 X-2.4529 Y53.6471 
G01 X-2.2680 Y53.7539 
G01 X-2.0986 Y53.8839 
G01 X-1.9477 Y54.0348 
G01 X-1.8177 Y54.2042 
G01 X-1.7109 Y54.3891 
G01 X-1.6292 Y54.5863 
G01 X-1.5740 Y54.7926 
G01 X-1.5461 Y55.0042 
G01 X-1.5461 Y55.2178 
G01 X-1.5740 Y55.4294 
G01 X-1.6292 Y55.6356 
G01 X-1.7109 Y55.8329 
G01 X-1.8177 Y56.0178 
G01 X-1.9477 Y56.1872 
G01 X-2.0986 Y56.3381 
G01 X-2.2680 Y56.4681 
G01 X-2.4529 Y56.5749 
G01 X-2.6501 Y56.6566 
G01 X-2.8564 Y56.7118 
G01 X-3.0680 Y56.7397 
G01 X-5.3389 Y56.7397 
G01 X-5.5506 Y56.7118 
G01 X-5.7569 Y56.6566 
G01 X-5.9541 Y56.5749 
G01 X-6.1390 Y56.4681 
G01 X-6.3084 Y56.3381 
G01 X-6.4355 Y56.2110 
G01 X-9.0865 Y56.2110 
G01 X-9.1077 Y56.2528 
G01 X-9.2408 Y56.4359 
G01 X-9.4009 Y56.5960 
G01 X-9.5840 Y56.7291 
G01 X-9.7857 Y56.8318 
G01 X-10.0010 Y56.9018 
G01 X-10.2246 Y56.9372 
G01 X-11.0586 Y56.9372 
G01 X-12.6184 Y58.4970 
G01 X-12.7585 Y58.5988 
G01 X-12.9127 Y58.6774 
G01 X-13.0774 Y58.7309 
G01 X-13.2484 Y58.7580 
G01 X-20.7124 Y58.7580 
G01 X-20.7693 Y58.7870 
G01 X-20.8920 Y58.8269 
G01 X-6.2564 Y58.8440 
G01 X-6.1390 Y58.7539 
G01 X-5.9541 Y58.6471 
G01 X-5.7569 Y58.5654 
G01 X-5.5506 Y58.5102 
G01 X-5.3389 Y58.4823 
G01 X-3.0680 Y58.4823 
G01 X-2.8564 Y58.5102 
G01 X-2.6501 Y58.5654 
G01 X-2.4529 Y58.6471 
G01 X-2.2680 Y58.7539 
G01 X-2.0986 Y58.8839 
G01 X-1.9477 Y59.0348 
G01 X-1.8177 Y59.2042 
G01 X-1.7109 Y59.3891 
G01 X-1.6292 Y59.5863 
G01 X-1.5740 Y59.7926 
G01 X-1.5461 Y60.0042 
G01 X-1.5461 Y60.2178 
G01 X-1.5740 Y60.4294 
G01 X-1.6292 Y60.6356 
G01 X-1.7109 Y60.8329 
G01 X-1.8177 Y61.0178 
G01 X-1.9477 Y61.1872 
G01 X-2.0986 Y61.3381 
G01 X-2.2680 Y61.4681 
G01 X-2.4529 Y61.5749 
G01 X-2.6501 Y61.6566 
G01 X-2.8564 Y61.7118 
G01 X-3.0680 Y61.7397 
G01 X-5.3389 Y61.7397 
G01 X-5.5506 Y61.7118 
G01 X-5.7569 Y61.6566 
G01 X-5.9541 Y61.5749 
G01 X-6.1390 Y61.4681 
G01 X-6.3084 Y61.3381 
G01 X-6.4593 Y61.1872 
G01 X-6.5692 Y61.0440 
G01 X-20.6598 Y61.0440 
G01 X-20.6598 Y61.4034 
G01 X-20.6952 Y61.6270 
G01 X-20.7652 Y61.8423 
G01 X-20.8679 Y62.0440 
G01 X-21.0010 Y62.2271 
G01 X-21.1611 Y62.3872 
G01 X-21.3442 Y62.5203 
G01 X-21.5459 Y62.6230 
G01 X-21.7612 Y62.6930 
G01 X-21.9848 Y62.7284 
G01 X-22.2112 Y62.7284 
G01 X-22.4348 Y62.6930 
G01 X-22.6501 Y62.6230 
G01 X-22.8518 Y62.5203 
G01 X-23.0349 Y62.3872 
G01 X-23.1950 Y62.2271 
G01 X-23.3281 Y62.0440 
G01 X-23.4308 Y61.8423 
G01 X-23.5008 Y61.6270 
G01 X-23.5127 Y61.5520 
G01 X-23.7313 Y61.5520 
G01 X-23.7432 Y61.6270 
G01 X-23.8132 Y61.8423 
G01 X-23.9159 Y62.0440 
G01 X-24.0490 Y62.2271 
G01 X-24.2091 Y62.3872 
G01 X-24.3922 Y62.5203 
G01 X-24.5939 Y62.6230 
G01 X-24.8092 Y62.6930 
G01 X-25.0328 Y62.7284 
G01 X-25.2592 Y62.7284 
G01 X-25.4828 Y62.6930 
G01 X-25.6981 Y62.6230 
G01 X-25.7781 Y62.5822 
G01 X-25.4524 Y62.9080 
G01 X-10.4144 Y62.9080 
G01 X-10.2434 Y62.9351 
G01 X-10.0787 Y62.9886 
G01 X-9.9245 Y63.0672 
G01 X-9.7844 Y63.1690 
G01 X-9.6620 Y63.2914 
G01 X-8.9424 Y64.0110 
G01 X-6.4355 Y64.0110 
G01 X-6.3084 Y63.8839 
G01 X-6.1390 Y63.7539 
G01 X-5.9541 Y63.6471 
G01 X-5.7569 Y63.5654 
G01 X-5.5506 Y63.5102 
G01 X-5.3389 Y63.4823 
G01 X-3.0680 Y63.4823 
G01 X-2.8564 Y63.5102 
G01 X-2.6501 Y63.5654 
G01 X-2.4529 Y63.6471 
G01 X-2.2680 Y63.7539 
G01 X-2.0986 Y63.8839 
G01 X-1.9477 Y64.0348 
G01 X-1.8177 Y64.2042 
G01 X-1.7109 Y64.3891 
G01 X-1.6292 Y64.5863 
G01 X-1.5740 Y64.7926 
G01 X-1.5461 Y65.0042 
G01 X-1.5461 Y65.2177 
G01 X-1.5740 Y65.4294 
G01 X-1.6292 Y65.6356 
G01 X-1.7109 Y65.8329 
G01 X-1.8177 Y66.0178 
G01 X-1.9477 Y66.1872 
G01 X-2.0986 Y66.3381 
G01 X-2.2680 Y66.4681 
G01 X-2.4529 Y66.5749 
G01 X-2.6501 Y66.6566 
G01 X-2.8564 Y66.7118 
G01 X-3.0680 Y66.7397 
G01 X-5.3389 Y66.7397 
G01 X-5.5506 Y66.7118 
G01 X-5.7569 Y66.6566 
G01 X-5.9541 Y66.5749 
G01 X-6.1390 Y66.4681 
G01 X-6.3084 Y66.3381 
G01 X-6.4355 Y66.2110 
G01 X-9.4846 Y66.2110 
G01 X-9.6556 Y66.1839 
G01 X-9.8203 Y66.1304 
G01 X-9.9745 Y66.0518 
G01 X-10.1146 Y65.9500 
G01 X-10.9566 Y65.1080 
G01 X-13.1274 Y65.1080 
G01 X-12.9994 Y65.2010 
G01 X-12.8770 Y65.3234 
G01 X-11.3126 Y66.8878 
G01 X-10.4786 Y66.8878 
G01 X-10.2550 Y66.9232 
G01 X-10.0397 Y66.9932 
G01 X-9.8380 Y67.0959 
G01 X-9.6549 Y67.2290 
G01 X-9.4948 Y67.3891 
G01 X-9.3617 Y67.5722 
G01 X-9.2590 Y67.7739 
G01 X-9.1890 Y67.9892 
G01 X-9.1536 Y68.2128 
G01 X-9.1536 Y68.4392 
G01 X-9.1890 Y68.6628 
G01 X-9.2590 Y68.8781 
G01 X-9.2803 Y68.9200 
G01 X-9.1894 Y69.0110 
G01 X-6.4355 Y69.0110 
G01 X-6.3084 Y68.8838 
G01 X-6.1390 Y68.7539 
G01 X-5.9541 Y68.6471 
G01 X-5.7569 Y68.5654 
G01 X-5.5506 Y68.5102 
G01 X-5.3389 Y68.4823 
G01 X-3.0680 Y68.4823 
G01 X-2.8564 Y68.5102 
G01 X-2.6501 Y68.5654 
G01 X-2.4529 Y68.6471 
G01 X-2.2680 Y68.7539 
G01 X-2.0986 Y68.8838 
G01 X-1.9477 Y69.0348 
G01 X-1.8177 Y69.2042 
G01 X-1.7109 Y69.3891 
G01 X-1.6292 Y69.5863 
G01 X-1.5740 Y69.7926 
G01 X-1.5461 Y70.0042 
G01 X-1.5461 Y70.2177 
G01 X-1.5740 Y70.4294 
G01 X-1.6292 Y70.6356 
G01 X-1.7109 Y70.8329 
G01 X-1.8177 Y71.0178 
G01 X-1.9477 Y71.1872 
G01 X-2.0986 Y71.3381 
G01 X-2.2680 Y71.4681 
G01 X-2.4529 Y71.5749 
G01 X-2.6501 Y71.6566 
G01 X-2.8564 Y71.7118 
G01 X-3.0680 Y71.7397 
G01 X-5.3389 Y71.7397 
G01 X-5.5506 Y71.7118 
G01 X-5.7569 Y71.6566 
G01 X-5.9541 Y71.5749 
G01 X-6.1390 Y71.4681 
G01 X-6.3084 Y71.3381 
G01 X-6.4355 Y71.2110 
G01 X-9.1964 Y71.2110 
G01 X-9.1890 Y71.2912 
G01 X-9.1536 Y71.5148 
G01 X-9.1536 Y71.7412 
G01 X-9.1890 Y71.9648 
G01 X-9.2590 Y72.1801 
G01 X-9.3617 Y72.3818 
G01 X-9.4948 Y72.5649 
G01 X-9.6549 Y72.7250 
G01 X-9.8380 Y72.8581 
G01 X-10.0397 Y72.9608 
G01 X-10.2550 Y73.0308 
G01 X-10.4786 Y73.0662 
G01 X-12.3814 Y73.0662 
G01 X-12.6050 Y73.0308 
G01 X-12.8203 Y72.9608 
G01 X-13.0220 Y72.8581 
G01 X-13.2051 Y72.7250 
G01 X-13.3652 Y72.5649 
G01 X-13.3820 Y78.5922 
G01 X-13.4152 Y78.8021 
G01 X-13.4809 Y79.0042 
G01 X-13.5774 Y79.1936 
G01 X-13.7023 Y79.3655 
G01 X-13.8525 Y79.5157 
G01 X-15.5035 Y81.1667 
G01 X-15.6754 Y81.2916 
G01 X-15.8648 Y81.3881 
G01 X-16.0669 Y81.4538 
G01 X-16.2767 Y81.4870 
G01 X-22.5699 Y81.4870 
G01 X-22.6244 Y81.6903 
G01 X-22.7061 Y81.8876 
G01 X-22.8129 Y82.0725 
G01 X-22.9428 Y82.2419 
G01 X-23.0938 Y82.3928 
G01 X-23.2632 Y82.5228 
G01 X-23.4481 Y82.6296 
G01 X-23.6453 Y82.7113 
G01 X-23.8516 Y82.7665 
G01 X-24.0632 Y82.7944 
G01 X-24.2767 Y82.7944 
G01 X-24.4884 Y82.7665 
G01 X-24.6946 Y82.7113 
G01 X-24.8919 Y82.6296 
G01 X-25.0768 Y82.5228 
G01 X-25.2462 Y82.3928 
G01 X-25.3971 Y82.2419 
G01 X-25.5271 Y82.0725 
G01 X-25.6339 Y81.8876 
G01 X-25.7156 Y81.6903 
G01 X-25.7708 Y81.4841 
G01 X-25.7987 Y81.2725 
G01 X-25.7987 Y79.0015 
G01 X-25.7708 Y78.7899 
G01 X-25.7156 Y78.5836 
G01 X-25.6339 Y78.3864 
G01 X-25.5271 Y78.2015 
G01 X-25.3971 Y78.0321 
G01 X-25.2462 Y77.8812 
G01 X-25.0768 Y77.7512 
G01 X-24.8919 Y77.6444 
G01 X-24.6946 Y77.5627 
G01 X-24.4884 Y77.5075 
G01 X-24.2767 Y77.4796 
G01 X-24.0632 Y77.4796 
G01 X-23.8516 Y77.5075 
G01 X-23.6453 Y77.5627 
G01 X-23.4481 Y77.6444 
G01 X-23.3118 Y77.7231 
G01 X-21.2461 Y75.6574 
G01 X-21.3022 Y75.5473 
G01 X-21.3804 Y75.3065 
G01 X-21.4200 Y75.0566 
G01 X-21.4200 Y74.8034 
G01 X-21.3804 Y74.5535 
G01 X-21.3022 Y74.3127 
G01 X-21.1873 Y74.0872 
G01 X-21.0385 Y73.8825 
G01 X-20.8595 Y73.7035 
G01 X-20.6548 Y73.5547 
G01 X-20.4293 Y73.4398 
G01 X-20.1885 Y73.3616 
G01 X-19.9386 Y73.3220 
G01 X-19.6854 Y73.3220 
G01 X-19.4355 Y73.3616 
G01 X-19.1947 Y73.4398 
G01 X-18.9692 Y73.5547 
G01 X-18.7645 Y73.7035 
G01 X-18.5855 Y73.8825 
G01 X-18.4367 Y74.0872 
G01 X-18.3218 Y74.3127 
G01 X-18.2436 Y74.5535 
G01 X-18.2040 Y74.8034 
G01 X-18.2040 Y75.0566 
G01 X-18.2436 Y75.3065 
G01 X-18.3218 Y75.5473 
G01 X-18.4367 Y75.7728 
G01 X-18.5855 Y75.9775 
G01 X-18.7645 Y76.1565 
G01 X-18.7926 Y76.2013 
G01 X-18.8712 Y76.3555 
G01 X-18.9730 Y76.4956 
G01 X-19.0954 Y76.6180 
G01 X-21.2644 Y78.7870 
G01 X-16.9422 Y78.7870 
G01 X-16.0820 Y77.9268 
G01 X-16.0820 Y70.4092 
G01 X-16.8152 Y69.6760 
G01 X-17.7126 Y69.6760 
G01 X-17.8750 Y69.7288 
G01 X-18.0986 Y69.7642 
G01 X-20.0014 Y69.7642 
G01 X-20.2250 Y69.7288 
G01 X-20.4403 Y69.6588 
G01 X-20.6420 Y69.5561 
G01 X-20.8251 Y69.4230 
G01 X-20.9852 Y69.2629 
G01 X-21.1183 Y69.0798 
G01 X-21.2210 Y68.8781 
G01 X-21.2910 Y68.6628 
G01 X-21.3264 Y68.4392 
G01 X-21.3264 Y68.2128 
G01 X-21.2910 Y67.9892 
G01 X-21.2210 Y67.7739 
G01 X-21.1183 Y67.5722 
G01 X-20.9852 Y67.3891 
G01 X-20.8251 Y67.2290 
G01 X-20.7026 Y67.1400 
G01 X-27.0106 Y67.1400 
G01 X-27.1816 Y67.1129 
G01 X-27.3463 Y67.0594 
G01 X-27.5005 Y66.9808 
G01 X-27.6406 Y66.8790 
G01 X-27.7630 Y66.7566 
G01 X-27.8740 Y66.6456 
G01 X-27.9446 Y66.7162 
G01 X-28.0627 Y66.8020 
G01 X-27.9446 Y66.8878 
G01 X-27.7718 Y67.0606 
G01 X-27.6282 Y67.2583 
G01 X-27.5172 Y67.4760 
G01 X-27.4417 Y67.7085 
G01 X-27.4035 Y67.9498 
G01 X-27.4035 Y68.1942 
G01 X-27.4417 Y68.4355 
G01 X-27.5172 Y68.6680 
G01 X-27.6282 Y68.8857 
G01 X-27.7718 Y69.0834 
G01 X-27.9446 Y69.2562 
G01 X-28.0627 Y69.3420 
G01 X-27.9446 Y69.4278 
G01 X-27.7718 Y69.6006 
G01 X-27.6282 Y69.7983 
G01 X-27.5172 Y70.0160 
G01 X-27.4417 Y70.2485 
G01 X-27.4035 Y70.4898 
G01 X-27.4035 Y70.7342 
G01 X-27.4417 Y70.9755 
G01 X-27.5172 Y71.2080 
G01 X-27.6282 Y71.4257 
G01 X-27.7718 Y71.6234 
G01 X-27.9446 Y71.7962 
G01 X-28.0700 Y71.8873 
G01 X-28.0700 Y74.1668 
G01 X-24.5015 Y70.5983 
G01 X-24.3296 Y70.4734 
G01 X-24.1402 Y70.3769 
G01 X-23.9381 Y70.3112 
G01 X-23.7282 Y70.2780 
G01 X-20.3874 Y70.2780 
G01 X-20.2250 Y70.2252 
G01 X-20.0014 Y70.1898 
G01 X-18.0986 Y70.1898 
G01 X-17.8750 Y70.2252 
G01 X-17.6597 Y70.2952 
G01 X-17.4580 Y70.3979 
G01 X-17.2749 Y70.5310 
G01 X-17.1148 Y70.6911 
G01 X-16.9817 Y70.8742 
G01 X-16.8790 Y71.0759 
G01 X-16.8090 Y71.2912 
G01 X-16.7736 Y71.5148 
G01 X-16.7736 Y71.7412 
G01 X-16.8090 Y71.9648 
G01 X-16.8790 Y72.1801 
G01 X-16.9817 Y72.3818 
G01 X-17.1148 Y72.5649 
G01 X-17.2749 Y72.7250 
G01 X-17.4580 Y72.8581 
G01 X-17.6597 Y72.9608 
G01 X-17.8750 Y73.0308 
G01 X-18.0986 Y73.0662 
G01 X-20.0014 Y73.0662 
G01 X-20.2250 Y73.0308 
G01 X-20.3874 Y72.9780 
G01 X-23.0628 Y72.9780 
G01 X-27.8200 Y77.7352 
G01 X-27.8200 Y78.1922 
G01 X-27.7061 Y78.3864 
G01 X-27.6244 Y78.5836 
G01 X-27.5692 Y78.7899 
G01 X-27.5413 Y79.0015 
G01 X-27.5413 Y81.2725 
G01 X-27.5692 Y81.4841 
G01 X-27.6244 Y81.6903 
G01 X-27.7061 Y81.8876 
G01 X-27.8129 Y82.0725 
G01 X-27.9428 Y82.2419 
G01 X-28.0938 Y82.3928 
G01 X-28.2632 Y82.5228 
G01 X-28.4481 Y82.6296 
G01 X-28.6453 Y82.7113 
G01 X-28.8516 Y82.7665 
G01 X-29.0632 Y82.7944 
G01 X-29.2767 Y82.7944 
G01 X-29.4884 Y82.7665 
G01 X-29.6946 Y82.7113 
G01 X-29.8919 Y82.6296 
G01 X-30.0768 Y82.5228 
G01 X-30.2462 Y82.3928 
G01 X-30.3971 Y82.2419 
G01 X-30.5271 Y82.0725 
G01 X-30.6339 Y81.8876 
G01 X-30.7156 Y81.6903 
G01 X-30.7708 Y81.4841 
G01 X-30.7987 Y81.2725 
G01 X-30.7987 Y80.0639 
G01 X-33.3086 Y77.5540 
G01 X-43.5206 Y77.5540 
G01 X-43.6916 Y77.5269 
G01 X-43.8563 Y77.4734 
G01 X-44.0105 Y77.3948 
G01 X-44.1506 Y77.2930 
G01 X-46.3979 Y75.0457 
G01 X-46.5641 Y75.0457 
G01 X-46.9023 Y75.3839 
G01 X-47.3806 Y75.3839 
G01 X-47.6432 Y75.6466 
G01 X-47.7656 Y75.7690 
G01 X-47.9057 Y75.8708 
G01 X-48.0600 Y75.9494 
G01 X-48.2247 Y76.0029 
G01 X-48.3957 Y76.0300 
G01 X-49.5700 Y76.0300 
G01 X-49.6445 Y76.1045 
G01 X-49.7759 Y76.2000 
G01 X-49.6445 Y76.2955 
G01 X-49.5700 Y76.3700 
G01 X-48.4637 Y76.3700 
G01 X-48.0937 Y76.0001 
G01 X-46.9023 Y76.0001 
G01 X-46.0598 Y76.8425 
G01 X-46.0598 Y78.0340 
G01 X-46.9023 Y78.8764 
G01 X-48.0937 Y78.8764 
G01 X-48.4002 Y78.5700 
G01 X-49.5700 Y78.5700 
G01 X-49.6445 Y78.6445 
G01 X-49.8406 Y78.7870 
G01 X-50.0565 Y78.8970 
G01 X-50.2870 Y78.9719 
G01 X-50.5264 Y79.0098 
G01 X-52.6484 Y79.0098 
G01 X-52.8878 Y78.9719 
G01 X-53.1183 Y78.8970 
G01 X-53.3342 Y78.7870 
G01 X-53.5303 Y78.6445 
G01 X-53.7017 Y78.4731 
G01 X-53.8442 Y78.2770 
G01 X-53.9542 Y78.0611 
G01 X-54.0291 Y77.8306 
G01 X-54.0670 Y77.5912 
G01 X-54.0670 Y77.3488 
G01 X-54.0291 Y77.1094 
G01 X-53.9542 Y76.8789 
G01 X-53.8442 Y76.6630 
G01 X-53.7017 Y76.4669 
G01 X-53.5303 Y76.2955 
G01 X-53.3989 Y76.2000 
G01 X-53.5303 Y76.1045 
G01 X-53.6048 Y76.0300 
G01 X-54.9481 Y76.0300 
G01 X-54.9498 Y76.5100 
G01 X-55.7923 Y77.3524 
G01 X-56.9837 Y77.3524 
G01 X-57.3219 Y77.0142 
G01 X-61.3323 Y77.0142 
G01 X-61.5033 Y76.9872 
G01 X-61.6680 Y76.9337 
G01 X-61.8223 Y76.8551 
G01 X-61.9624 Y76.7533 
G01 X-67.3870 Y71.3286 
G01 X-67.4888 Y71.1885 
G01 X-67.5674 Y71.0343 
G01 X-67.5760 Y71.0078 
G01 X-67.5760 Y83.5780 
G01 X-0.7500 Y83.5780 
G01 X-0.7500 Y0.7500  
G00 Z5.0000  
G00 X-24.3316 Y3.1320  
G01 Z-0.0250 F50    
G01 X-26.4684 Y3.1320  F50    
G01 X-28.0964 Y4.7600  
G01 X-28.0258 Y4.8306  
G01 X-27.8822 Y5.0283  
G01 X-27.7712 Y5.2460  
G01 X-27.6957 Y5.4785  
G01 X-27.6575 Y5.7198  
G01 X-27.6575 Y5.9642  
G01 X-27.6957 Y6.2055  
G01 X-27.7712 Y6.4380  
G01 X-27.8822 Y6.6557  
G01 X-28.0258 Y6.8534  
G01 X-28.1986 Y7.0262  
G01 X-28.3167 Y7.1120  
G01 X-28.1986 Y7.1978  
G01 X-28.1144 Y7.2820  
G01 X-27.3796 Y7.2820  
G01 X-26.9813 Y6.8836  
G01 X-27.0205 Y6.7630  
G01 X-27.0559 Y6.5394  
G01 X-27.0559 Y4.6366  
G01 X-27.0205 Y4.4130  
G01 X-26.9505 Y4.1977  
G01 X-26.8478 Y3.9960  
G01 X-26.7147 Y3.8129  
G01 X-26.5546 Y3.6528  
G01 X-26.3715 Y3.5197  
G01 X-26.1698 Y3.4170  
G01 X-25.9545 Y3.3470  
G01 X-25.7309 Y3.3116  
G01 X-25.5045 Y3.3116  
G01 X-25.2809 Y3.3470  
G01 X-25.0656 Y3.4170  
G01 X-24.8639 Y3.5197  
G01 X-24.6808 Y3.6528  
G01 X-24.5207 Y3.8129  
G01 X-24.3876 Y3.9960  
G01 X-24.3386 Y4.0922  
G01 X-24.2896 Y3.9960  
G01 X-24.1596 Y3.8170  
G01 X-24.1596 Y3.3041  
G01 X-24.3316 Y3.1320  
G00 Z5.0000  
G00 X-24.2935 Y11.6236 
G01 Z-0.0250 F50    
G01 X-24.3838 Y11.6236 F50    
G01 X-24.3386 Y11.7122 
G01 X-24.2935 Y11.6236 
G00 Z5.0000  
G00 X-26.8516 Y11.6236 
G01 Z-0.0250 F50    
G01 X-27.3400 Y11.6236 F50    
G01 X-27.4774 Y11.7610 
G01 X-27.6175 Y11.8628 
G01 X-27.7717 Y11.9414 
G01 X-27.9364 Y11.9949 
G01 X-28.1074 Y12.0220 
G01 X-28.1986 Y12.1062 
G01 X-28.3167 Y12.1920 
G01 X-28.1986 Y12.2778 
G01 X-28.1144 Y12.3620 
G01 X-27.0559 Y12.3620 
G01 X-27.0559 Y12.2566 
G01 X-27.0205 Y12.0330 
G01 X-26.9505 Y11.8177 
G01 X-26.8516 Y11.6236 
G00 Z5.0000  
G00 X-26.9623 Y14.5620 
G01 Z-0.0250 F50    
G01 X-28.1144 Y14.5620 F50    
G01 X-28.1986 Y14.6462 
G01 X-28.3167 Y14.7320 
G01 X-28.1986 Y14.8178 
G01 X-28.1144 Y14.9020 
G01 X-26.7736 Y14.9020 
G01 X-26.8478 Y14.8000 
G01 X-26.9505 Y14.5983 
G01 X-26.9623 Y14.5620 
G00 Z5.0000  
G00 X-24.3386 Y14.7038 
G01 Z-0.0250 F50    
G01 X-24.3876 Y14.8000 F50    
G01 X-24.4618 Y14.9020 
G01 X-24.2155 Y14.9020 
G01 X-24.2896 Y14.8000 
G01 X-24.3386 Y14.7038 
G00 Z5.0000  
G00 X-21.5446 Y19.4810 
G01 Z-0.0250 F50    
G01 X-21.4166 Y19.3880 F50    
G01 X-27.9057 Y19.3880 
G01 X-28.0258 Y19.5534 
G01 X-28.1986 Y19.7262 
G01 X-28.3167 Y19.8120 
G01 X-28.1986 Y19.8978 
G01 X-28.0258 Y20.0706 
G01 X-27.8822 Y20.2683 
G01 X-27.7712 Y20.4860 
G01 X-27.6957 Y20.7185 
G01 X-27.6575 Y20.9598 
G01 X-27.6575 Y21.2042 
G01 X-27.6957 Y21.4455 
G01 X-27.7712 Y21.6780 
G01 X-27.8822 Y21.8957 
G01 X-28.0258 Y22.0934 
G01 X-28.1986 Y22.2662 
G01 X-28.3167 Y22.3520 
G01 X-28.1986 Y22.4378 
G01 X-28.0258 Y22.6106 
G01 X-27.8822 Y22.8083 
G01 X-27.7712 Y23.0260 
G01 X-27.6957 Y23.2585 
G01 X-27.6575 Y23.4998 
G01 X-27.6575 Y23.7442 
G01 X-27.6957 Y23.9855 
G01 X-27.7712 Y24.2180 
G01 X-27.8822 Y24.4357 
G01 X-28.0258 Y24.6334 
G01 X-28.1986 Y24.8062 
G01 X-28.3963 Y24.9498 
G01 X-28.6140 Y25.0608 
G01 X-28.8465 Y25.1363 
G01 X-29.0878 Y25.1745 
G01 X-29.3322 Y25.1745 
G01 X-29.5735 Y25.1363 
G01 X-29.8060 Y25.0608 
G01 X-30.0237 Y24.9498 
G01 X-30.2214 Y24.8062 
G01 X-30.3056 Y24.7220 
G01 X-36.6284 Y24.7220 
G01 X-38.0160 Y26.1096 
G01 X-38.0160 Y44.2422 
G01 X-37.9513 Y44.1152 
G01 X-37.8025 Y43.9105 
G01 X-37.6235 Y43.7315 
G01 X-37.4188 Y43.5827 
G01 X-37.1933 Y43.4678 
G01 X-36.9525 Y43.3896 
G01 X-36.7026 Y43.3500 
G01 X-36.4494 Y43.3500 
G01 X-36.1995 Y43.3896 
G01 X-35.9587 Y43.4678 
G01 X-35.7332 Y43.5827 
G01 X-35.5285 Y43.7315 
G01 X-35.3495 Y43.9105 
G01 X-35.2953 Y43.9850 
G01 X-30.0516 Y43.9850 
G01 X-29.9674 Y43.9008 
G01 X-29.8493 Y43.8150 
G01 X-29.9674 Y43.7292 
G01 X-30.1402 Y43.5564 
G01 X-30.2838 Y43.3587 
G01 X-30.3948 Y43.1410 
G01 X-30.4703 Y42.9085 
G01 X-30.5085 Y42.6672 
G01 X-30.5085 Y42.4228 
G01 X-30.4703 Y42.1815 
G01 X-30.3948 Y41.9490 
G01 X-30.2838 Y41.7313 
G01 X-30.1402 Y41.5336 
G01 X-29.9674 Y41.3608 
G01 X-29.8493 Y41.2750 
G01 X-29.9674 Y41.1892 
G01 X-30.0516 Y41.1050 
G01 X-30.5530 Y41.1050 
G01 X-30.5649 Y41.1800 
G01 X-30.6349 Y41.3953 
G01 X-30.7376 Y41.5970 
G01 X-30.8707 Y41.7801 
G01 X-31.0308 Y41.9402 
G01 X-31.2139 Y42.0733 
G01 X-31.4156 Y42.1760 
G01 X-31.6309 Y42.2460 
G01 X-31.8545 Y42.2814 
G01 X-32.0809 Y42.2814 
G01 X-32.3045 Y42.2460 
G01 X-32.5198 Y42.1760 
G01 X-32.7215 Y42.0733 
G01 X-32.9046 Y41.9402 
G01 X-33.0647 Y41.7801 
G01 X-33.1978 Y41.5970 
G01 X-33.3005 Y41.3953 
G01 X-33.3556 Y41.2257 
G01 X-33.4107 Y41.3953 
G01 X-33.5135 Y41.5970 
G01 X-33.6466 Y41.7801 
G01 X-33.8066 Y41.9402 
G01 X-33.9898 Y42.0733 
G01 X-34.1915 Y42.1760 
G01 X-34.4068 Y42.2460 
G01 X-34.6304 Y42.2814 
G01 X-34.8567 Y42.2814 
G01 X-35.0803 Y42.2460 
G01 X-35.2956 Y42.1760 
G01 X-35.4973 Y42.0733 
G01 X-35.6805 Y41.9402 
G01 X-35.8406 Y41.7801 
G01 X-35.9736 Y41.5970 
G01 X-36.0764 Y41.3953 
G01 X-36.1463 Y41.1800 
G01 X-36.1818 Y40.9564 
G01 X-36.1818 Y39.0536 
G01 X-36.1463 Y38.8300 
G01 X-36.0764 Y38.6147 
G01 X-35.9736 Y38.4130 
G01 X-35.8406 Y38.2299 
G01 X-35.6805 Y38.0698 
G01 X-35.4973 Y37.9367 
G01 X-35.2956 Y37.8340 
G01 X-35.0803 Y37.7640 
G01 X-34.8567 Y37.7286 
G01 X-34.6304 Y37.7286 
G01 X-34.4068 Y37.7640 
G01 X-34.1915 Y37.8340 
G01 X-33.9898 Y37.9367 
G01 X-33.8066 Y38.0698 
G01 X-33.6466 Y38.2299 
G01 X-33.5135 Y38.4130 
G01 X-33.4107 Y38.6147 
G01 X-33.3556 Y38.7843 
G01 X-33.3005 Y38.6147 
G01 X-33.1978 Y38.4130 
G01 X-33.0647 Y38.2299 
G01 X-32.9046 Y38.0698 
G01 X-32.7215 Y37.9367 
G01 X-32.5198 Y37.8340 
G01 X-32.3045 Y37.7640 
G01 X-32.0809 Y37.7286 
G01 X-31.8545 Y37.7286 
G01 X-31.6309 Y37.7640 
G01 X-31.4156 Y37.8340 
G01 X-31.2139 Y37.9367 
G01 X-31.0308 Y38.0698 
G01 X-30.8707 Y38.2299 
G01 X-30.7376 Y38.4130 
G01 X-30.6349 Y38.6147 
G01 X-30.5649 Y38.8300 
G01 X-30.5530 Y38.9050 
G01 X-30.0516 Y38.9050 
G01 X-29.9674 Y38.8208 
G01 X-29.8493 Y38.7350 
G01 X-29.9674 Y38.6492 
G01 X-30.1402 Y38.4764 
G01 X-30.2838 Y38.2787 
G01 X-30.3948 Y38.0610 
G01 X-30.4703 Y37.8285 
G01 X-30.5085 Y37.5872 
G01 X-30.5085 Y37.3428 
G01 X-30.4703 Y37.1015 
G01 X-30.3948 Y36.8690 
G01 X-30.2838 Y36.6513 
G01 X-30.1402 Y36.4536 
G01 X-29.9674 Y36.2808 
G01 X-29.8493 Y36.1950 
G01 X-29.9674 Y36.1092 
G01 X-30.1402 Y35.9364 
G01 X-30.2838 Y35.7387 
G01 X-30.3948 Y35.5210 
G01 X-30.4703 Y35.2885 
G01 X-30.5085 Y35.0472 
G01 X-30.5085 Y34.8028 
G01 X-30.4703 Y34.5615 
G01 X-30.3948 Y34.3290 
G01 X-30.2838 Y34.1113 
G01 X-30.1402 Y33.9136 
G01 X-29.9674 Y33.7408 
G01 X-29.8493 Y33.6550 
G01 X-29.9674 Y33.5692 
G01 X-30.0516 Y33.4850 
G01 X-30.5530 Y33.4850 
G01 X-30.5649 Y33.5600 
G01 X-30.6349 Y33.7753 
G01 X-30.7376 Y33.9770 
G01 X-30.8707 Y34.1601 
G01 X-31.0308 Y34.3202 
G01 X-31.2139 Y34.4533 
G01 X-31.4156 Y34.5560 
G01 X-31.6309 Y34.6260 
G01 X-31.8545 Y34.6614 
G01 X-32.0809 Y34.6614 
G01 X-32.3045 Y34.6260 
G01 X-32.5198 Y34.5560 
G01 X-32.7215 Y34.4533 
G01 X-32.9046 Y34.3202 
G01 X-33.0647 Y34.1601 
G01 X-33.1978 Y33.9770 
G01 X-33.3005 Y33.7753 
G01 X-33.3556 Y33.6057 
G01 X-33.4107 Y33.7753 
G01 X-33.5135 Y33.9770 
G01 X-33.6466 Y34.1601 
G01 X-33.8066 Y34.3202 
G01 X-33.9898 Y34.4533 
G01 X-34.1915 Y34.5560 
G01 X-34.4068 Y34.6260 
G01 X-34.6304 Y34.6614 
G01 X-34.8567 Y34.6614 
G01 X-35.0803 Y34.6260 
G01 X-35.2956 Y34.5560 
G01 X-35.4973 Y34.4533 
G01 X-35.6805 Y34.3202 
G01 X-35.8406 Y34.1601 
G01 X-35.9736 Y33.9770 
G01 X-36.0764 Y33.7753 
G01 X-36.1463 Y33.5600 
G01 X-36.1818 Y33.3364 
G01 X-36.1818 Y31.4336 
G01 X-36.1463 Y31.2100 
G01 X-36.0764 Y30.9947 
G01 X-35.9736 Y30.7930 
G01 X-35.8436 Y30.6140 
G01 X-35.8436 Y30.3390 
G01 X-35.8165 Y30.1680 
G01 X-35.7630 Y30.0033 
G01 X-35.6844 Y29.8490 
G01 X-35.5826 Y29.7090 
G01 X-34.1130 Y28.2394 
G01 X-33.9906 Y28.1170 
G01 X-33.8505 Y28.0152 
G01 X-33.6963 Y27.9366 
G01 X-33.5316 Y27.8831 
G01 X-33.3606 Y27.8560 
G01 X-28.7860 Y27.8560 
G01 X-28.7860 Y27.3454 
G01 X-28.7589 Y27.1744 
G01 X-28.7054 Y27.0097 
G01 X-28.6268 Y26.8555 
G01 X-28.5250 Y26.7154 
G01 X-28.4026 Y26.5930 
G01 X-27.3866 Y25.5770 
G01 X-27.2465 Y25.4752 
G01 X-27.0923 Y25.3966 
G01 X-26.9276 Y25.3431 
G01 X-26.7566 Y25.3160 
G01 X-24.9760 Y25.3160 
G01 X-24.9760 Y23.2814 
G01 X-24.9489 Y23.1104 
G01 X-24.8954 Y22.9457 
G01 X-24.8168 Y22.7915 
G01 X-24.7150 Y22.6514 
G01 X-24.5926 Y22.5290 
G01 X-21.5446 Y19.4810 
G00 Z5.0000  
G00 X-20.5924 Y21.6400 
G01 Z-0.0250 F50    
G01 X-22.7760 Y23.8236 F50    
G01 X-22.7760 Y25.4864 
G01 X-22.6514 Y25.5770 
G01 X-21.4358 Y26.7925 
G01 X-20.7534 Y27.4750 
G01 X-20.5670 Y27.4750 
G01 X-20.3880 Y27.3449 
G01 X-20.1863 Y27.2422 
G01 X-19.9710 Y27.1722 
G01 X-19.7474 Y27.1368 
G01 X-17.8446 Y27.1368 
G01 X-17.6210 Y27.1722 
G01 X-17.4057 Y27.2422 
G01 X-17.2040 Y27.3449 
G01 X-17.0209 Y27.4780 
G01 X-16.8608 Y27.6381 
G01 X-16.7277 Y27.8212 
G01 X-16.6250 Y28.0229 
G01 X-16.5550 Y28.2382 
G01 X-16.5196 Y28.4618 
G01 X-16.5196 Y28.6882 
G01 X-16.5550 Y28.9118 
G01 X-16.6250 Y29.1271 
G01 X-16.7277 Y29.3288 
G01 X-16.8608 Y29.5119 
G01 X-17.0209 Y29.6720 
G01 X-17.2040 Y29.8051 
G01 X-17.4057 Y29.9078 
G01 X-17.6210 Y29.9778 
G01 X-17.8446 Y30.0132 
G01 X-19.7474 Y30.0132 
G01 X-19.9710 Y29.9778 
G01 X-20.1863 Y29.9078 
G01 X-20.3880 Y29.8051 
G01 X-20.4858 Y29.7340 
G01 X-20.7142 Y29.9624 
G01 X-20.7142 Y30.7964 
G01 X-20.7399 Y30.9587 
G01 X-20.6918 Y30.9341 
G01 X-20.6280 Y30.9134 
G01 X-20.5711 Y30.8566 
G01 X-20.3880 Y30.7235 
G01 X-20.1863 Y30.6207 
G01 X-19.9710 Y30.5508 
G01 X-19.7474 Y30.5154 
G01 X-17.8446 Y30.5154 
G01 X-17.6210 Y30.5508 
G01 X-17.4057 Y30.6207 
G01 X-17.2040 Y30.7235 
G01 X-17.1085 Y30.7929 
G01 X-16.0860 Y29.7704 
G01 X-16.0860 Y27.7606 
G01 X-19.2944 Y24.5522 
G01 X-20.1284 Y24.5522 
G01 X-20.3520 Y24.5168 
G01 X-20.5673 Y24.4468 
G01 X-20.7690 Y24.3441 
G01 X-20.9521 Y24.2110 
G01 X-21.1122 Y24.0509 
G01 X-21.2453 Y23.8678 
G01 X-21.3480 Y23.6661 
G01 X-21.4180 Y23.4508 
G01 X-21.4534 Y23.2272 
G01 X-21.4534 Y23.0008 
G01 X-21.4180 Y22.7772 
G01 X-21.3480 Y22.5619 
G01 X-21.2453 Y22.3602 
G01 X-21.1122 Y22.1771 
G01 X-20.9521 Y22.0170 
G01 X-20.7690 Y21.8839 
G01 X-20.5673 Y21.7812 
G01 X-20.3698 Y21.7170 
G01 X-20.5673 Y21.6528 
G00 Z5.0000  
G00 X-23.8236 Y27.5160 
G01 Z-0.0250 F50    
G01 X-26.2144 Y27.5160 F50    
G01 X-26.5860 Y27.8876 
G01 X-26.5860 Y28.6616 
G01 X-26.6131 Y28.8326 
G01 X-26.6666 Y28.9973 
G01 X-26.7452 Y29.1515 
G01 X-26.8470 Y29.2916 
G01 X-26.9694 Y29.4140 
G01 X-27.2915 Y29.7361 
G01 X-27.4035 Y29.8481 
G01 X-27.4035 Y29.9672 
G01 X-27.4417 Y30.2085 
G01 X-27.5172 Y30.4410 
G01 X-27.6282 Y30.6587 
G01 X-27.7718 Y30.8564 
G01 X-27.9446 Y31.0292 
G01 X-28.0627 Y31.1150 
G01 X-27.9574 Y31.1915 
G01 X-27.6769 Y30.9110 
G01 X-26.4935 Y29.7276 
G01 X-26.4935 Y28.8936 
G01 X-26.4581 Y28.6700 
G01 X-26.3881 Y28.4547 
G01 X-26.2853 Y28.2530 
G01 X-26.1523 Y28.0699 
G01 X-25.9922 Y27.9098 
G01 X-25.8091 Y27.7767 
G01 X-25.6074 Y27.6740 
G01 X-25.3921 Y27.6040 
G01 X-25.1685 Y27.5686 
G01 X-24.9421 Y27.5686 
G01 X-24.7185 Y27.6040 
G01 X-24.5032 Y27.6740 
G01 X-24.3015 Y27.7767 
G01 X-24.1184 Y27.9098 
G01 X-23.9583 Y28.0699 
G01 X-23.8252 Y28.2530 
G01 X-23.7224 Y28.4547 
G01 X-23.6525 Y28.6700 
G01 X-23.6171 Y28.8936 
G01 X-23.6171 Y30.7964 
G01 X-23.6418 Y30.9525 
G01 X-23.5460 Y31.0484 
G01 X-23.5552 Y31.0200 
G01 X-23.5906 Y30.7964 
G01 X-23.5906 Y28.8936 
G01 X-23.5552 Y28.6700 
G01 X-23.4853 Y28.4547 
G01 X-23.3825 Y28.2530 
G01 X-23.2580 Y28.0817 
G01 X-23.8236 Y27.5160 
G00 Z5.0000  
G00 X-23.9583 Y35.6899 
G01 Z-0.0250 F50    
G01 X-23.8252 Y35.8730 F50    
G01 X-23.7224 Y36.0747 
G01 X-23.6525 Y36.2900 
G01 X-23.6406 Y36.3650 
G01 X-23.5671 Y36.3650 
G01 X-23.5552 Y36.2900 
G01 X-23.4853 Y36.0747 
G01 X-23.3825 Y35.8730 
G01 X-23.2494 Y35.6899 
G01 X-23.2035 Y35.6440 
G01 X-24.0042 Y35.6440 
G01 X-23.9583 Y35.6899 
G00 Z5.0000  
G00 X-26.1064 Y35.6440 
G01 Z-0.0250 F50    
G01 X-27.5799 Y35.6440 F50    
G01 X-27.6282 Y35.7387 
G01 X-27.7718 Y35.9364 
G01 X-27.9446 Y36.1092 
G01 X-28.0627 Y36.1950 
G01 X-27.9446 Y36.2808 
G01 X-27.8604 Y36.3650 
G01 X-26.4699 Y36.3650 
G01 X-26.4581 Y36.2900 
G01 X-26.3881 Y36.0747 
G01 X-26.2853 Y35.8730 
G01 X-26.1523 Y35.6899 
G01 X-26.1064 Y35.6440 
G00 Z5.0000  
G00 X-26.4699 Y38.5650 
G01 Z-0.0250 F50    
G01 X-27.8604 Y38.5650 F50    
G01 X-27.9446 Y38.6492 
G01 X-28.0627 Y38.7350 
G01 X-27.9446 Y38.8208 
G01 X-27.8604 Y38.9050 
G01 X-27.8026 Y38.9050 
G01 X-27.6316 Y38.9321 
G01 X-27.4669 Y38.9856 
G01 X-27.3127 Y39.0642 
G01 X-27.1726 Y39.1660 
G01 X-26.7986 Y39.5400 
G01 X-25.7958 Y39.5400 
G01 X-25.9922 Y39.4002 
G01 X-26.1523 Y39.2401 
G01 X-26.2853 Y39.0570 
G01 X-26.3881 Y38.8553 
G01 X-26.4581 Y38.6400 
G01 X-26.4699 Y38.5650 
G00 Z5.0000  
G00 X-23.6406 Y38.5650 
G01 Z-0.0250 F50    
G01 X-23.6525 Y38.6400 F50    
G01 X-23.7224 Y38.8553 
G01 X-23.8252 Y39.0570 
G01 X-23.9583 Y39.2401 
G01 X-24.1184 Y39.4002 
G01 X-24.3015 Y39.5333 
G01 X-22.8930 Y39.5400 
G01 X-23.0893 Y39.4002 
G01 X-23.2494 Y39.2401 
G01 X-23.3825 Y39.0570 
G01 X-23.4853 Y38.8553 
G01 X-23.5552 Y38.6400 
G01 X-23.5671 Y38.5650 
G01 X-23.6406 Y38.5650 
G00 Z5.0000  
G00 X-23.6732 Y50.8800 
G01 Z-0.0250 F50    
G01 X-24.2322 Y50.8800 F50    
G01 X-24.0490 Y51.0569 
G01 X-23.9159 Y51.2400 
G01 X-23.8132 Y51.4417 
G01 X-23.7432 Y51.6570 
G01 X-23.7078 Y51.8806 
G01 X-23.7078 Y53.7834 
G01 X-23.7353 Y53.9571 
G01 X-23.3900 Y54.3023 
G01 X-23.4308 Y54.2223 
G01 X-23.5008 Y54.0070 
G01 X-23.5362 Y53.7834 
G01 X-23.5362 Y51.8806 
G01 X-23.5008 Y51.6570 
G01 X-23.4480 Y51.4946 
G01 X-23.4480 Y51.1052 
G01 X-23.6732 Y50.8800 
G00 Z5.0000  
G00 X-26.0598 Y50.8800 
G01 Z-0.0250 F50    
G01 X-26.6188 Y50.8800 F50    
G01 X-27.6060 Y51.8672 
G01 X-27.6060 Y52.0618 
G01 X-27.5172 Y52.2360 
G01 X-27.4417 Y52.4685 
G01 X-27.4035 Y52.7098 
G01 X-27.4035 Y52.9542 
G01 X-27.4417 Y53.1955 
G01 X-27.5172 Y53.4280 
G01 X-27.6282 Y53.6457 
G01 X-27.7718 Y53.8434 
G01 X-27.9446 Y54.0162 
G01 X-28.0627 Y54.1020 
G01 X-27.9446 Y54.1878 
G01 X-27.8604 Y54.2720 
G01 X-26.6176 Y54.2720 
G01 X-26.5007 Y54.1550 
G01 X-26.5488 Y54.0070 
G01 X-26.5842 Y53.7834 
G01 X-26.5842 Y51.8806 
G01 X-26.5488 Y51.6570 
G01 X-26.4788 Y51.4417 
G01 X-26.3761 Y51.2400 
G01 X-26.2430 Y51.0569 
G01 X-26.0829 Y50.8968 
G00 Z5.0000  
G00 X-28.7160 Y49.1588 
G01 Z-0.0250 F50    
G01 X-28.8338 Y49.1775 F50    
G01 X-29.0782 Y49.1775 
G01 X-29.3195 Y49.1393 
G01 X-29.5520 Y49.0638 
G01 X-29.7697 Y48.9528 
G01 X-29.9674 Y48.8092 
G01 X-30.0516 Y48.7250 
G01 X-37.2634 Y48.7250 
G01 X-38.0160 Y49.4776 
G01 X-38.0160 Y75.2364 
G01 X-37.8984 Y75.3540 
G01 X-32.7664 Y75.3540 
G01 X-32.5954 Y75.3811 
G01 X-32.4307 Y75.4346 
G01 X-32.2765 Y75.5132 
G01 X-32.1364 Y75.6150 
G01 X-32.0140 Y75.7374 
G01 X-30.5200 Y77.2314 
G01 X-30.5200 Y77.0697 
G01 X-30.4868 Y76.8599 
G01 X-30.4211 Y76.6578 
G01 X-30.3246 Y76.4684 
G01 X-30.2700 Y76.3933 
G01 X-30.2700 Y71.4447 
G01 X-30.3948 Y71.2080 
G01 X-30.4703 Y70.9755 
G01 X-30.5085 Y70.7342 
G01 X-30.5085 Y70.4898 
G01 X-30.4703 Y70.2485 
G01 X-30.3948 Y70.0160 
G01 X-30.2838 Y69.7983 
G01 X-30.1402 Y69.6006 
G01 X-29.9674 Y69.4278 
G01 X-29.8493 Y69.3420 
G01 X-29.9674 Y69.2562 
G01 X-30.0516 Y69.1720 
G01 X-35.1599 Y69.1720 
G01 X-35.2865 Y69.2985 
G01 X-35.4912 Y69.4473 
G01 X-35.7167 Y69.5622 
G01 X-35.9575 Y69.6404 
G01 X-36.2074 Y69.6800 
G01 X-36.4606 Y69.6800 
G01 X-36.7105 Y69.6404 
G01 X-36.9513 Y69.5622 
G01 X-37.1768 Y69.4473 
G01 X-37.3815 Y69.2985 
G01 X-37.5605 Y69.1195 
G01 X-37.7093 Y68.9148 
G01 X-37.8242 Y68.6893 
G01 X-37.9024 Y68.4485 
G01 X-37.9420 Y68.1986 
G01 X-37.9420 Y67.9454 
G01 X-37.9024 Y67.6955 
G01 X-37.8242 Y67.4547 
G01 X-37.7093 Y67.2292 
G01 X-37.5605 Y67.0245 
G01 X-37.3815 Y66.8455 
G01 X-37.1768 Y66.6967 
G01 X-36.9513 Y66.5818 
G01 X-36.7105 Y66.5036 
G01 X-36.4606 Y66.4640 
G01 X-36.2074 Y66.4640 
G01 X-35.9575 Y66.5036 
G01 X-35.7167 Y66.5818 
G01 X-35.4912 Y66.6967 
G01 X-35.2865 Y66.8455 
G01 X-35.1599 Y66.9720 
G01 X-30.0516 Y66.9720 
G01 X-29.9674 Y66.8878 
G01 X-29.8493 Y66.8020 
G01 X-29.9674 Y66.7162 
G01 X-30.1402 Y66.5434 
G01 X-30.2838 Y66.3457 
G01 X-30.3948 Y66.1280 
G01 X-30.4703 Y65.8955 
G01 X-30.5085 Y65.6542 
G01 X-30.5085 Y65.4098 
G01 X-30.4703 Y65.1685 
G01 X-30.3948 Y64.9360 
G01 X-30.2838 Y64.7183 
G01 X-30.1402 Y64.5206 
G01 X-29.9674 Y64.3478 
G01 X-29.8493 Y64.2620 
G01 X-29.9674 Y64.1762 
G01 X-30.0516 Y64.0920 
G01 X-30.5893 Y64.0920 
G01 X-30.6012 Y64.1670 
G01 X-30.6712 Y64.3823 
G01 X-30.7739 Y64.5840 
G01 X-30.9070 Y64.7671 
G01 X-31.0671 Y64.9272 
G01 X-31.2502 Y65.0603 
G01 X-31.4519 Y65.1630 
G01 X-31.6672 Y65.2330 
G01 X-31.8908 Y65.2684 
G01 X-32.1172 Y65.2684 
G01 X-32.3408 Y65.2330 
G01 X-32.5561 Y65.1630 
G01 X-32.7578 Y65.0603 
G01 X-32.9409 Y64.9272 
G01 X-33.1010 Y64.7671 
G01 X-33.2341 Y64.5840 
G01 X-33.3368 Y64.3823 
G01 X-33.4010 Y64.1848 
G01 X-33.4652 Y64.3823 
G01 X-33.5679 Y64.5840 
G01 X-33.7010 Y64.7671 
G01 X-33.8611 Y64.9272 
G01 X-34.0442 Y65.0603 
G01 X-34.2459 Y65.1630 
G01 X-34.4612 Y65.2330 
G01 X-34.6848 Y65.2684 
G01 X-34.9112 Y65.2684 
G01 X-35.1348 Y65.2330 
G01 X-35.3501 Y65.1630 
G01 X-35.5518 Y65.0603 
G01 X-35.7349 Y64.9272 
G01 X-35.8950 Y64.7671 
G01 X-36.0281 Y64.5840 
G01 X-36.1308 Y64.3823 
G01 X-36.2008 Y64.1670 
G01 X-36.2362 Y63.9434 
G01 X-36.2362 Y62.0406 
G01 X-36.2008 Y61.8170 
G01 X-36.1308 Y61.6017 
G01 X-36.0281 Y61.4000 
G01 X-35.8950 Y61.2169 
G01 X-35.7349 Y61.0568 
G01 X-35.5518 Y60.9237 
G01 X-35.3501 Y60.8210 
G01 X-35.1348 Y60.7510 
G01 X-34.9112 Y60.7156 
G01 X-34.6848 Y60.7156 
G01 X-34.4612 Y60.7510 
G01 X-34.2459 Y60.8210 
G01 X-34.0442 Y60.9237 
G01 X-33.8611 Y61.0568 
G01 X-33.7010 Y61.2169 
G01 X-33.5679 Y61.4000 
G01 X-33.4652 Y61.6017 
G01 X-33.4010 Y61.7992 
G01 X-33.3368 Y61.6017 
G01 X-33.2341 Y61.4000 
G01 X-33.1010 Y61.2169 
G01 X-32.9409 Y61.0568 
G01 X-32.7578 Y60.9237 
G01 X-32.5561 Y60.8210 
G01 X-32.3408 Y60.7510 
G01 X-32.1172 Y60.7156 
G01 X-31.8908 Y60.7156 
G01 X-31.6672 Y60.7510 
G01 X-31.4519 Y60.8210 
G01 X-31.2502 Y60.9237 
G01 X-31.0671 Y61.0568 
G01 X-30.9070 Y61.2169 
G01 X-30.7739 Y61.4000 
G01 X-30.6712 Y61.6017 
G01 X-30.6012 Y61.8170 
G01 X-30.5893 Y61.8920 
G01 X-30.0516 Y61.8920 
G01 X-29.9674 Y61.8078 
G01 X-29.8493 Y61.7220 
G01 X-29.9674 Y61.6362 
G01 X-30.1402 Y61.4634 
G01 X-30.2838 Y61.2657 
G01 X-30.3948 Y61.0480 
G01 X-30.4703 Y60.8155 
G01 X-30.5085 Y60.5742 
G01 X-30.5085 Y60.3298 
G01 X-30.4703 Y60.0885 
G01 X-30.3948 Y59.8560 
G01 X-30.2838 Y59.6383 
G01 X-30.1402 Y59.4406 
G01 X-29.9674 Y59.2678 
G01 X-29.8493 Y59.1820 
G01 X-29.9674 Y59.0962 
G01 X-30.1402 Y58.9234 
G01 X-30.2838 Y58.7257 
G01 X-30.3948 Y58.5080 
G01 X-30.4703 Y58.2755 
G01 X-30.5085 Y58.0342 
G01 X-30.5085 Y57.7898 
G01 X-30.4703 Y57.5485 
G01 X-30.3948 Y57.3160 
G01 X-30.2838 Y57.0983 
G01 X-30.1402 Y56.9006 
G01 X-29.9674 Y56.7278 
G01 X-29.8493 Y56.6420 
G01 X-29.9674 Y56.5562 
G01 X-30.0516 Y56.4720 
G01 X-30.5893 Y56.4720 
G01 X-30.6012 Y56.5470 
G01 X-30.6712 Y56.7623 
G01 X-30.7739 Y56.9640 
G01 X-30.9070 Y57.1471 
G01 X-31.0671 Y57.3072 
G01 X-31.2502 Y57.4403 
G01 X-31.4519 Y57.5430 
G01 X-31.6672 Y57.6130 
G01 X-31.8908 Y57.6484 
G01 X-32.1172 Y57.6484 
G01 X-32.3408 Y57.6130 
G01 X-32.5561 Y57.5430 
G01 X-32.7578 Y57.4403 
G01 X-32.9409 Y57.3072 
G01 X-33.1010 Y57.1471 
G01 X-33.2341 Y56.9640 
G01 X-33.3368 Y56.7623 
G01 X-33.4010 Y56.5648 
G01 X-33.4652 Y56.7623 
G01 X-33.5679 Y56.9640 
G01 X-33.7010 Y57.1471 
G01 X-33.8611 Y57.3072 
G01 X-34.0442 Y57.4403 
G01 X-34.2459 Y57.5430 
G01 X-34.4612 Y57.6130 
G01 X-34.6848 Y57.6484 
G01 X-34.9112 Y57.6484 
G01 X-35.1348 Y57.6130 
G01 X-35.3501 Y57.5430 
G01 X-35.5518 Y57.4403 
G01 X-35.7349 Y57.3072 
G01 X-35.8950 Y57.1471 
G01 X-36.0281 Y56.9640 
G01 X-36.1308 Y56.7623 
G01 X-36.2008 Y56.5470 
G01 X-36.2362 Y56.3234 
G01 X-36.2362 Y54.4206 
G01 X-36.2008 Y54.1970 
G01 X-36.1308 Y53.9817 
G01 X-36.0281 Y53.7800 
G01 X-35.8980 Y53.6010 
G01 X-35.8980 Y52.7454 
G01 X-35.8709 Y52.5744 
G01 X-35.8174 Y52.4097 
G01 X-35.7388 Y52.2555 
G01 X-35.6370 Y52.1154 
G01 X-33.9906 Y50.4690 
G01 X-33.8505 Y50.3672 
G01 X-33.6963 Y50.2886 
G01 X-33.5316 Y50.2351 
G01 X-33.3606 Y50.2080 
G01 X-29.7652 Y50.2080 
G01 X-28.7160 Y49.1588 
G00 Z5.0000  
G00 X-29.8493 Y46.3550 
G01 Z-0.0250 F50    
G01 X-29.9674 Y46.2692 F50    
G01 X-30.0516 Y46.1850 
G01 X-35.5291 Y46.1850 
G01 X-35.7332 Y46.3333 
G01 X-35.9587 Y46.4482 
G01 X-36.1951 Y46.5250 
G01 X-30.0516 Y46.5250 
G01 X-29.9674 Y46.4408 
G01 X-29.8493 Y46.3550 
G00 Z5.0000  
G00 X-30.4506 Y52.4080 
G01 Z-0.0250 F50    
G01 X-32.8184 Y52.4080 F50    
G01 X-33.6980 Y53.2876 
G01 X-33.6980 Y53.6010 
G01 X-33.5679 Y53.7800 
G01 X-33.4652 Y53.9817 
G01 X-33.4010 Y54.1792 
G01 X-33.3368 Y53.9817 
G01 X-33.2341 Y53.7800 
G01 X-33.1010 Y53.5969 
G01 X-32.9409 Y53.4368 
G01 X-32.7578 Y53.3037 
G01 X-32.5561 Y53.2010 
G01 X-32.3408 Y53.1310 
G01 X-32.1172 Y53.0956 
G01 X-31.8908 Y53.0956 
G01 X-31.6672 Y53.1310 
G01 X-31.4519 Y53.2010 
G01 X-31.2502 Y53.3037 
G01 X-31.0671 Y53.4368 
G01 X-30.9070 Y53.5969 
G01 X-30.7739 Y53.7800 
G01 X-30.6712 Y53.9817 
G01 X-30.6012 Y54.1970 
G01 X-30.5893 Y54.2720 
G01 X-30.0516 Y54.2720 
G01 X-29.9674 Y54.1878 
G01 X-29.8493 Y54.1020 
G01 X-29.9674 Y54.0162 
G01 X-30.1402 Y53.8434 
G01 X-30.2838 Y53.6457 
G01 X-30.3948 Y53.4280 
G01 X-30.4703 Y53.1955 
G01 X-30.5085 Y52.9542 
G01 X-30.5085 Y52.7098 
G01 X-30.4703 Y52.4685 
G01 X-30.4506 Y52.4080 
G00 Z5.0000  
G00 X-28.0627 Y56.6420 
G01 Z-0.0250 F50    
G01 X-27.9446 Y56.7278 F50    
G01 X-27.8604 Y56.8120 
G01 X-26.4582 Y56.8120 
G01 X-26.3330 Y56.7482 
G01 X-26.1683 Y56.6947 
G01 X-25.9973 Y56.6676 
G01 X-24.7379 Y56.6676 
G01 X-24.8063 Y56.6454 
G01 X-24.9605 Y56.5668 
G01 X-25.0910 Y56.4720 
G01 X-27.8604 Y56.4720 
G01 X-27.9446 Y56.5562 
G01 X-28.0627 Y56.6420 
G00 Z5.0000  
G00 X-28.0627 Y59.1820 
G01 Z-0.0250 F50    
G01 X-27.9446 Y59.2678 F50    
G01 X-27.8604 Y59.3520 
G01 X-26.5607 Y59.3520 
G01 X-26.5488 Y59.2770 
G01 X-26.4788 Y59.0617 
G01 X-26.4535 Y59.0120 
G01 X-27.8604 Y59.0120 
G01 X-27.9446 Y59.0962 
G01 X-28.0627 Y59.1820 
G00 Z5.0000  
G00 X-28.0627 Y61.7220 
G01 Z-0.0250 F50    
G01 X-27.9446 Y61.8078 F50    
G01 X-27.8604 Y61.8920 
G01 X-26.8374 Y61.8920 
G01 X-26.6664 Y61.9191 
G01 X-26.5017 Y61.9726 
G01 X-26.3811 Y62.0341 
G01 X-26.4788 Y61.8423 
G01 X-26.5488 Y61.6270 
G01 X-26.5607 Y61.5520 
G01 X-27.8604 Y61.5520 
G01 X-27.9446 Y61.6362 
G01 X-28.0627 Y61.7220 
G00 Z5.0000  
G00 X-28.0627 Y64.2620 
G01 Z-0.0250 F50    
G01 X-27.9446 Y64.3478 F50    
G01 X-27.8604 Y64.4320 
G01 X-27.3454 Y64.4320 
G01 X-27.1744 Y64.4591 
G01 X-27.0097 Y64.5126 
G01 X-26.9064 Y64.5653 
G01 X-27.3796 Y64.0920 
G01 X-27.8604 Y64.0920 
G01 X-27.9446 Y64.1762 
G01 X-28.0627 Y64.2620 
G00 Z5.0000  
G00 X-23.7313 Y59.3520 
G01 Z-0.0250 F50    
G01 X-23.5127 Y59.3520 F50    
G01 X-23.5008 Y59.2770 
G01 X-23.4308 Y59.0617 
G01 X-23.3319 Y58.8676 
G01 X-23.9121 Y58.8676 
G01 X-23.8132 Y59.0617 
G01 X-23.7432 Y59.2770 
G01 X-23.7313 Y59.3520 
G00 Z5.0000  
G00 X-20.9421 Y54.5260 
G01 Z-0.0250 F50    
G01 X-20.6951 Y54.5260 F50    
G01 X-20.5711 Y54.4020 
G01 X-20.3880 Y54.2689 
G01 X-20.1863 Y54.1662 
G01 X-19.9710 Y54.0962 
G01 X-19.7474 Y54.0608 
G01 X-17.8446 Y54.0608 
G01 X-17.6210 Y54.0962 
G01 X-17.4586 Y54.1490 
G01 X-17.1962 Y54.1490 
G01 X-16.8440 Y53.7968 
G01 X-16.8440 Y53.3648 
G01 X-17.0209 Y53.5480 
G01 X-17.2040 Y53.6811 
G01 X-17.4057 Y53.7838 
G01 X-17.6210 Y53.8538 
G01 X-17.8446 Y53.8892 
G01 X-19.7474 Y53.8892 
G01 X-19.9710 Y53.8538 
G01 X-20.1334 Y53.8010 
G01 X-20.6626 Y53.8010 
G01 X-20.6952 Y54.0070 
G01 X-20.7652 Y54.2223 
G01 X-20.8679 Y54.4240 
G01 X-20.9421 Y54.5260 
G00 Z5.0000  
G00 X-15.6100 Y67.1400 
G01 Z-0.0250 F50    
G01 X-15.5484 Y67.1714 F50    
G01 X-15.3765 Y67.2963 
G01 X-13.7023 Y68.9705 
G01 X-13.5774 Y69.1424 
G01 X-13.4809 Y69.3318 
G01 X-13.4152 Y69.5339 
G01 X-13.3820 Y69.7438 
G01 X-13.3820 Y70.7142 
G01 X-13.2051 Y70.5310 
G01 X-13.0220 Y70.3979 
G01 X-12.8203 Y70.2952 
G01 X-12.6050 Y70.2252 
G01 X-12.5300 Y70.2133 
G01 X-12.5300 Y69.7407 
G01 X-12.6050 Y69.7288 
G01 X-12.8203 Y69.6588 
G01 X-13.0220 Y69.5561 
G01 X-13.2051 Y69.4230 
G01 X-13.3652 Y69.2629 
G01 X-13.4983 Y69.0798 
G01 X-13.6010 Y68.8781 
G01 X-13.6710 Y68.6628 
G01 X-13.7064 Y68.4392 
G01 X-13.7064 Y68.2128 
G01 X-13.6710 Y67.9892 
G01 X-13.6010 Y67.7739 
G01 X-13.5797 Y67.7320 
G01 X-14.1716 Y67.1400 
G01 X-15.6100 Y67.1400 
G00 Z5.0000  
G00 X-40.3282 Y67.2583 
G01 Z-0.0250 F50    
G01 X-40.2172 Y67.4760 F50    
G01 X-40.2160 Y66.1241 
G01 X-40.3282 Y66.3457 
G01 X-40.4718 Y66.5434 
G01 X-40.6446 Y66.7162 
G01 X-40.7627 Y66.8020 
G01 X-40.6446 Y66.8878 
G01 X-40.4718 Y67.0606 
G01 X-40.3282 Y67.2583 
G00 Z5.0000  
G00 X-40.2160 Y68.6641 
G01 Z-0.0250 F50    
G01 X-40.2172 Y68.6680 F50    
G01 X-40.3282 Y68.8857 
G01 X-40.4718 Y69.0834 
G01 X-40.6446 Y69.2562 
G01 X-40.7627 Y69.3420 
G01 X-40.6446 Y69.4278 
G01 X-40.4718 Y69.6006 
G01 X-40.3282 Y69.7983 
G01 X-40.2172 Y70.0160 
G01 X-40.2160 Y68.6641 
G00 Z5.0000  
G00 X-40.2160 Y71.2041 
G01 Z-0.0250 F50    
G01 X-40.2172 Y71.2080 F50    
G01 X-40.3282 Y71.4257 
G01 X-40.4718 Y71.6234 
G01 X-40.6446 Y71.7962 
G01 X-40.8423 Y71.9398 
G01 X-41.0600 Y72.0508 
G01 X-41.2925 Y72.1263 
G01 X-41.5338 Y72.1645 
G01 X-41.7782 Y72.1645 
G01 X-42.0195 Y72.1263 
G01 X-42.2520 Y72.0508 
G01 X-42.4697 Y71.9398 
G01 X-42.6674 Y71.7962 
G01 X-42.7516 Y71.7120 
G01 X-44.5366 Y71.7120 
G01 X-44.7076 Y71.6849 
G01 X-44.8723 Y71.6314 
G01 X-45.0265 Y71.5528 
G01 X-45.1666 Y71.4510 
G01 X-46.6836 Y69.9340 
G01 X-46.8626 Y69.9340 
G01 X-47.1125 Y69.8944 
G01 X-47.3533 Y69.8162 
G01 X-47.5788 Y69.7013 
G01 X-47.7835 Y69.5525 
G01 X-47.9625 Y69.3735 
G01 X-48.1113 Y69.1688 
G01 X-48.2262 Y68.9433 
G01 X-48.3044 Y68.7025 
G01 X-48.3440 Y68.4526 
G01 X-48.3440 Y68.1994 
G01 X-48.3044 Y67.9495 
G01 X-48.2262 Y67.7087 
G01 X-48.1113 Y67.4832 
G01 X-47.9625 Y67.2785 
G01 X-47.7835 Y67.0995 
G01 X-47.5788 Y66.9507 
G01 X-47.3533 Y66.8358 
G01 X-47.1125 Y66.7576 
G01 X-46.8626 Y66.7180 
G01 X-46.6094 Y66.7180 
G01 X-46.3595 Y66.7576 
G01 X-46.1187 Y66.8358 
G01 X-45.8932 Y66.9507 
G01 X-45.6885 Y67.0995 
G01 X-45.5095 Y67.2785 
G01 X-45.3607 Y67.4832 
G01 X-45.2458 Y67.7087 
G01 X-45.1676 Y67.9495 
G01 X-45.1280 Y68.1994 
G01 X-45.1280 Y68.3784 
G01 X-43.9944 Y69.5120 
G01 X-42.7516 Y69.5120 
G01 X-42.6674 Y69.4278 
G01 X-42.5493 Y69.3420 
G01 X-42.6674 Y69.2562 
G01 X-42.7516 Y69.1720 
G01 X-43.0126 Y69.1720 
G01 X-43.1836 Y69.1449 
G01 X-43.3483 Y69.0914 
G01 X-43.5025 Y69.0128 
G01 X-43.6426 Y68.9110 
G01 X-45.6746 Y66.8790 
G01 X-45.7970 Y66.7566 
G01 X-45.8988 Y66.6165 
G01 X-45.9774 Y66.4623 
G01 X-46.0309 Y66.2976 
G01 X-46.0580 Y66.1266 
G01 X-46.0580 Y63.9556 
G01 X-55.5806 Y54.4330 
G01 X-55.7030 Y54.3106 
G01 X-55.8048 Y54.1705 
G01 X-55.8834 Y54.0163 
G01 X-55.9369 Y53.8516 
G01 X-55.9640 Y53.6806 
G01 X-55.9640 Y30.6816 
G01 X-61.1963 Y25.4494 
G01 X-61.1696 Y25.5315 
G01 X-61.1300 Y25.7814 
G01 X-61.1300 Y26.0346 
G01 X-61.1696 Y26.2845 
G01 X-61.2478 Y26.5253 
G01 X-61.3627 Y26.7508 
G01 X-61.5115 Y26.9555 
G01 X-61.6905 Y27.1345 
G01 X-61.8952 Y27.2833 
G01 X-62.1207 Y27.3982 
G01 X-62.3615 Y27.4764 
G01 X-62.6114 Y27.5160 
G01 X-62.8646 Y27.5160 
G01 X-63.1145 Y27.4764 
G01 X-63.3553 Y27.3982 
G01 X-63.5808 Y27.2833 
G01 X-63.7855 Y27.1345 
G01 X-63.9121 Y27.0080 
G01 X-64.6904 Y27.0080 
G01 X-64.7746 Y27.0922 
G01 X-64.8927 Y27.1780 
G01 X-64.7746 Y27.2638 
G01 X-64.6018 Y27.4366 
G01 X-64.4582 Y27.6343 
G01 X-64.3472 Y27.8520 
G01 X-64.2717 Y28.0845 
G01 X-64.2335 Y28.3258 
G01 X-64.2335 Y28.5702 
G01 X-64.2717 Y28.8115 
G01 X-64.3472 Y29.0440 
G01 X-64.4582 Y29.2617 
G01 X-64.6018 Y29.4594 
G01 X-64.7746 Y29.6322 
G01 X-64.8927 Y29.7180 
G01 X-64.7746 Y29.8038 
G01 X-64.6018 Y29.9766 
G01 X-64.4582 Y30.1743 
G01 X-64.3472 Y30.3920 
G01 X-64.2717 Y30.6245 
G01 X-64.2335 Y30.8658 
G01 X-64.2335 Y31.1102 
G01 X-64.2717 Y31.3515 
G01 X-64.3472 Y31.5840 
G01 X-64.4582 Y31.8017 
G01 X-64.6018 Y31.9994 
G01 X-64.7746 Y32.1722 
G01 X-64.8927 Y32.2580 
G01 X-64.7746 Y32.3438 
G01 X-64.6018 Y32.5166 
G01 X-64.4582 Y32.7143 
G01 X-64.3472 Y32.9320 
G01 X-64.2717 Y33.1645 
G01 X-64.2335 Y33.4058 
G01 X-64.2335 Y33.6502 
G01 X-64.2717 Y33.8915 
G01 X-64.3472 Y34.1240 
G01 X-64.4582 Y34.3417 
G01 X-64.6018 Y34.5394 
G01 X-64.7746 Y34.7122 
G01 X-64.8927 Y34.7980 
G01 X-64.7746 Y34.8838 
G01 X-64.6904 Y34.9680 
G01 X-64.4636 Y34.9680 
G01 X-63.3230 Y33.8274 
G01 X-63.2006 Y33.7050 
G01 X-63.0605 Y33.6032 
G01 X-62.9063 Y33.5246 
G01 X-62.7416 Y33.4711 
G01 X-62.5706 Y33.4440 
G01 X-58.5874 Y33.4440 
G01 X-58.4164 Y33.4711 
G01 X-58.2517 Y33.5246 
G01 X-58.0975 Y33.6032 
G01 X-57.9574 Y33.7050 
G01 X-56.4334 Y35.2290 
G01 X-56.3110 Y35.3514 
G01 X-56.2092 Y35.4915 
G01 X-56.1306 Y35.6457 
G01 X-56.0771 Y35.8104 
G01 X-56.0500 Y35.9814 
G01 X-56.0500 Y54.9164 
G01 X-50.8454 Y60.1210 
G01 X-50.7230 Y60.2434 
G01 X-50.6212 Y60.3835 
G01 X-50.5426 Y60.5377 
G01 X-50.4891 Y60.7024 
G01 X-50.4620 Y60.8734 
G01 X-50.4620 Y70.8604 
G01 X-50.2870 Y70.8881 
G01 X-50.0565 Y70.9630 
G01 X-49.8406 Y71.0730 
G01 X-49.6445 Y71.2155 
G01 X-49.4731 Y71.3869 
G01 X-49.3306 Y71.5830 
G01 X-49.2206 Y71.7989 
G01 X-49.1457 Y72.0294 
G01 X-49.1078 Y72.2688 
G01 X-49.1078 Y72.5112 
G01 X-49.1457 Y72.7506 
G01 X-49.2206 Y72.9811 
G01 X-49.3306 Y73.1970 
G01 X-49.4731 Y73.3931 
G01 X-49.6445 Y73.5645 
G01 X-49.7759 Y73.6600 
G01 X-49.6445 Y73.7555 
G01 X-49.5700 Y73.8300 
G01 X-48.9379 Y73.8300 
G01 X-48.9362 Y73.3500 
G01 X-48.0937 Y72.5075 
G01 X-46.9023 Y72.5075 
G01 X-46.5641 Y72.8457 
G01 X-45.8557 Y72.8457 
G01 X-45.6847 Y72.8728 
G01 X-45.5200 Y72.9263 
G01 X-45.3657 Y73.0049 
G01 X-45.2256 Y73.1067 
G01 X-45.1032 Y73.2291 
G01 X-42.9784 Y75.3540 
G01 X-40.3336 Y75.3540 
G01 X-40.2160 Y75.2364 
G01 X-40.2160 Y71.2041 
G00 Z5.0000  
G00 X-40.2160 Y64.9399 
G01 Z-0.0250 F50    
G01 X-40.2160 Y63.5841 F50    
G01 X-40.3282 Y63.8057 
G01 X-40.4718 Y64.0034 
G01 X-40.5560 Y64.0876 
G01 X-40.5560 Y64.4364 
G01 X-40.4718 Y64.5206 
G01 X-40.3282 Y64.7183 
G01 X-40.2172 Y64.9360 
G00 Z5.0000  
G00 X-40.2160 Y62.3999 
G01 Z-0.0250 F50    
