(.../eagleLibs/ULP/pcb-gcode.ulp)
(Copyright 2005 - 2012 by John Johnson)
(See readme.txt for licensing terms.)
(This file generated from the board:)
(.../EAGLE/projects/Jonica/schematic.brd)
(Current profile is .../eagleLibs/ULP/profiles/mach.pp  )
(This file generated 15/11/2018 12:38)
(Settings from pcb-machine.h)
(  Tool Size)
(0.3000  )
(Z Axis Settings)
(  High     Up        Down     Drill)
(5.0000  	3.0000  	-0.0250 	-1.0000 )
(spindle on time = 5.0000)
(milling depth = -0.0250)
(text depth = -0.0050)
(tool change at 0.5000  0.6000  1.0000  )
(feed rate xy = F50    )
(feed rate z  = F10    )
(Settings from pcb-defaults.h)
(isolate min = 0.3000)
(isolate max = 15.0000)
(isolate step = 0.3000)
(Generated bottom outlines, bottom drill, )
(Unit of measure: mm)
(Metric Mode)
G21
(Absolute Coordinates)
G90
G00 X0.0000  Y0.0000  
M03
G04 P5.000000
G00 Z3.0000  
G00 X-58.6080 Y87.0072 
G01 Z-0.0250 F10    
G01 X-58.6080 Y87.2365 F50    
G01 X-60.8855 Y89.5140 
G01 X-61.2067 Y89.5140 
G01 X-61.2164 Y89.5007 
G01 X-61.3810 Y89.3361 
G01 X-61.5693 Y89.1993 
G01 X-61.7767 Y89.0936 
G01 X-61.9980 Y89.0217 
G01 X-62.2279 Y88.9853 
G01 X-64.5181 Y88.9853 
G01 X-64.7480 Y89.0217 
G01 X-64.9693 Y89.0936 
G01 X-65.1767 Y89.1993 
G01 X-65.3650 Y89.3361 
G01 X-65.5296 Y89.5007 
G01 X-65.6664 Y89.6890 
G01 X-65.7721 Y89.8964 
G01 X-65.8440 Y90.1177 
G01 X-65.8520 Y90.1683 
G01 X-65.8520 Y84.7087 
G01 X-65.8440 Y84.7593 
G01 X-65.7721 Y84.9806 
G01 X-65.6664 Y85.1880 
G01 X-65.5296 Y85.3763 
G01 X-65.3650 Y85.5409 
G01 X-65.1767 Y85.6777 
G01 X-64.9693 Y85.7834 
G01 X-64.7480 Y85.8553 
G01 X-64.5181 Y85.8917 
G01 X-62.2279 Y85.8917 
G01 X-61.9980 Y85.8553 
G01 X-61.7767 Y85.7834 
G01 X-61.5693 Y85.6777 
G01 X-61.3810 Y85.5409 
G01 X-61.2164 Y85.3763 
G01 X-61.1390 Y85.2698 
G01 X-61.1030 Y85.2549 
G01 X-60.9474 Y85.1509 
G01 X-60.8151 Y85.0186 
G01 X-58.9521 Y83.1556 
G01 X-58.8481 Y83.0000 
G01 X-58.7765 Y82.8271 
G01 X-58.7400 Y82.6436 
G01 X-58.7400 Y71.4699 
G01 X-58.5779 Y71.3078 
G01 X-58.4430 Y71.1222 
G01 X-58.3540 Y70.9475 
G01 X-58.3540 Y83.4056 
G01 X-58.3175 Y83.5891 
G01 X-58.2459 Y83.7620 
G01 X-58.1419 Y83.9176 
G01 X-52.7660 Y89.2935 
G01 X-52.7660 Y98.9402 
G01 X-52.8906 Y98.9402 
G01 X-53.1066 Y98.9744 
G01 X-53.3147 Y99.0420 
G01 X-53.5096 Y99.1413 
G01 X-53.6866 Y99.2699 
G01 X-53.8284 Y99.4117 
G01 X-55.7702 Y99.4117 
G01 X-56.1084 Y99.0736 
G01 X-57.1756 Y99.0736 
G01 X-57.9302 Y99.8282 
G01 X-57.9302 Y100.8953 
G01 X-57.1756 Y101.6499 
G01 X-56.1084 Y101.6499 
G01 X-55.7702 Y101.3117 
G01 X-53.7649 Y101.3117 
G01 X-53.6866 Y101.3901 
G01 X-53.5096 Y101.5187 
G01 X-53.3500 Y101.6000 
G01 X-53.5096 Y101.6813 
G01 X-53.6866 Y101.8099 
G01 X-53.7967 Y101.9200 
G01 X-55.7513 Y101.9200 
G01 X-55.9349 Y101.9565 
G01 X-56.1077 Y102.0281 
G01 X-56.2633 Y102.1321 
G01 X-56.6973 Y102.5661 
G01 X-57.1756 Y102.5661 
G01 X-57.5138 Y102.9043 
G01 X-61.1062 Y102.9043 
G01 X-65.8520 Y98.1585 
G01 X-65.8520 Y95.7597 
G01 X-65.8440 Y95.8103 
G01 X-65.7721 Y96.0316 
G01 X-65.6664 Y96.2390 
G01 X-65.5296 Y96.4273 
G01 X-65.3650 Y96.5919 
G01 X-65.1767 Y96.7287 
G01 X-64.9693 Y96.8344 
G01 X-64.7480 Y96.9063 
G01 X-64.5181 Y96.9427 
G01 X-62.2279 Y96.9427 
G01 X-61.9980 Y96.9063 
G01 X-61.7767 Y96.8344 
G01 X-61.5693 Y96.7287 
G01 X-61.3810 Y96.5919 
G01 X-61.2164 Y96.4273 
G01 X-61.2067 Y96.4140 
G01 X-60.5724 Y96.4140 
G01 X-60.3889 Y96.3775 
G01 X-60.2160 Y96.3059 
G01 X-60.0604 Y96.2019 
G01 X-55.9945 Y92.1360 
G01 X-55.7653 Y92.1360 
G01 X-55.5386 Y92.1001 
G01 X-55.3203 Y92.0292 
G01 X-55.1158 Y91.9250 
G01 X-54.9302 Y91.7901 
G01 X-54.7679 Y91.6278 
G01 X-54.6330 Y91.4422 
G01 X-54.5288 Y91.2377 
G01 X-54.4579 Y91.0194 
G01 X-54.4220 Y90.7927 
G01 X-54.4220 Y90.5633 
G01 X-54.4579 Y90.3366 
G01 X-54.5288 Y90.1183 
G01 X-54.6330 Y89.9138 
G01 X-54.7679 Y89.7282 
G01 X-54.9302 Y89.5659 
G01 X-55.1158 Y89.4310 
G01 X-55.3203 Y89.3268 
G01 X-55.5386 Y89.2559 
G01 X-55.7653 Y89.2200 
G01 X-55.9947 Y89.2200 
G01 X-56.2214 Y89.2559 
G01 X-56.4397 Y89.3268 
G01 X-56.6442 Y89.4310 
G01 X-56.8298 Y89.5659 
G01 X-56.9921 Y89.7282 
G01 X-57.1270 Y89.9138 
G01 X-57.2312 Y90.1183 
G01 X-57.3021 Y90.3366 
G01 X-57.3380 Y90.5633 
G01 X-57.3380 Y90.7925 
G01 X-61.0595 Y94.5140 
G01 X-61.2067 Y94.5140 
G01 X-61.2164 Y94.5007 
G01 X-61.3810 Y94.3361 
G01 X-61.5693 Y94.1993 
G01 X-61.7767 Y94.0936 
G01 X-61.9980 Y94.0217 
G01 X-62.2279 Y93.9853 
G01 X-64.5181 Y93.9853 
G01 X-64.7480 Y94.0217 
G01 X-64.9693 Y94.0936 
G01 X-65.1767 Y94.1993 
G01 X-65.3650 Y94.3361 
G01 X-65.5296 Y94.5007 
G01 X-65.6664 Y94.6890 
G01 X-65.7721 Y94.8964 
G01 X-65.8440 Y95.1177 
G01 X-65.8520 Y95.1683 
G01 X-65.8520 Y90.7597 
G01 X-65.8440 Y90.8103 
G01 X-65.7721 Y91.0316 
G01 X-65.6664 Y91.2390 
G01 X-65.5296 Y91.4273 
G01 X-65.3650 Y91.5919 
G01 X-65.1767 Y91.7287 
G01 X-64.9693 Y91.8344 
G01 X-64.7480 Y91.9063 
G01 X-64.5181 Y91.9427 
G01 X-62.2279 Y91.9427 
G01 X-61.9980 Y91.9063 
G01 X-61.7767 Y91.8344 
G01 X-61.5693 Y91.7287 
G01 X-61.3810 Y91.5919 
G01 X-61.2164 Y91.4273 
G01 X-61.2067 Y91.4140 
G01 X-60.3984 Y91.4140 
G01 X-60.2149 Y91.3775 
G01 X-60.0420 Y91.3059 
G01 X-59.8864 Y91.2019 
G01 X-59.7541 Y91.0696 
G01 X-57.2645 Y88.5800 
G01 X-57.0353 Y88.5800 
G01 X-56.8086 Y88.5441 
G01 X-56.5903 Y88.4732 
G01 X-56.3858 Y88.3690 
G01 X-56.2002 Y88.2341 
G01 X-56.0379 Y88.0718 
G01 X-55.9030 Y87.8862 
G01 X-55.7988 Y87.6817 
G01 X-55.7279 Y87.4634 
G01 X-55.6920 Y87.2367 
G01 X-55.6920 Y87.0072 
G01 X-55.7279 Y86.7806 
G01 X-55.7988 Y86.5623 
G01 X-55.9030 Y86.3578 
G01 X-56.0379 Y86.1722 
G01 X-56.2002 Y86.0099 
G01 X-56.3858 Y85.8750 
G01 X-56.5903 Y85.7708 
G01 X-56.8086 Y85.6999 
G01 X-57.0353 Y85.6640 
G01 X-57.2647 Y85.6640 
G01 X-57.4914 Y85.6999 
G01 X-57.7097 Y85.7708 
G01 X-57.9142 Y85.8750 
G01 X-58.0998 Y86.0099 
G01 X-58.2621 Y86.1722 
G01 X-58.3970 Y86.3578 
G01 X-58.5012 Y86.5623 
G01 X-58.5721 Y86.7806 
G01 X-58.6080 Y87.0072 
G00 Z3.0000  
G00 X-26.5305 Y55.3060 
G01 Z-0.0250 F10    
G01 X-24.0155 Y55.3060 F50    
G01 X-23.3564 Y55.9651 
G01 X-23.3564 Y56.0750 
G01 X-23.3890 Y56.1076 
G01 X-23.5082 Y56.2716 
G01 X-23.6002 Y56.4523 
G01 X-23.6629 Y56.6451 
G01 X-23.6946 Y56.8454 
G01 X-23.6946 Y58.7246 
G01 X-23.6629 Y58.9249 
G01 X-23.6002 Y59.1177 
G01 X-23.5082 Y59.2984 
G01 X-23.3890 Y59.4624 
G01 X-23.2456 Y59.6058 
G01 X-23.0816 Y59.7250 
G01 X-22.9009 Y59.8170 
G01 X-22.7081 Y59.8797 
G01 X-22.5078 Y59.9114 
G01 X-22.3050 Y59.9114 
G01 X-22.1048 Y59.8797 
G01 X-21.9119 Y59.8170 
G01 X-21.7313 Y59.7250 
G01 X-21.6113 Y59.6378 
G01 X-21.9995 Y60.0260 
G01 X-22.9745 Y60.0260 
G01 X-24.0584 Y58.9421 
G01 X-24.0528 Y58.9249 
G01 X-24.0211 Y58.7246 
G01 X-24.0211 Y56.8454 
G01 X-24.0528 Y56.6451 
G01 X-24.1155 Y56.4523 
G01 X-24.2075 Y56.2716 
G01 X-24.3267 Y56.1076 
G01 X-24.4701 Y55.9642 
G01 X-24.6341 Y55.8450 
G01 X-24.8148 Y55.7530 
G01 X-25.0076 Y55.6903 
G01 X-25.2079 Y55.6586 
G01 X-25.4107 Y55.6586 
G01 X-25.6109 Y55.6903 
G01 X-25.8038 Y55.7530 
G01 X-25.9844 Y55.8450 
G01 X-26.1485 Y55.9642 
G01 X-26.2919 Y56.1076 
G01 X-26.4110 Y56.2716 
G01 X-26.5031 Y56.4523 
G01 X-26.5658 Y56.6451 
G01 X-26.5975 Y56.8454 
G01 X-26.5975 Y57.7297 
G01 X-27.8199 Y58.9521 
G01 X-28.2097 Y59.3419 
G01 X-28.2963 Y59.2552 
G01 X-28.4749 Y59.1255 
G01 X-28.6133 Y59.0550 
G01 X-28.4749 Y58.9845 
G01 X-28.2963 Y58.8548 
G01 X-28.1402 Y58.6987 
G01 X-28.0105 Y58.5201 
G01 X-27.9103 Y58.3234 
G01 X-27.8420 Y58.1134 
G01 X-27.8075 Y57.8954 
G01 X-27.8075 Y57.7260 
G01 X-27.7789 Y57.6974 
G01 X-27.6466 Y57.5651 
G01 X-27.3344 Y57.2529 
G01 X-27.2021 Y57.1206 
G01 X-27.0981 Y56.9650 
G01 X-27.0265 Y56.7921 
G01 X-26.9900 Y56.6086 
G01 X-26.9900 Y55.7655 
G01 X-26.5305 Y55.3060 
G00 Z3.0000  
G00 X-47.2681 Y64.6724 
G01 Z-0.0250 F10    
G01 X-48.6704 Y63.2701 F50    
G01 X-48.8260 Y63.1661 
G01 X-48.9989 Y63.0945 
G01 X-49.1824 Y63.0580 
G01 X-49.7666 Y63.0580 
G01 X-49.8863 Y62.9382 
G01 X-50.0649 Y62.8085 
G01 X-50.2033 Y62.7380 
G01 X-50.0649 Y62.6675 
G01 X-49.8863 Y62.5378 
G01 X-49.7302 Y62.3817 
G01 X-49.6005 Y62.2031 
G01 X-49.5003 Y62.0064 
G01 X-49.4320 Y61.7964 
G01 X-49.3975 Y61.5784 
G01 X-49.3975 Y61.3576 
G01 X-49.4320 Y61.1396 
G01 X-49.5003 Y60.9296 
G01 X-49.6005 Y60.7329 
G01 X-49.7302 Y60.5543 
G01 X-49.8863 Y60.3982 
G01 X-50.0649 Y60.2685 
G01 X-50.2033 Y60.1980 
G01 X-50.0649 Y60.1275 
G01 X-49.8863 Y59.9978 
G01 X-49.7302 Y59.8417 
G01 X-49.6005 Y59.6631 
G01 X-49.5003 Y59.4664 
G01 X-49.4320 Y59.2564 
G01 X-49.3975 Y59.0384 
G01 X-49.3975 Y58.8176 
G01 X-49.4320 Y58.5996 
G01 X-49.5003 Y58.3896 
G01 X-49.6005 Y58.1929 
G01 X-49.7302 Y58.0143 
G01 X-49.8863 Y57.8582 
G01 X-50.0649 Y57.7285 
G01 X-50.2033 Y57.6580 
G01 X-50.0649 Y57.5875 
G01 X-49.8863 Y57.4578 
G01 X-49.7666 Y57.3380 
G01 X-47.8915 Y57.3380 
G01 X-47.1780 Y58.0515 
G01 X-47.1780 Y64.8072 
G01 X-47.2681 Y64.6724 
G00 Z3.0000  
G00 X-45.2780 Y72.0988 
G01 Z-0.0250 F10    
G01 X-45.1879 Y72.2336 F50    
G01 X-45.0556 Y72.3659 
G01 X-43.6586 Y73.7629 
G01 X-43.5030 Y73.8669 
G01 X-43.3301 Y73.9385 
G01 X-43.1466 Y73.9750 
G01 X-42.9434 Y73.9750 
G01 X-42.8237 Y74.0948 
G01 X-42.6451 Y74.2245 
G01 X-42.5067 Y74.2950 
G01 X-42.6451 Y74.3655 
G01 X-42.8237 Y74.4952 
G01 X-42.9434 Y74.6150 
G01 X-43.6755 Y74.6150 
G01 X-45.2780 Y73.0125 
G01 X-45.2780 Y72.0988 
G00 Z3.0000  
G00 X-49.7666 Y55.4380 
G01 Z-0.0250 F10    
G01 X-49.8863 Y55.3182 F50    
G01 X-50.0649 Y55.1885 
G01 X-50.2033 Y55.1180 
G01 X-50.0649 Y55.0475 
G01 X-49.8863 Y54.9178 
G01 X-49.7666 Y54.7980 
G01 X-47.3835 Y54.7980 
G01 X-45.4000 Y56.7815 
G01 X-45.4000 Y57.1872 
G01 X-45.4901 Y57.0524 
G01 X-45.6224 Y56.9201 
G01 X-46.8924 Y55.6501 
G01 X-47.0480 Y55.5461 
G01 X-47.2209 Y55.4745 
G01 X-47.4044 Y55.4380 
G01 X-47.5916 Y55.4380 
G01 X-49.7666 Y55.4380 
G00 Z3.0000  
G00 X-21.5128 Y82.5928 
G01 Z-0.0250 F10    
G01 X-21.3694 Y82.4494 F50    
G01 X-21.2502 Y82.2854 
G01 X-21.1582 Y82.1047 
G01 X-21.0955 Y81.9119 
G01 X-21.0638 Y81.7116 
G01 X-21.0638 Y81.5910 
G01 X-20.3637 Y81.5910 
G01 X-20.1899 Y81.6475 
G01 X-19.9896 Y81.6792 
G01 X-18.1104 Y81.6792 
G01 X-17.9101 Y81.6475 
G01 X-17.7173 Y81.5848 
G01 X-17.5366 Y81.4928 
G01 X-17.3726 Y81.3736 
G01 X-17.2292 Y81.2302 
G01 X-17.1100 Y81.0662 
G01 X-17.0180 Y80.8855 
G01 X-16.9553 Y80.6927 
G01 X-16.9480 Y80.6464 
G01 X-16.9480 Y81.7989 
G01 X-17.3881 Y82.2390 
G01 X-17.7363 Y82.2390 
G01 X-17.9101 Y82.1825 
G01 X-18.1104 Y82.1508 
G01 X-19.9896 Y82.1508 
G01 X-20.1899 Y82.1825 
G01 X-20.3827 Y82.2452 
G01 X-20.5634 Y82.3372 
G01 X-20.7274 Y82.4564 
G01 X-20.8708 Y82.5998 
G01 X-20.8826 Y82.6160 
G01 X-21.5448 Y82.6160 
G01 X-21.5128 Y82.5928 
G00 Z3.0000  
G00 X-24.6779 Y34.8607 
G01 Z-0.0250 F10    
G01 X-24.6152 Y34.6679 F50    
G01 X-24.5926 Y34.5252 
G01 X-24.5700 Y34.6679 
G01 X-24.5074 Y34.8607 
G01 X-24.4153 Y35.0414 
G01 X-24.2961 Y35.2054 
G01 X-24.1528 Y35.3488 
G01 X-24.1208 Y35.3720 
G01 X-24.2445 Y35.3720 
G01 X-24.7042 Y34.9123 
G01 X-24.6779 Y34.8607 
G00 Z3.0000  
G00 X-24.2961 Y39.4706 
G01 Z-0.0250 F10    
G01 X-24.4153 Y39.6346 F50    
G01 X-24.5074 Y39.8153 
G01 X-24.5700 Y40.0081 
G01 X-24.5926 Y40.1508 
G01 X-24.6152 Y40.0081 
G01 X-24.6779 Y39.8153 
G01 X-24.7699 Y39.6346 
G01 X-24.8891 Y39.4706 
G01 X-24.9461 Y39.4136 
G01 X-24.2391 Y39.4136 
G01 X-24.2961 Y39.4706 
G00 Z3.0000  
G00 X-26.8543 Y39.4706 
G01 Z-0.0250 F10    
G01 X-26.9735 Y39.6346 F50    
G01 X-27.0655 Y39.8153 
G01 X-27.1282 Y40.0081 
G01 X-27.1599 Y40.2084 
G01 X-27.1599 Y40.4520 
G01 X-28.4306 Y40.4520 
G01 X-28.5503 Y40.3322 
G01 X-28.7289 Y40.2025 
G01 X-28.8673 Y40.1320 
G01 X-28.7289 Y40.0615 
G01 X-28.5503 Y39.9318 
G01 X-28.4306 Y39.8120 
G01 X-28.3544 Y39.8120 
G01 X-28.1709 Y39.7755 
G01 X-27.9980 Y39.7039 
G01 X-27.8424 Y39.5999 
G01 X-27.6561 Y39.4136 
G01 X-26.7973 Y39.4136 
G01 X-26.8543 Y39.4706 
G00 Z3.0000  
G00 X-24.2961 Y31.8506 
G01 Z-0.0250 F10    
G01 X-24.4153 Y32.0146 F50    
G01 X-24.5074 Y32.1953 
G01 X-24.5700 Y32.3881 
G01 X-24.5926 Y32.5308 
G01 X-24.6152 Y32.3881 
G01 X-24.6779 Y32.1953 
G01 X-24.7699 Y32.0146 
G01 X-24.8891 Y31.8506 
G01 X-25.0325 Y31.7072 
G01 X-25.1965 Y31.5880 
G01 X-25.3772 Y31.4960 
G01 X-25.5700 Y31.4333 
G01 X-25.7703 Y31.4016 
G01 X-25.9731 Y31.4016 
G01 X-26.1734 Y31.4333 
G01 X-26.3662 Y31.4960 
G01 X-26.5469 Y31.5880 
G01 X-26.7109 Y31.7072 
G01 X-26.8543 Y31.8506 
G01 X-26.9735 Y32.0146 
G01 X-27.0655 Y32.1953 
G01 X-27.1282 Y32.3881 
G01 X-27.1599 Y32.5884 
G01 X-27.1599 Y34.4676 
G01 X-27.1282 Y34.6679 
G01 X-27.0655 Y34.8607 
G01 X-27.0637 Y34.8642 
G01 X-27.5715 Y35.3720 
G01 X-28.4306 Y35.3720 
G01 X-28.5503 Y35.2522 
G01 X-28.7289 Y35.1225 
G01 X-28.8673 Y35.0520 
G01 X-28.7289 Y34.9815 
G01 X-28.5503 Y34.8518 
G01 X-28.3942 Y34.6957 
G01 X-28.2645 Y34.5171 
G01 X-28.1643 Y34.3204 
G01 X-28.0960 Y34.1104 
G01 X-28.0615 Y33.8924 
G01 X-28.0615 Y33.6716 
G01 X-28.0960 Y33.4536 
G01 X-28.1643 Y33.2436 
G01 X-28.2645 Y33.0469 
G01 X-28.3942 Y32.8683 
G01 X-28.5140 Y32.7486 
G01 X-28.5140 Y32.6515 
G01 X-26.7845 Y30.9220 
G01 X-24.5235 Y30.9220 
G01 X-24.2636 Y31.1819 
G01 X-24.2636 Y31.8180 
G01 X-24.2961 Y31.8506 
G00 Z3.0000  
G00 X-25.0325 Y42.9688 
G01 Z-0.0250 F10    
G01 X-24.8891 Y42.8254 F50    
G01 X-24.7699 Y42.6614 
G01 X-24.6779 Y42.4807 
G01 X-24.6152 Y42.2879 
G01 X-24.5926 Y42.1452 
G01 X-24.5700 Y42.2879 
G01 X-24.5074 Y42.4807 
G01 X-24.4153 Y42.6614 
G01 X-24.2961 Y42.8254 
G01 X-24.1528 Y42.9688 
G01 X-24.1208 Y42.9920 
G01 X-25.0645 Y42.9920 
G01 X-25.0325 Y42.9688 
G00 Z3.0000  
G00 X-27.0655 Y42.4807 
G01 Z-0.0250 F10    
G01 X-26.9735 Y42.6614 F50    
G01 X-26.8543 Y42.8254 
G01 X-26.7109 Y42.9688 
G01 X-26.6789 Y42.9920 
G01 X-28.4306 Y42.9920 
G01 X-28.5503 Y42.8722 
G01 X-28.7289 Y42.7425 
G01 X-28.8673 Y42.6720 
G01 X-28.7289 Y42.6015 
G01 X-28.5503 Y42.4718 
G01 X-28.4306 Y42.3520 
G01 X-27.1073 Y42.3520 
G01 X-27.0655 Y42.4807 
G00 Z3.0000  
G00 X-25.7017 Y78.6773 
G01 Z-0.0250 F10    
G01 X-25.8945 Y78.7400 F50    
G01 X-26.0752 Y78.8320 
G01 X-26.2392 Y78.9512 
G01 X-26.3826 Y79.0946 
G01 X-26.5018 Y79.2586 
G01 X-26.5938 Y79.4393 
G01 X-26.6565 Y79.6321 
G01 X-26.6882 Y79.8324 
G01 X-26.6882 Y81.7116 
G01 X-26.6565 Y81.9119 
G01 X-26.5938 Y82.1047 
G01 X-26.5798 Y82.1323 
G01 X-26.8095 Y82.3620 
G01 X-28.1766 Y82.3620 
G01 X-28.2963 Y82.2422 
G01 X-28.4749 Y82.1125 
G01 X-28.6133 Y82.0420 
G01 X-28.4749 Y81.9715 
G01 X-28.2963 Y81.8418 
G01 X-28.1402 Y81.6857 
G01 X-28.0105 Y81.5071 
G01 X-27.9103 Y81.3104 
G01 X-27.8420 Y81.1004 
G01 X-27.8075 Y80.8824 
G01 X-27.8075 Y80.6616 
G01 X-27.8420 Y80.4436 
G01 X-27.9103 Y80.2336 
G01 X-28.0100 Y80.0379 
G01 X-28.0100 Y79.7451 
G01 X-26.9349 Y78.6700 
G01 X-25.6554 Y78.6700 
G01 X-25.7017 Y78.6773 
G00 Z3.0000  
G00 X-23.6085 Y79.6321 
G01 Z-0.0250 F10    
G01 X-23.6402 Y79.8324 F50    
G01 X-23.6402 Y81.7116 
G01 X-23.6085 Y81.9119 
G01 X-23.5458 Y82.1047 
G01 X-23.4538 Y82.2854 
G01 X-23.3346 Y82.4494 
G01 X-23.1912 Y82.5928 
G01 X-23.1592 Y82.6160 
G01 X-23.4825 Y82.6160 
G01 X-24.1541 Y81.9444 
G01 X-24.1435 Y81.9119 
G01 X-24.1118 Y81.7116 
G01 X-24.1118 Y79.8324 
G01 X-24.1435 Y79.6321 
G01 X-24.2062 Y79.4393 
G01 X-24.2982 Y79.2586 
G01 X-24.4174 Y79.0946 
G01 X-24.5608 Y78.9512 
G01 X-24.7248 Y78.8320 
G01 X-24.9055 Y78.7400 
G01 X-25.0983 Y78.6773 
G01 X-25.1446 Y78.6700 
G01 X-23.8651 Y78.6700 
G01 X-23.5520 Y78.9831 
G01 X-23.5520 Y79.4583 
G01 X-23.6085 Y79.6321 
G00 Z3.0000  
G00 X-23.0816 Y63.4650 
G01 Z-0.0250 F10    
G01 X-23.2456 Y63.5842 F50    
G01 X-23.3890 Y63.7276 
G01 X-23.5082 Y63.8916 
G01 X-23.6002 Y64.0723 
G01 X-23.6629 Y64.2651 
G01 X-23.6930 Y64.4550 
G01 X-24.0227 Y64.4550 
G01 X-24.0528 Y64.2651 
G01 X-24.1155 Y64.0723 
G01 X-24.2075 Y63.8916 
G01 X-24.3267 Y63.7276 
G01 X-24.4701 Y63.5842 
G01 X-24.6341 Y63.4650 
G01 X-24.6950 Y63.4340 
G01 X-23.0207 Y63.4340 
G01 X-23.0816 Y63.4650 
G00 Z3.0000  
G00 X-25.9844 Y63.4650 
G01 Z-0.0250 F10    
G01 X-26.1485 Y63.5842 F50    
G01 X-26.2919 Y63.7276 
G01 X-26.4110 Y63.8916 
G01 X-26.5031 Y64.0723 
G01 X-26.5658 Y64.2651 
G01 X-26.5958 Y64.4550 
G01 X-28.1766 Y64.4550 
G01 X-28.2963 Y64.3352 
G01 X-28.4749 Y64.2055 
G01 X-28.6133 Y64.1350 
G01 X-28.4749 Y64.0645 
G01 X-28.2963 Y63.9348 
G01 X-28.1402 Y63.7787 
G01 X-28.0105 Y63.6001 
G01 X-27.9259 Y63.4340 
G01 X-25.9235 Y63.4340 
G01 X-25.9844 Y63.4650 
G00 Z3.0000  
G00 X-28.4749 Y61.5245 
G01 Z-0.0250 F10    
G01 X-28.2963 Y61.3948 F50    
G01 X-28.1766 Y61.2750 
G01 X-25.1585 Y61.2750 
G01 X-24.8995 Y61.5340 
G01 X-28.4935 Y61.5340 
G01 X-28.4749 Y61.5245 
G00 Z3.0000  
G00 X-33.7411 Y66.8051 
G01 Z-0.0250 F10    
G01 X-33.8037 Y66.6123 F50    
G01 X-33.8958 Y66.4316 
G01 X-34.0150 Y66.2676 
G01 X-34.1584 Y66.1242 
G01 X-34.3224 Y66.0050 
G01 X-34.5031 Y65.9130 
G01 X-34.6959 Y65.8503 
G01 X-34.8962 Y65.8186 
G01 X-35.0989 Y65.8186 
G01 X-35.2992 Y65.8503 
G01 X-35.4921 Y65.9130 
G01 X-35.6727 Y66.0050 
G01 X-35.8368 Y66.1242 
G01 X-35.9801 Y66.2676 
G01 X-36.0993 Y66.4316 
G01 X-36.1914 Y66.6123 
G01 X-36.2540 Y66.8051 
G01 X-36.2858 Y67.0054 
G01 X-36.2858 Y68.8846 
G01 X-36.2540 Y69.0849 
G01 X-36.1914 Y69.2777 
G01 X-36.0993 Y69.4584 
G01 X-35.9801 Y69.6224 
G01 X-35.8368 Y69.7658 
G01 X-35.6727 Y69.8850 
G01 X-35.4921 Y69.9770 
G01 X-35.2992 Y70.0397 
G01 X-35.0989 Y70.0714 
G01 X-34.8962 Y70.0714 
G01 X-34.6959 Y70.0397 
G01 X-34.5031 Y69.9770 
G01 X-34.3224 Y69.8850 
G01 X-34.1584 Y69.7658 
G01 X-34.0150 Y69.6224 
G01 X-33.8958 Y69.4584 
G01 X-33.8037 Y69.2777 
G01 X-33.7411 Y69.0849 
G01 X-33.7110 Y68.8950 
G01 X-33.5083 Y68.8950 
G01 X-33.4782 Y69.0849 
G01 X-33.4155 Y69.2777 
G01 X-33.3235 Y69.4584 
G01 X-33.2043 Y69.6224 
G01 X-33.0609 Y69.7658 
G01 X-32.8969 Y69.8850 
G01 X-32.7162 Y69.9770 
G01 X-32.5234 Y70.0397 
G01 X-32.3231 Y70.0714 
G01 X-32.1203 Y70.0714 
G01 X-31.9200 Y70.0397 
G01 X-31.7272 Y69.9770 
G01 X-31.5465 Y69.8850 
G01 X-31.3825 Y69.7658 
G01 X-31.2391 Y69.6224 
G01 X-31.1199 Y69.4584 
G01 X-31.0279 Y69.2777 
G01 X-30.9652 Y69.0849 
G01 X-30.9352 Y68.8950 
G01 X-30.2434 Y68.8950 
G01 X-30.1237 Y69.0148 
G01 X-29.9451 Y69.1445 
G01 X-29.8067 Y69.2150 
G01 X-29.9451 Y69.2855 
G01 X-30.1237 Y69.4152 
G01 X-30.2798 Y69.5713 
G01 X-30.4095 Y69.7499 
G01 X-30.5097 Y69.9466 
G01 X-30.5780 Y70.1566 
G01 X-30.6125 Y70.3746 
G01 X-30.6125 Y70.5954 
G01 X-30.5780 Y70.8134 
G01 X-30.5097 Y71.0234 
G01 X-30.4095 Y71.2201 
G01 X-30.2798 Y71.3987 
G01 X-30.1237 Y71.5548 
G01 X-29.9451 Y71.6845 
G01 X-29.8067 Y71.7550 
G01 X-29.9451 Y71.8255 
G01 X-30.1237 Y71.9552 
G01 X-30.2434 Y72.0750 
G01 X-35.6258 Y72.0750 
G01 X-35.7179 Y71.9482 
G01 X-35.8802 Y71.7859 
G01 X-36.0658 Y71.6510 
G01 X-36.2703 Y71.5468 
G01 X-36.4886 Y71.4759 
G01 X-36.7153 Y71.4400 
G01 X-36.9447 Y71.4400 
G01 X-37.1714 Y71.4759 
G01 X-37.3897 Y71.5468 
G01 X-37.5942 Y71.6510 
G01 X-37.7798 Y71.7859 
G01 X-37.9421 Y71.9482 
G01 X-38.0770 Y72.1338 
G01 X-38.1812 Y72.3383 
G01 X-38.2521 Y72.5566 
G01 X-38.2880 Y72.7833 
G01 X-38.2880 Y73.0127 
G01 X-38.2521 Y73.2394 
G01 X-38.1812 Y73.4577 
G01 X-38.0770 Y73.6622 
G01 X-37.9421 Y73.8478 
G01 X-37.7798 Y74.0101 
G01 X-37.5942 Y74.1450 
G01 X-37.3897 Y74.2492 
G01 X-37.1714 Y74.3201 
G01 X-36.9447 Y74.3560 
G01 X-36.7153 Y74.3560 
G01 X-36.4886 Y74.3201 
G01 X-36.2703 Y74.2492 
G01 X-36.0658 Y74.1450 
G01 X-35.8802 Y74.0101 
G01 X-35.8451 Y73.9750 
G01 X-30.2434 Y73.9750 
G01 X-30.1237 Y74.0948 
G01 X-29.9451 Y74.2245 
G01 X-29.8067 Y74.2950 
G01 X-29.9451 Y74.3655 
G01 X-30.1237 Y74.4952 
G01 X-30.2434 Y74.6150 
G01 X-37.5795 Y74.6150 
G01 X-38.4200 Y73.7745 
G01 X-38.4200 Y53.9875 
G01 X-36.9445 Y52.5120 
G01 X-30.4974 Y52.5120 
G01 X-30.3777 Y52.6318 
G01 X-30.1991 Y52.7615 
G01 X-30.0024 Y52.8617 
G01 X-29.7924 Y52.9300 
G01 X-29.5744 Y52.9645 
G01 X-29.3536 Y52.9645 
G01 X-29.1356 Y52.9300 
G01 X-28.9256 Y52.8617 
G01 X-28.7289 Y52.7615 
G01 X-28.5503 Y52.6318 
G01 X-28.3942 Y52.4757 
G01 X-28.2645 Y52.2971 
G01 X-28.1643 Y52.1004 
G01 X-28.0960 Y51.8904 
G01 X-28.0615 Y51.6724 
G01 X-28.0615 Y51.4516 
G01 X-28.0960 Y51.2336 
G01 X-28.1643 Y51.0236 
G01 X-28.2645 Y50.8269 
G01 X-28.3942 Y50.6483 
G01 X-28.5503 Y50.4922 
G01 X-28.7289 Y50.3625 
G01 X-28.8673 Y50.2920 
G01 X-28.7289 Y50.2215 
G01 X-28.5503 Y50.0918 
G01 X-28.3942 Y49.9357 
G01 X-28.2645 Y49.7571 
G01 X-28.1643 Y49.5604 
G01 X-28.0960 Y49.3504 
G01 X-28.0615 Y49.1324 
G01 X-28.0615 Y48.9116 
G01 X-28.0960 Y48.6936 
G01 X-28.1643 Y48.4836 
G01 X-28.2645 Y48.2869 
G01 X-28.3942 Y48.1083 
G01 X-28.5503 Y47.9522 
G01 X-28.7289 Y47.8225 
G01 X-28.8673 Y47.7520 
G01 X-28.7289 Y47.6815 
G01 X-28.5503 Y47.5518 
G01 X-28.3942 Y47.3957 
G01 X-28.2645 Y47.2171 
G01 X-28.2446 Y47.1780 
G01 X-20.9716 Y47.1780 
G01 X-21.1084 Y47.2774 
G01 X-21.1410 Y47.3100 
G01 X-21.1756 Y47.3100 
G01 X-21.3591 Y47.3465 
G01 X-21.5320 Y47.4181 
G01 X-21.6876 Y47.5221 
G01 X-24.7356 Y50.5701 
G01 X-24.8679 Y50.7024 
G01 X-24.9719 Y50.8580 
G01 X-25.0435 Y51.0309 
G01 X-25.0800 Y51.2144 
G01 X-25.0800 Y53.4060 
G01 X-27.0176 Y53.4060 
G01 X-27.2011 Y53.4425 
G01 X-27.3740 Y53.5141 
G01 X-27.5296 Y53.6181 
G01 X-28.5456 Y54.6341 
G01 X-28.6779 Y54.7664 
G01 X-28.7819 Y54.9220 
G01 X-28.8535 Y55.0949 
G01 X-28.8900 Y55.2784 
G01 X-28.8900 Y55.9460 
G01 X-33.6216 Y55.9460 
G01 X-33.8051 Y55.9825 
G01 X-33.9780 Y56.0541 
G01 X-34.1336 Y56.1581 
G01 X-34.2659 Y56.2904 
G01 X-35.7355 Y57.7600 
G01 X-35.8394 Y57.9156 
G01 X-35.9111 Y58.0885 
G01 X-35.9476 Y58.2720 
G01 X-35.9476 Y58.6150 
G01 X-35.9801 Y58.6476 
G01 X-36.0993 Y58.8116 
G01 X-36.1914 Y58.9923 
G01 X-36.2540 Y59.1851 
G01 X-36.2858 Y59.3854 
G01 X-36.2858 Y61.2646 
G01 X-36.2540 Y61.4649 
G01 X-36.1914 Y61.6577 
G01 X-36.0993 Y61.8384 
G01 X-35.9801 Y62.0024 
G01 X-35.8368 Y62.1458 
G01 X-35.6727 Y62.2650 
G01 X-35.4921 Y62.3570 
G01 X-35.2992 Y62.4197 
G01 X-35.0989 Y62.4514 
G01 X-34.8962 Y62.4514 
G01 X-34.6959 Y62.4197 
G01 X-34.5031 Y62.3570 
G01 X-34.3224 Y62.2650 
G01 X-34.1584 Y62.1458 
G01 X-34.0150 Y62.0024 
G01 X-33.8958 Y61.8384 
G01 X-33.8037 Y61.6577 
G01 X-33.7411 Y61.4649 
G01 X-33.7094 Y61.2646 
G01 X-33.7094 Y59.3854 
G01 X-33.7411 Y59.1851 
G01 X-33.8037 Y58.9923 
G01 X-33.8958 Y58.8116 
G01 X-33.9818 Y58.6933 
G01 X-33.1345 Y57.8460 
G01 X-30.6125 Y57.8460 
G01 X-30.6125 Y57.8954 
G01 X-30.5780 Y58.1134 
G01 X-30.5097 Y58.3234 
G01 X-30.4095 Y58.5201 
G01 X-30.2798 Y58.6987 
G01 X-30.1237 Y58.8548 
G01 X-29.9451 Y58.9845 
G01 X-29.8067 Y59.0550 
G01 X-29.9451 Y59.1255 
G01 X-30.1237 Y59.2552 
G01 X-30.2434 Y59.3750 
G01 X-30.9352 Y59.3750 
G01 X-30.9652 Y59.1851 
G01 X-31.0279 Y58.9923 
G01 X-31.1199 Y58.8116 
G01 X-31.2391 Y58.6476 
G01 X-31.3825 Y58.5042 
G01 X-31.5465 Y58.3850 
G01 X-31.7272 Y58.2930 
G01 X-31.9200 Y58.2303 
G01 X-32.1203 Y58.1986 
G01 X-32.3231 Y58.1986 
G01 X-32.5234 Y58.2303 
G01 X-32.7162 Y58.2930 
G01 X-32.8969 Y58.3850 
G01 X-33.0609 Y58.5042 
G01 X-33.2043 Y58.6476 
G01 X-33.3235 Y58.8116 
G01 X-33.4155 Y58.9923 
G01 X-33.4782 Y59.1851 
G01 X-33.5099 Y59.3854 
G01 X-33.5099 Y61.2646 
G01 X-33.4782 Y61.4649 
G01 X-33.4155 Y61.6577 
G01 X-33.3235 Y61.8384 
G01 X-33.2043 Y62.0024 
G01 X-33.0609 Y62.1458 
G01 X-32.8969 Y62.2650 
G01 X-32.7162 Y62.3570 
G01 X-32.5234 Y62.4197 
G01 X-32.3231 Y62.4514 
G01 X-32.1203 Y62.4514 
G01 X-31.9200 Y62.4197 
G01 X-31.7272 Y62.3570 
G01 X-31.5465 Y62.2650 
G01 X-31.3825 Y62.1458 
G01 X-31.2391 Y62.0024 
G01 X-31.1199 Y61.8384 
G01 X-31.0279 Y61.6577 
G01 X-30.9652 Y61.4649 
G01 X-30.9352 Y61.2750 
G01 X-30.2434 Y61.2750 
G01 X-30.1237 Y61.3948 
G01 X-29.9451 Y61.5245 
G01 X-29.8067 Y61.5950 
G01 X-29.9451 Y61.6655 
G01 X-30.1237 Y61.7952 
G01 X-30.2798 Y61.9513 
G01 X-30.4095 Y62.1299 
G01 X-30.5097 Y62.3266 
G01 X-30.5780 Y62.5366 
G01 X-30.6125 Y62.7546 
G01 X-30.6125 Y62.9754 
G01 X-30.5780 Y63.1934 
G01 X-30.5097 Y63.4034 
G01 X-30.4095 Y63.6001 
G01 X-30.2798 Y63.7787 
G01 X-30.1237 Y63.9348 
G01 X-29.9451 Y64.0645 
G01 X-29.8067 Y64.1350 
G01 X-29.9451 Y64.2055 
G01 X-30.1237 Y64.3352 
G01 X-30.2798 Y64.4913 
G01 X-30.4095 Y64.6699 
G01 X-30.5097 Y64.8666 
G01 X-30.5780 Y65.0766 
G01 X-30.6125 Y65.2946 
G01 X-30.6125 Y65.5154 
G01 X-30.5780 Y65.7334 
G01 X-30.5097 Y65.9434 
G01 X-30.4095 Y66.1401 
G01 X-30.2798 Y66.3187 
G01 X-30.1237 Y66.4748 
G01 X-29.9451 Y66.6045 
G01 X-29.8067 Y66.6750 
G01 X-29.9451 Y66.7455 
G01 X-30.1237 Y66.8752 
G01 X-30.2434 Y66.9950 
G01 X-30.9352 Y66.9950 
G01 X-30.9652 Y66.8051 
G01 X-31.0279 Y66.6123 
G01 X-31.1199 Y66.4316 
G01 X-31.2391 Y66.2676 
G01 X-31.3825 Y66.1242 
G01 X-31.5465 Y66.0050 
G01 X-31.7272 Y65.9130 
G01 X-31.9200 Y65.8503 
G01 X-32.1203 Y65.8186 
G01 X-32.3231 Y65.8186 
G01 X-32.5234 Y65.8503 
G01 X-32.7162 Y65.9130 
G01 X-32.8969 Y66.0050 
G01 X-33.0609 Y66.1242 
G01 X-33.2043 Y66.2676 
G01 X-33.3235 Y66.4316 
G01 X-33.4155 Y66.6123 
G01 X-33.4782 Y66.8051 
G01 X-33.5083 Y66.9950 
G01 X-33.7110 Y66.9950 
G01 X-33.7411 Y66.8051 
G00 Z3.0000  
G00 X-64.5770 Y43.8244 
G01 Z-0.0250 F10    
G01 X-64.5729 Y43.8450 F50    
G01 X-64.5587 Y43.8793 
G01 X-64.2212 Y44.8920 
G01 X-64.2101 Y44.9325 
G01 X-64.2028 Y44.9470 
G01 X-64.1977 Y44.9623 
G01 X-64.1769 Y44.9989 
G01 X-64.1581 Y45.0364 
G01 X-64.1482 Y45.0492 
G01 X-64.1402 Y45.0633 
G01 X-64.1126 Y45.0950 
G01 X-64.0869 Y45.1282 
G01 X-64.0747 Y45.1388 
G01 X-64.0643 Y45.1507 
G01 X-64.1384 Y45.1454 
G01 X-64.2537 Y45.1600 
G01 X-64.3639 Y45.1967 
G01 X-64.4648 Y45.2542 
G01 X-64.5525 Y45.3303 
G01 X-64.6238 Y45.4221 
G01 X-64.6757 Y45.5260 
G01 X-64.7064 Y45.6380 
G01 X-64.7146 Y45.7539 
G01 X-64.7116 Y45.7777 
G01 X-64.7403 Y45.6896 
G01 X-64.8405 Y45.4929 
G01 X-64.9702 Y45.3143 
G01 X-65.1263 Y45.1582 
G01 X-65.3049 Y45.0285 
G01 X-65.4433 Y44.9580 
G01 X-65.3049 Y44.8875 
G01 X-65.1263 Y44.7578 
G01 X-64.9702 Y44.6017 
G01 X-64.8405 Y44.4231 
G01 X-64.7403 Y44.2264 
G01 X-64.6720 Y44.0164 
G01 X-64.6375 Y43.7984 
G01 X-64.6375 Y43.6429 
G01 X-64.5770 Y43.8244 
G00 Z3.0000  
G00 X-64.7120 Y39.2138 
G01 Z-0.0250 F10    
G01 X-64.7120 Y39.9508 F50    
G01 X-64.6893 Y40.0647 
G01 X-64.6449 Y40.1721 
G01 X-64.5803 Y40.2686 
G01 X-64.4982 Y40.3508 
G01 X-64.4227 Y40.4012 
G01 X-64.4982 Y40.4517 
G01 X-64.5803 Y40.5338 
G01 X-64.6449 Y40.6304 
G01 X-64.6893 Y40.7377 
G01 X-64.6929 Y40.7555 
G01 X-64.7403 Y40.6096 
G01 X-64.8405 Y40.4129 
G01 X-64.9702 Y40.2343 
G01 X-65.1263 Y40.0782 
G01 X-65.3049 Y39.9485 
G01 X-65.4433 Y39.8780 
G01 X-65.3049 Y39.8075 
G01 X-65.1263 Y39.6778 
G01 X-64.9702 Y39.5217 
G01 X-64.8405 Y39.3431 
G01 X-64.7403 Y39.1464 
G01 X-64.7120 Y39.0594 
G01 X-64.7120 Y39.2138 
G00 Z3.0000  
G00 X-64.9702 Y70.7143 
G01 Z-0.0250 F10    
G01 X-65.1263 Y70.5582 F50    
G01 X-65.3049 Y70.4285 
G01 X-65.4433 Y70.3580 
G01 X-65.3049 Y70.2875 
G01 X-65.1263 Y70.1578 
G01 X-65.0850 Y70.1165 
G01 X-64.9580 Y70.2435 
G01 X-64.9580 Y70.7312 
G01 X-64.9702 Y70.7143 
G00 Z3.0000  
G00 X-64.7120 Y42.2487 
G01 Z-0.0250 F10    
G01 X-64.7120 Y42.3648 F50    
G01 X-64.6893 Y42.4788 
G01 X-64.6449 Y42.5861 
G01 X-64.5803 Y42.6827 
G01 X-64.4982 Y42.7648 
G01 X-64.4219 Y42.8158 
G01 X-64.4648 Y42.8402 
G01 X-64.5525 Y42.9163 
G01 X-64.6238 Y43.0081 
G01 X-64.6757 Y43.1120 
G01 X-64.7064 Y43.2240 
G01 X-64.7081 Y43.2485 
G01 X-64.7403 Y43.1496 
G01 X-64.8405 Y42.9529 
G01 X-64.9702 Y42.7743 
G01 X-65.1263 Y42.6182 
G01 X-65.3049 Y42.4885 
G01 X-65.4433 Y42.4180 
G01 X-65.3049 Y42.3475 
G01 X-65.1263 Y42.2178 
G01 X-64.9702 Y42.0617 
G01 X-64.8405 Y41.8831 
G01 X-64.7403 Y41.6864 
G01 X-64.7120 Y41.5994 
G01 X-64.7120 Y42.2487 
G00 Z3.0000  
G00 X-62.1857 Y40.4313 
G01 Z-0.0250 F10    
G01 X-62.1857 Y40.4313 F50    
G01 X-62.2453 Y40.4746 
G01 X-62.2682 Y40.4517 
G01 X-62.3648 Y40.3872 
G01 X-62.4721 Y40.3427 
G01 X-62.5860 Y40.3200 
G01 X-62.7022 Y40.3200 
G01 X-62.8161 Y40.3427 
G01 X-62.9234 Y40.3872 
G01 X-63.0200 Y40.4517 
G01 X-63.1021 Y40.5338 
G01 X-63.1098 Y40.5454 
G01 X-63.1713 Y40.4938 
G01 X-63.2717 Y40.4359 
G01 X-63.2221 Y40.4153 
G01 X-63.1255 Y40.3508 
G01 X-63.0434 Y40.2686 
G01 X-62.9788 Y40.1721 
G01 X-62.9344 Y40.0647 
G01 X-62.9182 Y39.9834 
G01 X-62.9139 Y39.9852 
G01 X-62.7550 Y40.0168 
G01 X-62.3055 Y40.0168 
G01 X-62.2971 Y40.0151 
G01 X-62.2872 Y40.0647 
G01 X-62.2428 Y40.1721 
G01 X-62.1783 Y40.2686 
G01 X-62.0961 Y40.3508 
G01 X-62.0596 Y40.3752 
G01 X-62.1857 Y40.4313 
G00 Z3.0000  
G00 X-61.8524 Y45.2797 
G01 Z-0.0250 F10    
G01 X-61.9346 Y45.3619 F50    
G01 X-61.9968 Y45.4550 
G01 X-62.0591 Y45.3619 
G01 X-62.1412 Y45.2797 
G01 X-62.2378 Y45.2152 
G01 X-62.3451 Y45.1707 
G01 X-62.4590 Y45.1481 
G01 X-62.5752 Y45.1481 
G01 X-62.6891 Y45.1707 
G01 X-62.7964 Y45.2152 
G01 X-62.8519 Y45.2523 
G01 X-62.9494 Y45.1967 
G01 X-63.0596 Y45.1600 
G01 X-63.1748 Y45.1454 
G01 X-63.2489 Y45.1507 
G01 X-63.2386 Y45.1388 
G01 X-63.2264 Y45.1282 
G01 X-63.2006 Y45.0950 
G01 X-63.1731 Y45.0633 
G01 X-63.1651 Y45.0492 
G01 X-63.1552 Y45.0364 
G01 X-63.1364 Y44.9989 
G01 X-63.1156 Y44.9623 
G01 X-63.1105 Y44.9470 
G01 X-63.1032 Y44.9325 
G01 X-63.0921 Y44.8920 
G01 X-63.0254 Y44.6920 
G01 X-62.9717 Y44.7386 
G01 X-62.8707 Y44.7962 
G01 X-62.7605 Y44.8329 
G01 X-62.6453 Y44.8474 
G01 X-62.5294 Y44.8392 
G01 X-62.4174 Y44.8085 
G01 X-62.3187 Y44.7592 
G01 X-62.2200 Y44.8085 
G01 X-62.1080 Y44.8392 
G01 X-62.0423 Y44.8439 
G01 X-62.0326 Y44.8928 
G01 X-61.9882 Y45.0001 
G01 X-61.9236 Y45.0967 
G01 X-61.8415 Y45.1788 
G01 X-61.7714 Y45.2256 
G01 X-61.8524 Y45.2797 
G00 Z3.0000  
G00 X-63.5984 Y42.8935 
G01 Z-0.0250 F10    
G01 X-63.6566 Y42.9607 F50    
G01 X-63.7123 Y42.8964 
G01 X-63.6487 Y42.8964 
G01 X-63.5885 Y42.8858 
G01 X-63.5984 Y42.8935 
G00 Z3.0000  
G00 X-63.6566 Y45.3747 
G01 Z-0.0250 F10    
G01 X-63.7146 Y45.3078 F50    
G01 X-63.7145 Y45.3078 
G01 X-63.6728 Y45.3131 
G01 X-63.6566 Y45.3119 
G01 X-63.6405 Y45.3131 
G01 X-63.5988 Y45.3078 
G01 X-63.5987 Y45.3078 
G01 X-63.6566 Y45.3747 
G00 Z3.0000  
G00 X-60.1935 Y34.2097 
G01 Z-0.0250 F10    
G01 X-60.2952 Y34.2657 F50    
G01 X-60.3133 Y34.2809 
G01 X-60.3891 Y34.0724 
G01 X-60.3358 Y34.1257 
G01 X-60.2392 Y34.1903 
G01 X-60.1928 Y34.2095 
G01 X-60.1935 Y34.2097 
G00 Z3.0000  
G00 X-58.7069 Y34.2097 
G01 Z-0.0250 F10    
G01 X-58.8086 Y34.2657 F50    
G01 X-58.8975 Y34.3405 
G01 X-58.9701 Y34.4312 
G01 X-58.9821 Y34.4545 
G01 X-58.9821 Y34.2225 
G01 X-58.9044 Y34.1903 
G01 X-58.8285 Y34.1396 
G01 X-58.7526 Y34.1903 
G01 X-58.7063 Y34.2095 
G01 X-58.7069 Y34.2097 
G00 Z3.0000  
G00 X-54.8197 Y34.4473 
G01 Z-0.0250 F10    
G01 X-54.8018 Y34.4934 F50    
G01 X-54.8018 Y34.4934 
G01 X-54.7913 Y34.5105 
G01 X-54.8197 Y34.6443 
G01 X-54.8197 Y34.4473 
G00 Z3.0000  
G00 X-56.0310 Y34.2097 
G01 Z-0.0250 F10    
G01 X-56.1328 Y34.2657 F50    
G01 X-56.1509 Y34.2809 
G01 X-56.2267 Y34.0724 
G01 X-56.1734 Y34.1257 
G01 X-56.0768 Y34.1903 
G01 X-56.0304 Y34.2095 
G01 X-56.0310 Y34.2097 
G00 Z3.0000  
G00 X-61.4357 Y34.6546 
G01 Z-0.0250 F10    
G01 X-61.4335 Y34.6513 F50    
G01 X-61.4304 Y34.6600 
G01 X-61.4357 Y34.6546 
G00 Z3.0000  
G00 X-23.3346 Y86.7146 
G01 Z-0.0250 F10    
G01 X-23.4538 Y86.8786 F50    
G01 X-23.5458 Y87.0593 
G01 X-23.6085 Y87.2521 
G01 X-23.6385 Y87.4420 
G01 X-24.1135 Y87.4420 
G01 X-24.1435 Y87.2521 
G01 X-24.2062 Y87.0593 
G01 X-24.2982 Y86.8786 
G01 X-24.4174 Y86.7146 
G01 X-24.4744 Y86.6576 
G01 X-23.2776 Y86.6576 
G01 X-23.3346 Y86.7146 
G00 Z3.0000  
G00 X-26.2583 Y84.7576 
G01 Z-0.0250 F10    
G01 X-26.4418 Y84.7941 F50    
G01 X-26.6147 Y84.8657 
G01 X-26.6690 Y84.9020 
G01 X-28.1766 Y84.9020 
G01 X-28.2963 Y84.7822 
G01 X-28.4749 Y84.6525 
G01 X-28.6133 Y84.5820 
G01 X-28.4749 Y84.5115 
G01 X-28.2963 Y84.3818 
G01 X-28.1766 Y84.2620 
G01 X-25.2855 Y84.2620 
G01 X-25.2436 Y84.3039 
G01 X-25.0880 Y84.4079 
G01 X-24.9151 Y84.4795 
G01 X-24.7316 Y84.5160 
G01 X-20.5975 Y84.5160 
G01 X-20.5634 Y84.5408 
G01 X-20.3827 Y84.6328 
G01 X-20.3360 Y84.6480 
G01 X-21.4296 Y84.6480 
G01 X-21.6131 Y84.6845 
G01 X-21.7860 Y84.7561 
G01 X-21.7882 Y84.7576 
G01 X-26.2583 Y84.7576 
G00 Z3.0000  
G00 X-26.5018 Y86.8786 
G01 Z-0.0250 F10    
G01 X-26.5938 Y87.0593 F50    
G01 X-26.6565 Y87.2521 
G01 X-26.6865 Y87.4420 
G01 X-28.1766 Y87.4420 
G01 X-28.2963 Y87.3222 
G01 X-28.4749 Y87.1925 
G01 X-28.6133 Y87.1220 
G01 X-28.4749 Y87.0515 
G01 X-28.2963 Y86.9218 
G01 X-28.1766 Y86.8020 
G01 X-26.4461 Y86.8020 
G01 X-26.5018 Y86.8786 
G00 Z3.0000  
G00 X-51.8334 Y59.8780 
G01 Z-0.0250 F10    
G01 X-51.7137 Y59.9978 F50    
G01 X-51.5351 Y60.1275 
G01 X-51.3967 Y60.1980 
G01 X-51.5351 Y60.2685 
G01 X-51.7137 Y60.3982 
G01 X-51.8334 Y60.5180 
G01 X-51.9901 Y60.5180 
G01 X-52.1522 Y60.3559 
G01 X-52.3378 Y60.2210 
G01 X-52.3830 Y60.1980 
G01 X-52.3378 Y60.1750 
G01 X-52.1522 Y60.0401 
G01 X-51.9901 Y59.8780 
G01 X-51.8334 Y59.8780 
G00 Z3.0000  
G00 X-49.6005 Y50.5729 
G01 Z-0.0250 F10    
G01 X-49.7302 Y50.3943 F50    
G01 X-49.8863 Y50.2382 
G01 X-50.0649 Y50.1085 
G01 X-50.2032 Y50.0380 
G01 X-50.0649 Y49.9675 
G01 X-49.8863 Y49.8378 
G01 X-49.7666 Y49.7180 
G01 X-43.3834 Y49.7180 
G01 X-43.3635 Y49.7571 
G01 X-43.2338 Y49.9357 
G01 X-43.0777 Y50.0918 
G01 X-42.8991 Y50.2215 
G01 X-42.7607 Y50.2920 
G01 X-42.8991 Y50.3625 
G01 X-43.0777 Y50.4922 
G01 X-43.1974 Y50.6120 
G01 X-49.5806 Y50.6120 
G01 X-49.6005 Y50.5729 
G00 Z3.0000  
G00 X-60.9370 Y71.1222 
G01 Z-0.0250 F10    
G01 X-60.8021 Y71.3078 F50    
G01 X-60.6400 Y71.4699 
G01 X-60.6400 Y82.1565 
G01 X-61.6107 Y83.1272 
G01 X-61.7767 Y83.0426 
G01 X-61.9980 Y82.9707 
G01 X-62.2279 Y82.9343 
G01 X-64.5181 Y82.9343 
G01 X-64.7480 Y82.9707 
G01 X-64.9693 Y83.0426 
G01 X-65.1767 Y83.1483 
G01 X-65.3650 Y83.2851 
G01 X-65.5296 Y83.4497 
G01 X-65.6664 Y83.6380 
G01 X-65.7721 Y83.8454 
G01 X-65.8440 Y84.0667 
G01 X-65.8520 Y84.1173 
G01 X-65.8520 Y79.7087 
G01 X-65.8440 Y79.7593 
G01 X-65.7721 Y79.9806 
G01 X-65.6664 Y80.1880 
G01 X-65.5296 Y80.3763 
G01 X-65.3650 Y80.5409 
G01 X-65.1767 Y80.6777 
G01 X-64.9693 Y80.7834 
G01 X-64.7480 Y80.8553 
G01 X-64.5181 Y80.8917 
G01 X-62.2279 Y80.8917 
G01 X-61.9980 Y80.8553 
G01 X-61.7767 Y80.7834 
G01 X-61.5693 Y80.6777 
G01 X-61.3810 Y80.5409 
G01 X-61.2164 Y80.3763 
G01 X-61.0796 Y80.1880 
G01 X-60.9739 Y79.9806 
G01 X-60.9020 Y79.7593 
G01 X-60.8656 Y79.5294 
G01 X-60.8656 Y79.2966 
G01 X-60.9020 Y79.0667 
G01 X-60.9739 Y78.8454 
G01 X-61.0796 Y78.6380 
G01 X-61.1679 Y78.5165 
G01 X-61.1341 Y78.4660 
G01 X-61.0625 Y78.2931 
G01 X-61.0260 Y78.1096 
G01 X-61.0260 Y70.9475 
G01 X-60.9370 Y71.1222 
G00 Z3.0000  
G00 X-61.6720 Y64.8933 
G01 Z-0.0250 F10    
G01 X-61.6720 Y65.1225 F50    
G01 X-62.7139 Y66.1644 
G01 X-62.8179 Y66.3200 
G01 X-62.8895 Y66.4929 
G01 X-62.9260 Y66.6764 
G01 X-62.9260 Y77.6225 
G01 X-63.2378 Y77.9343 
G01 X-64.5181 Y77.9343 
G01 X-64.7480 Y77.9707 
G01 X-64.9693 Y78.0426 
G01 X-65.1767 Y78.1483 
G01 X-65.3650 Y78.2851 
G01 X-65.5296 Y78.4497 
G01 X-65.6664 Y78.6380 
G01 X-65.7721 Y78.8454 
G01 X-65.8440 Y79.0667 
G01 X-65.8520 Y79.1173 
G01 X-65.8520 Y78.3715 
G01 X-63.2701 Y75.7896 
G01 X-63.1661 Y75.6340 
G01 X-63.0945 Y75.4611 
G01 X-63.0580 Y75.2776 
G01 X-63.0580 Y69.7564 
G01 X-63.0945 Y69.5729 
G01 X-63.1661 Y69.4000 
G01 X-63.2701 Y69.2444 
G01 X-63.4024 Y69.1121 
G01 X-64.1644 Y68.3501 
G01 X-64.3200 Y68.2461 
G01 X-64.4929 Y68.1745 
G01 X-64.6764 Y68.1380 
G01 X-65.0066 Y68.1380 
G01 X-65.1263 Y68.0182 
G01 X-65.3049 Y67.8885 
G01 X-65.4433 Y67.8180 
G01 X-65.3049 Y67.7475 
G01 X-65.1263 Y67.6178 
G01 X-64.9702 Y67.4617 
G01 X-64.8405 Y67.2831 
G01 X-64.7403 Y67.0864 
G01 X-64.6720 Y66.8764 
G01 X-64.6375 Y66.6584 
G01 X-64.6375 Y66.4376 
G01 X-64.6720 Y66.2196 
G01 X-64.7403 Y66.0096 
G01 X-64.8405 Y65.8129 
G01 X-64.9702 Y65.6343 
G01 X-65.1263 Y65.4782 
G01 X-65.3049 Y65.3485 
G01 X-65.4433 Y65.2780 
G01 X-65.3049 Y65.2075 
G01 X-65.1263 Y65.0778 
G01 X-65.0066 Y64.9580 
G01 X-64.1684 Y64.9580 
G01 X-63.9849 Y64.9215 
G01 X-63.8120 Y64.8499 
G01 X-63.6564 Y64.7459 
G01 X-62.3445 Y63.4340 
G01 X-59.3215 Y63.4340 
G01 X-58.3540 Y64.4015 
G01 X-58.3540 Y69.7685 
G01 X-58.4430 Y69.5938 
G01 X-58.5779 Y69.4082 
G01 X-58.7402 Y69.2459 
G01 X-58.9258 Y69.1110 
G01 X-59.1303 Y69.0068 
G01 X-59.3486 Y68.9359 
G01 X-59.5753 Y68.9000 
G01 X-59.8047 Y68.9000 
G01 X-60.0314 Y68.9359 
G01 X-60.2497 Y69.0068 
G01 X-60.4542 Y69.1110 
G01 X-60.6398 Y69.2459 
G01 X-60.8021 Y69.4082 
G01 X-60.9370 Y69.5938 
G01 X-61.0260 Y69.7685 
G01 X-61.0260 Y67.1635 
G01 X-60.3285 Y66.4660 
G01 X-60.0993 Y66.4660 
G01 X-59.8726 Y66.4301 
G01 X-59.6543 Y66.3592 
G01 X-59.4498 Y66.2550 
G01 X-59.2642 Y66.1201 
G01 X-59.1019 Y65.9578 
G01 X-58.9670 Y65.7722 
G01 X-58.8628 Y65.5677 
G01 X-58.7919 Y65.3494 
G01 X-58.7560 Y65.1227 
G01 X-58.7560 Y64.8933 
G01 X-58.7919 Y64.6666 
G01 X-58.8628 Y64.4483 
G01 X-58.9670 Y64.2438 
G01 X-59.1019 Y64.0582 
G01 X-59.2642 Y63.8959 
G01 X-59.4498 Y63.7610 
G01 X-59.6543 Y63.6568 
G01 X-59.8726 Y63.5859 
G01 X-60.0993 Y63.5500 
G01 X-60.3287 Y63.5500 
G01 X-60.5554 Y63.5859 
G01 X-60.7737 Y63.6568 
G01 X-60.9782 Y63.7610 
G01 X-61.1638 Y63.8959 
G01 X-61.3261 Y64.0582 
G01 X-61.4610 Y64.2438 
G01 X-61.5652 Y64.4483 
G01 X-61.6361 Y64.6666 
G01 X-61.6720 Y64.8933 
G00 Z3.0000  
G00 X-54.0518 Y60.0401 
G01 Z-0.0250 F10    
G01 X-53.8662 Y60.1750 F50    
G01 X-53.8210 Y60.1980 
G01 X-53.8662 Y60.2210 
G01 X-54.0518 Y60.3559 
G01 X-54.1680 Y60.4721 
G01 X-54.1680 Y59.9239 
G01 X-54.0518 Y60.0401 
G00 Z3.0000  
G00 X-63.9418 Y54.9601 
G01 Z-0.0250 F10    
G01 X-63.7562 Y55.0950 F50    
G01 X-63.5517 Y55.1992 
G01 X-63.3334 Y55.2701 
G01 X-63.1067 Y55.3060 
G01 X-62.8773 Y55.3060 
G01 X-62.6506 Y55.2701 
G01 X-62.4323 Y55.1992 
G01 X-62.2278 Y55.0950 
G01 X-62.0422 Y54.9601 
G01 X-61.8799 Y54.7978 
G01 X-61.7450 Y54.6122 
G01 X-61.6408 Y54.4077 
G01 X-61.5699 Y54.1894 
G01 X-61.5340 Y53.9627 
G01 X-61.5340 Y53.7333 
G01 X-61.5699 Y53.5066 
G01 X-61.6408 Y53.2883 
G01 X-61.7450 Y53.0838 
G01 X-61.8799 Y52.8982 
G01 X-62.0422 Y52.7359 
G01 X-62.2278 Y52.6010 
G01 X-62.4323 Y52.4968 
G01 X-62.6506 Y52.4259 
G01 X-62.8773 Y52.3900 
G01 X-63.1067 Y52.3900 
G01 X-63.3334 Y52.4259 
G01 X-63.5517 Y52.4968 
G01 X-63.7562 Y52.6010 
G01 X-63.9418 Y52.7359 
G01 X-64.1039 Y52.8980 
G01 X-65.0066 Y52.8980 
G01 X-65.1263 Y52.7782 
G01 X-65.3049 Y52.6485 
G01 X-65.4433 Y52.5780 
G01 X-65.3049 Y52.5075 
G01 X-65.1263 Y52.3778 
G01 X-65.0066 Y52.2580 
G01 X-62.3695 Y52.2580 
G01 X-56.0680 Y58.5595 
G01 X-56.0680 Y81.6276 
G01 X-56.0315 Y81.8111 
G01 X-55.9599 Y81.9840 
G01 X-55.8559 Y82.1396 
G01 X-55.7236 Y82.2719 
G01 X-46.1620 Y91.8335 
G01 X-46.1620 Y94.0736 
G01 X-46.1255 Y94.2571 
G01 X-46.0539 Y94.4300 
G01 X-45.9499 Y94.5856 
G01 X-45.8176 Y94.7179 
G01 X-43.7856 Y96.7499 
G01 X-43.6300 Y96.8539 
G01 X-43.4571 Y96.9255 
G01 X-43.2736 Y96.9620 
G01 X-42.9434 Y96.9620 
G01 X-42.8237 Y97.0818 
G01 X-42.6451 Y97.2115 
G01 X-42.5067 Y97.2820 
G01 X-42.6451 Y97.3525 
G01 X-42.8237 Y97.4822 
G01 X-42.9434 Y97.6020 
G01 X-44.3105 Y97.6020 
G01 X-45.5320 Y96.3805 
G01 X-45.5320 Y96.1513 
G01 X-45.5679 Y95.9246 
G01 X-45.6388 Y95.7063 
G01 X-45.7430 Y95.5018 
G01 X-45.8779 Y95.3162 
G01 X-46.0402 Y95.1539 
G01 X-46.2258 Y95.0190 
G01 X-46.4303 Y94.9148 
G01 X-46.6486 Y94.8439 
G01 X-46.8753 Y94.8080 
G01 X-47.1047 Y94.8080 
G01 X-47.3314 Y94.8439 
G01 X-47.5497 Y94.9148 
G01 X-47.7542 Y95.0190 
G01 X-47.9398 Y95.1539 
G01 X-48.1021 Y95.3162 
G01 X-48.2370 Y95.5018 
G01 X-48.3412 Y95.7063 
G01 X-48.4121 Y95.9246 
G01 X-48.4480 Y96.1513 
G01 X-48.4480 Y96.3807 
G01 X-48.4121 Y96.6074 
G01 X-48.3412 Y96.8257 
G01 X-48.2370 Y97.0302 
G01 X-48.1021 Y97.2158 
G01 X-47.9398 Y97.3781 
G01 X-47.7542 Y97.5130 
G01 X-47.5497 Y97.6172 
G01 X-47.3314 Y97.6881 
G01 X-47.1047 Y97.7240 
G01 X-46.8755 Y97.7240 
G01 X-45.3096 Y99.2899 
G01 X-45.1540 Y99.3939 
G01 X-44.9811 Y99.4655 
G01 X-44.7976 Y99.5020 
G01 X-42.9434 Y99.5020 
G01 X-42.8237 Y99.6218 
G01 X-42.6451 Y99.7515 
G01 X-42.4484 Y99.8517 
G01 X-42.2384 Y99.9200 
G01 X-42.0204 Y99.9545 
G01 X-41.7996 Y99.9545 
G01 X-41.5816 Y99.9200 
G01 X-41.3716 Y99.8517 
G01 X-41.1749 Y99.7515 
G01 X-40.9963 Y99.6218 
G01 X-40.8402 Y99.4657 
G01 X-40.7105 Y99.2871 
G01 X-40.6103 Y99.0904 
G01 X-40.5420 Y98.8804 
G01 X-40.5075 Y98.6624 
G01 X-40.5075 Y98.4416 
G01 X-40.5420 Y98.2236 
G01 X-40.6103 Y98.0136 
G01 X-40.7105 Y97.8169 
G01 X-40.8402 Y97.6383 
G01 X-40.9963 Y97.4822 
G01 X-41.1749 Y97.3525 
G01 X-41.3133 Y97.2820 
G01 X-41.1749 Y97.2115 
G01 X-40.9963 Y97.0818 
G01 X-40.8402 Y96.9257 
G01 X-40.7105 Y96.7471 
G01 X-40.6103 Y96.5504 
G01 X-40.5420 Y96.3404 
G01 X-40.5075 Y96.1224 
G01 X-40.5075 Y95.9016 
G01 X-40.5420 Y95.6836 
G01 X-40.6103 Y95.4736 
G01 X-40.7105 Y95.2769 
G01 X-40.8402 Y95.0983 
G01 X-40.9963 Y94.9422 
G01 X-41.1749 Y94.8125 
G01 X-41.3133 Y94.7420 
G01 X-41.1749 Y94.6715 
G01 X-40.9963 Y94.5418 
G01 X-40.8402 Y94.3857 
G01 X-40.7105 Y94.2071 
G01 X-40.6103 Y94.0104 
G01 X-40.5420 Y93.8004 
G01 X-40.5075 Y93.5824 
G01 X-40.5075 Y93.3616 
G01 X-40.5420 Y93.1436 
G01 X-40.6103 Y92.9336 
G01 X-40.7105 Y92.7369 
G01 X-40.8402 Y92.5583 
G01 X-40.9600 Y92.4386 
G01 X-40.9600 Y91.9654 
G01 X-40.8402 Y91.8457 
G01 X-40.7105 Y91.6671 
G01 X-40.6103 Y91.4704 
G01 X-40.5420 Y91.2604 
G01 X-40.5075 Y91.0424 
G01 X-40.5075 Y90.8216 
G01 X-40.5420 Y90.6036 
G01 X-40.6103 Y90.3936 
G01 X-40.7105 Y90.1969 
G01 X-40.8402 Y90.0183 
G01 X-40.9963 Y89.8622 
G01 X-41.1749 Y89.7325 
G01 X-41.3133 Y89.6620 
G01 X-41.1749 Y89.5915 
G01 X-40.9963 Y89.4618 
G01 X-40.8402 Y89.3057 
G01 X-40.7105 Y89.1271 
G01 X-40.6103 Y88.9304 
G01 X-40.5420 Y88.7204 
G01 X-40.5075 Y88.5024 
G01 X-40.5075 Y88.2816 
G01 X-40.5420 Y88.0636 
G01 X-40.6103 Y87.8536 
G01 X-40.7105 Y87.6569 
G01 X-40.8402 Y87.4783 
G01 X-40.9963 Y87.3222 
G01 X-41.1749 Y87.1925 
G01 X-41.3133 Y87.1220 
G01 X-41.1749 Y87.0515 
G01 X-40.9963 Y86.9218 
G01 X-40.8402 Y86.7657 
G01 X-40.7105 Y86.5871 
G01 X-40.6103 Y86.3904 
G01 X-40.5420 Y86.1804 
G01 X-40.5075 Y85.9624 
G01 X-40.5075 Y85.7416 
G01 X-40.5420 Y85.5236 
G01 X-40.6103 Y85.3136 
G01 X-40.7105 Y85.1169 
G01 X-40.8402 Y84.9383 
G01 X-40.9963 Y84.7822 
G01 X-41.1749 Y84.6525 
G01 X-41.3133 Y84.5820 
G01 X-41.1749 Y84.5115 
G01 X-40.9963 Y84.3818 
G01 X-40.8402 Y84.2257 
G01 X-40.7105 Y84.0471 
G01 X-40.6103 Y83.8504 
G01 X-40.5420 Y83.6404 
G01 X-40.5075 Y83.4224 
G01 X-40.5075 Y83.2016 
G01 X-40.5420 Y82.9836 
G01 X-40.6103 Y82.7736 
G01 X-40.7105 Y82.5769 
G01 X-40.8402 Y82.3983 
G01 X-40.9963 Y82.2422 
G01 X-41.1749 Y82.1125 
G01 X-41.3133 Y82.0420 
G01 X-41.1749 Y81.9715 
G01 X-40.9963 Y81.8418 
G01 X-40.8402 Y81.6857 
G01 X-40.7105 Y81.5071 
G01 X-40.6103 Y81.3104 
G01 X-40.5420 Y81.1004 
G01 X-40.5075 Y80.8824 
G01 X-40.5075 Y80.6616 
G01 X-40.5420 Y80.4436 
G01 X-40.6103 Y80.2336 
G01 X-40.7105 Y80.0369 
G01 X-40.8402 Y79.8583 
G01 X-40.9963 Y79.7022 
G01 X-41.1749 Y79.5725 
G01 X-41.3716 Y79.4723 
G01 X-41.5816 Y79.4040 
G01 X-41.7996 Y79.3695 
G01 X-42.0204 Y79.3695 
G01 X-42.2384 Y79.4040 
G01 X-42.4484 Y79.4723 
G01 X-42.6451 Y79.5725 
G01 X-42.8237 Y79.7022 
G01 X-42.9798 Y79.8583 
G01 X-43.1095 Y80.0369 
G01 X-43.2097 Y80.2336 
G01 X-43.2780 Y80.4436 
G01 X-43.3125 Y80.6616 
G01 X-43.3125 Y80.8824 
G01 X-43.2780 Y81.1004 
G01 X-43.2097 Y81.3104 
G01 X-43.1095 Y81.5071 
G01 X-42.9798 Y81.6857 
G01 X-42.8237 Y81.8418 
G01 X-42.6451 Y81.9715 
G01 X-42.5067 Y82.0420 
G01 X-42.6451 Y82.1125 
G01 X-42.8237 Y82.2422 
G01 X-42.9798 Y82.3983 
G01 X-43.1095 Y82.5769 
G01 X-43.2097 Y82.7736 
G01 X-43.2780 Y82.9836 
G01 X-43.3125 Y83.2016 
G01 X-43.3125 Y83.4224 
G01 X-43.2780 Y83.6404 
G01 X-43.2097 Y83.8504 
G01 X-43.1095 Y84.0471 
G01 X-42.9798 Y84.2257 
G01 X-42.8237 Y84.3818 
G01 X-42.6451 Y84.5115 
G01 X-42.5067 Y84.5820 
G01 X-42.6451 Y84.6525 
G01 X-42.8237 Y84.7822 
G01 X-42.9798 Y84.9383 
G01 X-43.1095 Y85.1169 
G01 X-43.2097 Y85.3136 
G01 X-43.2780 Y85.5236 
G01 X-43.3125 Y85.7416 
G01 X-43.3125 Y85.9624 
G01 X-43.2780 Y86.1804 
G01 X-43.2097 Y86.3904 
G01 X-43.1095 Y86.5871 
G01 X-42.9798 Y86.7657 
G01 X-42.8237 Y86.9218 
G01 X-42.6451 Y87.0515 
G01 X-42.5067 Y87.1220 
G01 X-42.6451 Y87.1925 
G01 X-42.8237 Y87.3222 
G01 X-42.9798 Y87.4783 
G01 X-43.1095 Y87.6569 
G01 X-43.2097 Y87.8536 
G01 X-43.2780 Y88.0636 
G01 X-43.3125 Y88.2816 
G01 X-43.3125 Y88.5024 
G01 X-43.2780 Y88.7204 
G01 X-43.2097 Y88.9304 
G01 X-43.1095 Y89.1271 
G01 X-42.9798 Y89.3057 
G01 X-42.8237 Y89.4618 
G01 X-42.6451 Y89.5915 
G01 X-42.5067 Y89.6620 
G01 X-42.6451 Y89.7325 
G01 X-42.8237 Y89.8622 
G01 X-42.9798 Y90.0183 
G01 X-43.1095 Y90.1969 
G01 X-43.2097 Y90.3936 
G01 X-43.2780 Y90.6036 
G01 X-43.3125 Y90.8216 
G01 X-43.3125 Y91.0424 
G01 X-43.2780 Y91.2604 
G01 X-43.2097 Y91.4704 
G01 X-43.1095 Y91.6671 
G01 X-42.9798 Y91.8457 
G01 X-42.8600 Y91.9654 
G01 X-42.8600 Y92.4386 
G01 X-42.9798 Y92.5583 
G01 X-43.1095 Y92.7369 
G01 X-43.2097 Y92.9336 
G01 X-43.2780 Y93.1436 
G01 X-43.3125 Y93.3616 
G01 X-43.3125 Y93.5824 
G01 X-43.2780 Y93.8004 
G01 X-43.2097 Y94.0104 
G01 X-43.1095 Y94.2071 
G01 X-42.9798 Y94.3857 
G01 X-42.8237 Y94.5418 
G01 X-42.6451 Y94.6715 
G01 X-42.5067 Y94.7420 
G01 X-42.6451 Y94.8125 
G01 X-42.8237 Y94.9422 
G01 X-42.8650 Y94.9835 
G01 X-44.2620 Y93.5865 
G01 X-44.2620 Y91.3464 
G01 X-44.2985 Y91.1629 
G01 X-44.3701 Y90.9900 
G01 X-44.4741 Y90.8344 
G01 X-44.6064 Y90.7021 
G01 X-52.7268 Y82.5817 
G01 X-52.6297 Y82.6312 
G01 X-52.4114 Y82.7021 
G01 X-52.1847 Y82.7380 
G01 X-51.9552 Y82.7380 
G01 X-51.7286 Y82.7021 
G01 X-51.5103 Y82.6312 
G01 X-51.3058 Y82.5270 
G01 X-51.1202 Y82.3921 
G01 X-50.9579 Y82.2298 
G01 X-50.8230 Y82.0442 
G01 X-50.7188 Y81.8397 
G01 X-50.6479 Y81.6214 
G01 X-50.6120 Y81.3947 
G01 X-50.6120 Y81.1653 
G01 X-50.6479 Y80.9386 
G01 X-50.7188 Y80.7203 
G01 X-50.8230 Y80.5158 
G01 X-50.9579 Y80.3302 
G01 X-51.1202 Y80.1679 
G01 X-51.3058 Y80.0330 
G01 X-51.5103 Y79.9288 
G01 X-51.7286 Y79.8579 
G01 X-51.9552 Y79.8220 
G01 X-52.0645 Y79.8220 
G01 X-52.0645 Y72.2355 
G01 X-51.9995 Y72.3631 
G01 X-51.8698 Y72.5417 
G01 X-51.7500 Y72.6614 
G01 X-51.7500 Y77.8176 
G01 X-51.7135 Y78.0011 
G01 X-51.6419 Y78.1740 
G01 X-51.5379 Y78.3296 
G01 X-49.9720 Y79.8955 
G01 X-49.9720 Y81.6485 
G01 X-50.2557 Y81.9323 
G01 X-50.3437 Y81.9608 
G01 X-50.5482 Y82.0650 
G01 X-50.7338 Y82.1999 
G01 X-50.8961 Y82.3622 
G01 X-51.0310 Y82.5478 
G01 X-51.1352 Y82.7523 
G01 X-51.2061 Y82.9706 
G01 X-51.2420 Y83.1973 
G01 X-51.2420 Y83.4267 
G01 X-51.2061 Y83.6534 
G01 X-51.1352 Y83.8717 
G01 X-51.0310 Y84.0762 
G01 X-50.8961 Y84.2618 
G01 X-50.7338 Y84.4241 
G01 X-50.5482 Y84.5590 
G01 X-50.3437 Y84.6632 
G01 X-50.1254 Y84.7341 
G01 X-49.8987 Y84.7700 
G01 X-49.6693 Y84.7700 
G01 X-49.4426 Y84.7341 
G01 X-49.2243 Y84.6632 
G01 X-49.0198 Y84.5590 
G01 X-48.8342 Y84.4241 
G01 X-48.6719 Y84.2618 
G01 X-48.5370 Y84.0762 
G01 X-48.4328 Y83.8717 
G01 X-48.3619 Y83.6534 
G01 X-48.3260 Y83.4267 
G01 X-48.3260 Y83.1973 
G01 X-48.3619 Y82.9706 
G01 X-48.4220 Y82.7855 
G01 X-48.4164 Y82.7799 
G01 X-48.2841 Y82.6476 
G01 X-48.1801 Y82.4920 
G01 X-48.1085 Y82.3191 
G01 X-48.0720 Y82.1356 
G01 X-48.0720 Y79.4084 
G01 X-48.1085 Y79.2249 
G01 X-48.1801 Y79.0520 
G01 X-48.2841 Y78.8964 
G01 X-49.8500 Y77.3305 
G01 X-49.8500 Y72.6614 
G01 X-49.7302 Y72.5417 
G01 X-49.6005 Y72.3631 
G01 X-49.5003 Y72.1664 
G01 X-49.4320 Y71.9564 
G01 X-49.3975 Y71.7384 
G01 X-49.3975 Y71.5176 
G01 X-49.4320 Y71.2996 
G01 X-49.5003 Y71.0896 
G01 X-49.6005 Y70.8929 
G01 X-49.7302 Y70.7143 
G01 X-49.8863 Y70.5582 
G01 X-50.0649 Y70.4285 
G01 X-50.2033 Y70.3580 
G01 X-50.0649 Y70.2875 
G01 X-49.8863 Y70.1578 
G01 X-49.7302 Y70.0017 
G01 X-49.6005 Y69.8231 
G01 X-49.5003 Y69.6264 
G01 X-49.4320 Y69.4164 
G01 X-49.3975 Y69.1984 
G01 X-49.3975 Y68.9776 
G01 X-49.4320 Y68.7596 
G01 X-49.5003 Y68.5496 
G01 X-49.6005 Y68.3529 
G01 X-49.7302 Y68.1743 
G01 X-49.8863 Y68.0182 
G01 X-50.0649 Y67.8885 
G01 X-50.2033 Y67.8180 
G01 X-50.0649 Y67.7475 
G01 X-49.8863 Y67.6178 
G01 X-49.7302 Y67.4617 
G01 X-49.6005 Y67.2831 
G01 X-49.5003 Y67.0864 
G01 X-49.4320 Y66.8764 
G01 X-49.3975 Y66.6584 
G01 X-49.3975 Y66.4376 
G01 X-49.4320 Y66.2196 
G01 X-49.5003 Y66.0096 
G01 X-49.6005 Y65.8129 
G01 X-49.7302 Y65.6343 
G01 X-49.8863 Y65.4782 
G01 X-50.0649 Y65.3485 
G01 X-50.2033 Y65.2780 
G01 X-50.0649 Y65.2075 
G01 X-49.8863 Y65.0778 
G01 X-49.7666 Y64.9580 
G01 X-49.6695 Y64.9580 
G01 X-48.9560 Y65.6715 
G01 X-48.9560 Y75.5316 
G01 X-48.9195 Y75.7151 
G01 X-48.8479 Y75.8880 
G01 X-48.7439 Y76.0436 
G01 X-46.0716 Y78.7159 
G01 X-45.9160 Y78.8199 
G01 X-45.7431 Y78.8915 
G01 X-45.5596 Y78.9280 
G01 X-40.3200 Y78.9280 
G01 X-40.3200 Y103.2385 
G01 X-40.5255 Y103.4440 
G01 X-43.2945 Y103.4440 
G01 X-45.5907 Y101.1478 
G01 X-45.7463 Y101.0439 
G01 X-45.9191 Y100.9723 
G01 X-46.1027 Y100.9357 
G01 X-46.8802 Y100.9357 
G01 X-47.2184 Y100.5975 
G01 X-48.2856 Y100.5975 
G01 X-49.0402 Y101.3522 
G01 X-49.0402 Y101.8304 
G01 X-49.1298 Y101.9200 
G01 X-49.8861 Y101.9200 
G01 X-49.9962 Y101.8099 
G01 X-50.1732 Y101.6813 
G01 X-50.3328 Y101.6000 
G01 X-50.1732 Y101.5187 
G01 X-49.9962 Y101.3901 
G01 X-49.8415 Y101.2354 
G01 X-49.7129 Y101.0584 
G01 X-49.6136 Y100.8635 
G01 X-49.5460 Y100.6554 
G01 X-49.5118 Y100.4394 
G01 X-49.5118 Y100.2206 
G01 X-49.5460 Y100.0046 
G01 X-49.6136 Y99.7965 
G01 X-49.7129 Y99.6016 
G01 X-49.8415 Y99.4246 
G01 X-49.9962 Y99.2699 
G01 X-50.1732 Y99.1413 
G01 X-50.3681 Y99.0420 
G01 X-50.5762 Y98.9744 
G01 X-50.7922 Y98.9402 
G01 X-50.8660 Y98.9402 
G01 X-50.8660 Y88.8064 
G01 X-50.9025 Y88.6229 
G01 X-50.9741 Y88.4500 
G01 X-51.0781 Y88.2944 
G01 X-51.2104 Y88.1621 
G01 X-56.4540 Y82.9185 
G01 X-56.4540 Y63.9144 
G01 X-56.4905 Y63.7309 
G01 X-56.5621 Y63.5580 
G01 X-56.6661 Y63.4024 
G01 X-56.7984 Y63.2701 
G01 X-58.3224 Y61.7461 
G01 X-58.4780 Y61.6421 
G01 X-58.6509 Y61.5705 
G01 X-58.8344 Y61.5340 
G01 X-62.8316 Y61.5340 
G01 X-63.0151 Y61.5705 
G01 X-63.1880 Y61.6421 
G01 X-63.3436 Y61.7461 
G01 X-63.4759 Y61.8784 
G01 X-64.6555 Y63.0580 
G01 X-65.0066 Y63.0580 
G01 X-65.1263 Y62.9382 
G01 X-65.3049 Y62.8085 
G01 X-65.4433 Y62.7380 
G01 X-65.3049 Y62.6675 
G01 X-65.1263 Y62.5378 
G01 X-64.9702 Y62.3817 
G01 X-64.8405 Y62.2031 
G01 X-64.7403 Y62.0064 
G01 X-64.6720 Y61.7964 
G01 X-64.6375 Y61.5784 
G01 X-64.6375 Y61.3576 
G01 X-64.6720 Y61.1396 
G01 X-64.7403 Y60.9296 
G01 X-64.8405 Y60.7329 
G01 X-64.9702 Y60.5543 
G01 X-65.1263 Y60.3982 
G01 X-65.3049 Y60.2685 
G01 X-65.4433 Y60.1980 
G01 X-65.3049 Y60.1275 
G01 X-65.1263 Y59.9978 
G01 X-64.9702 Y59.8417 
G01 X-64.8405 Y59.6631 
G01 X-64.7403 Y59.4664 
G01 X-64.6720 Y59.2564 
G01 X-64.6375 Y59.0384 
G01 X-64.6375 Y58.8176 
G01 X-64.6720 Y58.5996 
G01 X-64.7403 Y58.3896 
G01 X-64.8405 Y58.1929 
G01 X-64.9702 Y58.0143 
G01 X-65.1263 Y57.8582 
G01 X-65.3049 Y57.7285 
G01 X-65.4433 Y57.6580 
G01 X-65.3049 Y57.5875 
G01 X-65.1263 Y57.4578 
G01 X-64.9702 Y57.3017 
G01 X-64.8405 Y57.1231 
G01 X-64.7403 Y56.9264 
G01 X-64.6720 Y56.7164 
G01 X-64.6375 Y56.4984 
G01 X-64.6375 Y56.2776 
G01 X-64.6720 Y56.0596 
G01 X-64.7403 Y55.8496 
G01 X-64.8405 Y55.6529 
G01 X-64.9702 Y55.4743 
G01 X-65.1263 Y55.3182 
G01 X-65.3049 Y55.1885 
G01 X-65.4433 Y55.1180 
G01 X-65.3049 Y55.0475 
G01 X-65.1263 Y54.9178 
G01 X-65.0066 Y54.7980 
G01 X-64.1039 Y54.7980 
G01 X-63.9418 Y54.9601 
G00 Z3.0000  
G00 X-53.5280 Y81.1655 
G01 Z-0.0250 F10    
G01 X-53.5280 Y81.3947 F50    
G01 X-53.4921 Y81.6214 
G01 X-53.4212 Y81.8397 
G01 X-53.3717 Y81.9368 
G01 X-54.1680 Y81.1405 
G01 X-54.1680 Y62.4639 
G01 X-54.0518 Y62.5801 
G01 X-53.8662 Y62.7150 
G01 X-53.6617 Y62.8192 
G01 X-53.4434 Y62.8901 
G01 X-53.2167 Y62.9260 
G01 X-52.9873 Y62.9260 
G01 X-52.7606 Y62.8901 
G01 X-52.5423 Y62.8192 
G01 X-52.3378 Y62.7150 
G01 X-52.1522 Y62.5801 
G01 X-51.9901 Y62.4180 
G01 X-51.8334 Y62.4180 
G01 X-51.7137 Y62.5378 
G01 X-51.5351 Y62.6675 
G01 X-51.3967 Y62.7380 
G01 X-51.5351 Y62.8085 
G01 X-51.7137 Y62.9382 
G01 X-51.8698 Y63.0943 
G01 X-51.9995 Y63.2729 
G01 X-52.0997 Y63.4696 
G01 X-52.1680 Y63.6796 
G01 X-52.2025 Y63.8976 
G01 X-52.2025 Y64.1184 
G01 X-52.1680 Y64.3364 
G01 X-52.0997 Y64.5464 
G01 X-51.9995 Y64.7431 
G01 X-51.8698 Y64.9217 
G01 X-51.7137 Y65.0778 
G01 X-51.5351 Y65.2075 
G01 X-51.3967 Y65.2780 
G01 X-51.5351 Y65.3485 
G01 X-51.7137 Y65.4782 
G01 X-51.8698 Y65.6343 
G01 X-51.9995 Y65.8129 
G01 X-52.0997 Y66.0096 
G01 X-52.1680 Y66.2196 
G01 X-52.2025 Y66.4376 
G01 X-52.2025 Y66.6584 
G01 X-52.1680 Y66.8764 
G01 X-52.0997 Y67.0864 
G01 X-51.9995 Y67.2831 
G01 X-51.8698 Y67.4617 
G01 X-51.7137 Y67.6178 
G01 X-51.5351 Y67.7475 
G01 X-51.3967 Y67.8180 
G01 X-51.5351 Y67.8885 
G01 X-51.7137 Y68.0182 
G01 X-51.8698 Y68.1743 
G01 X-51.8953 Y68.2095 
G01 X-51.9596 Y68.2095 
G01 X-52.1432 Y68.2460 
G01 X-52.3161 Y68.3176 
G01 X-52.4717 Y68.4216 
G01 X-52.6040 Y68.5539 
G01 X-53.6201 Y69.5700 
G01 X-53.7524 Y69.7023 
G01 X-53.8564 Y69.8579 
G01 X-53.9280 Y70.0308 
G01 X-53.9645 Y70.2144 
G01 X-53.9645 Y80.4291 
G01 X-53.9280 Y80.6126 
G01 X-53.8564 Y80.7855 
G01 X-53.7524 Y80.9411 
G01 X-53.6201 Y81.0734 
G01 X-53.5280 Y81.1655 
G00 Z3.0000  
G00 X-51.6020 Y70.2389 
G01 Z-0.0250 F10    
G01 X-51.5351 Y70.2875 F50    
G01 X-51.3967 Y70.3580 
G01 X-51.5351 Y70.4285 
G01 X-51.7137 Y70.5582 
G01 X-51.8698 Y70.7143 
G01 X-51.9995 Y70.8929 
G01 X-52.0645 Y71.0205 
G01 X-52.0645 Y70.7014 
G01 X-51.6020 Y70.2389 
G00 Z3.0000  
G00 X-5.6026 Y89.5297 
G01 Z-0.0250 F10    
G01 X-3.3124 Y89.5297 F50    
G01 X-3.0825 Y89.4933 
G01 X-2.8612 Y89.4214 
G01 X-2.6538 Y89.3157 
G01 X-2.4655 Y89.1789 
G01 X-2.3009 Y89.0143 
G01 X-2.1641 Y88.8260 
G01 X-2.0584 Y88.6186 
G01 X-1.9865 Y88.3973 
G01 X-1.9501 Y88.1674 
G01 X-1.9501 Y87.9346 
G01 X-1.9865 Y87.7047 
G01 X-2.0584 Y87.4834 
G01 X-2.1641 Y87.2760 
G01 X-2.3009 Y87.0877 
G01 X-2.4655 Y86.9231 
G01 X-2.6538 Y86.7863 
G01 X-2.8612 Y86.6806 
G01 X-3.0825 Y86.6087 
G01 X-3.3124 Y86.5723 
G01 X-5.6026 Y86.5723 
G01 X-5.8325 Y86.6087 
G01 X-6.0538 Y86.6806 
G01 X-6.2612 Y86.7863 
G01 X-6.4495 Y86.9231 
G01 X-6.4604 Y86.9340 
G01 X-21.2220 Y86.9340 
G01 X-21.2502 Y86.8786 
G01 X-21.3694 Y86.7146 
G01 X-21.4264 Y86.6576 
G01 X-21.3520 Y86.6576 
G01 X-21.1685 Y86.6211 
G01 X-20.9956 Y86.5495 
G01 X-20.9934 Y86.5480 
G01 X-13.4954 Y86.5480 
G01 X-13.3119 Y86.5115 
G01 X-13.1390 Y86.4399 
G01 X-12.9834 Y86.3359 
G01 X-11.3747 Y84.7272 
G01 X-10.4904 Y84.7272 
G01 X-10.2901 Y84.6955 
G01 X-10.0973 Y84.6328 
G01 X-9.9166 Y84.5408 
G01 X-9.7526 Y84.4216 
G01 X-9.6092 Y84.2782 
G01 X-9.4900 Y84.1142 
G01 X-9.4324 Y84.0010 
G01 X-6.6238 Y84.0010 
G01 X-6.6141 Y84.0143 
G01 X-6.4495 Y84.1789 
G01 X-6.2612 Y84.3157 
G01 X-6.0538 Y84.4214 
G01 X-5.8325 Y84.4933 
G01 X-5.6026 Y84.5297 
G01 X-3.3124 Y84.5297 
G01 X-3.0825 Y84.4933 
G01 X-2.8612 Y84.4214 
G01 X-2.6538 Y84.3157 
G01 X-2.4655 Y84.1789 
G01 X-2.3009 Y84.0143 
G01 X-2.1641 Y83.8260 
G01 X-2.0584 Y83.6186 
G01 X-1.9865 Y83.3973 
G01 X-1.9501 Y83.1674 
G01 X-1.9501 Y82.9346 
G01 X-1.9865 Y82.7047 
G01 X-2.0584 Y82.4834 
G01 X-2.1641 Y82.2760 
G01 X-2.3009 Y82.0877 
G01 X-2.4655 Y81.9231 
G01 X-2.6538 Y81.7863 
G01 X-2.8612 Y81.6806 
G01 X-3.0825 Y81.6087 
G01 X-3.3124 Y81.5723 
G01 X-5.6026 Y81.5723 
G01 X-5.8325 Y81.6087 
G01 X-6.0538 Y81.6806 
G01 X-6.2612 Y81.7863 
G01 X-6.4495 Y81.9231 
G01 X-6.6141 Y82.0877 
G01 X-6.6238 Y82.1010 
G01 X-9.7735 Y82.1010 
G01 X-10.2425 Y81.6320 
G01 X-10.0973 Y81.5848 
G01 X-9.9166 Y81.4928 
G01 X-9.7526 Y81.3736 
G01 X-9.6092 Y81.2302 
G01 X-9.4900 Y81.0662 
G01 X-9.3980 Y80.8855 
G01 X-9.3353 Y80.6927 
G01 X-9.3036 Y80.4924 
G01 X-9.3036 Y80.2896 
G01 X-9.3353 Y80.0893 
G01 X-9.3980 Y79.8965 
G01 X-9.4900 Y79.7158 
G01 X-9.6092 Y79.5518 
G01 X-9.7526 Y79.4084 
G01 X-9.9166 Y79.2892 
G01 X-10.0973 Y79.1972 
G01 X-10.2901 Y79.1345 
G01 X-10.4904 Y79.1028 
G01 X-12.3696 Y79.1028 
G01 X-12.5699 Y79.1345 
G01 X-12.7627 Y79.1972 
G01 X-12.9434 Y79.2892 
G01 X-13.1074 Y79.4084 
G01 X-13.2508 Y79.5518 
G01 X-13.3700 Y79.7158 
G01 X-13.4620 Y79.8965 
G01 X-13.5247 Y80.0893 
G01 X-13.5564 Y80.2896 
G01 X-13.5564 Y80.4924 
G01 X-13.5247 Y80.6927 
G01 X-13.4620 Y80.8855 
G01 X-13.3700 Y81.0662 
G01 X-13.2508 Y81.2302 
G01 X-13.1074 Y81.3736 
G01 X-12.9434 Y81.4928 
G01 X-12.7627 Y81.5848 
G01 X-12.5699 Y81.6475 
G01 X-12.3800 Y81.6775 
G01 X-12.3800 Y82.1525 
G01 X-12.5699 Y82.1825 
G01 X-12.7627 Y82.2452 
G01 X-12.9434 Y82.3372 
G01 X-13.1074 Y82.4564 
G01 X-13.2508 Y82.5998 
G01 X-13.3700 Y82.7638 
G01 X-13.4620 Y82.9445 
G01 X-13.5247 Y83.1373 
G01 X-13.5564 Y83.3376 
G01 X-13.5564 Y83.5404 
G01 X-13.5247 Y83.7407 
G01 X-13.4620 Y83.9335 
G01 X-13.3965 Y84.0620 
G01 X-13.9825 Y84.6480 
G01 X-17.7640 Y84.6480 
G01 X-17.7363 Y84.6390 
G01 X-16.7966 Y84.6390 
G01 X-16.6100 Y84.6095 
G01 X-16.4304 Y84.5511 
G01 X-16.2621 Y84.4653 
G01 X-16.1092 Y84.3543 
G01 X-15.9757 Y84.2207 
G01 X-14.9663 Y83.2113 
G01 X-14.8327 Y83.0777 
G01 X-14.7217 Y82.9249 
G01 X-14.6359 Y82.7566 
G01 X-14.5775 Y82.5770 
G01 X-14.5480 Y82.3904 
G01 X-14.5480 Y78.1376 
G01 X-14.5775 Y77.9510 
G01 X-14.6359 Y77.7714 
G01 X-14.7217 Y77.6031 
G01 X-14.8327 Y77.4502 
G01 X-17.2704 Y75.0125 
G01 X-17.4232 Y74.9015 
G01 X-17.4553 Y74.8852 
G01 X-17.5366 Y74.8261 
G01 X-17.7173 Y74.7340 
G01 X-17.9101 Y74.6714 
G01 X-18.1104 Y74.6396 
G01 X-19.9896 Y74.6396 
G01 X-20.1899 Y74.6714 
G01 X-20.3827 Y74.7340 
G01 X-20.5634 Y74.8261 
G01 X-20.7274 Y74.9453 
G01 X-20.8708 Y75.0886 
G01 X-20.9900 Y75.2527 
G01 X-21.0820 Y75.4333 
G01 X-21.1447 Y75.6262 
G01 X-21.1764 Y75.8265 
G01 X-21.1764 Y76.0292 
G01 X-21.1447 Y76.2295 
G01 X-21.0820 Y76.4223 
G01 X-20.9900 Y76.6030 
G01 X-20.8708 Y76.7670 
G01 X-20.7274 Y76.9104 
G01 X-20.5634 Y77.0296 
G01 X-20.3827 Y77.1217 
G01 X-20.1899 Y77.1843 
G01 X-19.9896 Y77.2160 
G01 X-18.4610 Y77.2160 
G01 X-16.9480 Y78.7291 
G01 X-16.9480 Y80.1356 
G01 X-16.9553 Y80.0893 
G01 X-17.0180 Y79.8965 
G01 X-17.1100 Y79.7158 
G01 X-17.2292 Y79.5518 
G01 X-17.3726 Y79.4084 
G01 X-17.5366 Y79.2892 
G01 X-17.7173 Y79.1972 
G01 X-17.9101 Y79.1345 
G01 X-18.1104 Y79.1028 
G01 X-19.9896 Y79.1028 
G01 X-20.1899 Y79.1345 
G01 X-20.3637 Y79.1910 
G01 X-21.1520 Y79.1910 
G01 X-21.1520 Y78.3916 
G01 X-21.1815 Y78.2050 
G01 X-21.2399 Y78.0254 
G01 X-21.3257 Y77.8571 
G01 X-21.4367 Y77.7043 
G01 X-21.5703 Y77.5707 
G01 X-22.4220 Y76.7189 
G01 X-22.4220 Y75.9351 
G01 X-20.7119 Y74.2250 
G01 X-20.3637 Y74.2250 
G01 X-20.1899 Y74.2815 
G01 X-19.9896 Y74.3132 
G01 X-18.1104 Y74.3132 
G01 X-17.9101 Y74.2815 
G01 X-17.7173 Y74.2188 
G01 X-17.5366 Y74.1268 
G01 X-17.3726 Y74.0076 
G01 X-17.2292 Y73.8642 
G01 X-17.1100 Y73.7001 
G01 X-17.0180 Y73.5195 
G01 X-16.9553 Y73.3266 
G01 X-16.9236 Y73.1264 
G01 X-16.9236 Y72.9236 
G01 X-16.9553 Y72.7233 
G01 X-17.0180 Y72.5305 
G01 X-17.1100 Y72.3498 
G01 X-17.2292 Y72.1858 
G01 X-17.3726 Y72.0424 
G01 X-17.5366 Y71.9232 
G01 X-17.7173 Y71.8312 
G01 X-17.9101 Y71.7685 
G01 X-18.1104 Y71.7368 
G01 X-19.9896 Y71.7368 
G01 X-20.1899 Y71.7685 
G01 X-20.3637 Y71.8250 
G01 X-21.3034 Y71.8250 
G01 X-21.4900 Y71.8545 
G01 X-21.6696 Y71.9129 
G01 X-21.8379 Y71.9987 
G01 X-21.9907 Y72.1097 
G01 X-24.4037 Y74.5227 
G01 X-26.1511 Y76.2700 
G01 X-27.5264 Y76.2700 
G01 X-27.7130 Y76.2995 
G01 X-27.8926 Y76.3579 
G01 X-28.0609 Y76.4437 
G01 X-28.2137 Y76.5547 
G01 X-28.3473 Y76.6883 
G01 X-29.9571 Y78.2980 
G01 X-33.6216 Y78.2980 
G01 X-33.8051 Y78.3345 
G01 X-33.9780 Y78.4061 
G01 X-34.1336 Y78.5101 
G01 X-35.7899 Y80.1664 
G01 X-35.8939 Y80.3220 
G01 X-35.9655 Y80.4949 
G01 X-36.0020 Y80.6784 
G01 X-36.0020 Y81.6020 
G01 X-36.0346 Y81.6346 
G01 X-36.1538 Y81.7986 
G01 X-36.2458 Y81.9793 
G01 X-36.3085 Y82.1721 
G01 X-36.3402 Y82.3724 
G01 X-36.3402 Y84.2516 
G01 X-36.3085 Y84.4519 
G01 X-36.2458 Y84.6447 
G01 X-36.1538 Y84.8254 
G01 X-36.0346 Y84.9894 
G01 X-35.8912 Y85.1328 
G01 X-35.7272 Y85.2520 
G01 X-35.5465 Y85.3440 
G01 X-35.3537 Y85.4067 
G01 X-35.1534 Y85.4384 
G01 X-34.9506 Y85.4384 
G01 X-34.7503 Y85.4067 
G01 X-34.5575 Y85.3440 
G01 X-34.3768 Y85.2520 
G01 X-34.2128 Y85.1328 
G01 X-34.0694 Y84.9894 
G01 X-33.9502 Y84.8254 
G01 X-33.8582 Y84.6447 
G01 X-33.7955 Y84.4519 
G01 X-33.7638 Y84.2516 
G01 X-33.7638 Y82.3724 
G01 X-33.7955 Y82.1721 
G01 X-33.8582 Y81.9793 
G01 X-33.9502 Y81.7986 
G01 X-34.0694 Y81.6346 
G01 X-34.1020 Y81.6020 
G01 X-34.1020 Y81.1655 
G01 X-33.1345 Y80.1980 
G01 X-30.6195 Y80.1980 
G01 X-30.5279 Y80.2896 
G01 X-30.5780 Y80.4436 
G01 X-30.6125 Y80.6616 
G01 X-30.6125 Y80.8824 
G01 X-30.5780 Y81.1004 
G01 X-30.5097 Y81.3104 
G01 X-30.4095 Y81.5071 
G01 X-30.2798 Y81.6857 
G01 X-30.1237 Y81.8418 
G01 X-29.9451 Y81.9715 
G01 X-29.8067 Y82.0420 
G01 X-29.9451 Y82.1125 
G01 X-30.1237 Y82.2422 
G01 X-30.2434 Y82.3620 
G01 X-30.9715 Y82.3620 
G01 X-31.0015 Y82.1721 
G01 X-31.0642 Y81.9793 
G01 X-31.1562 Y81.7986 
G01 X-31.2754 Y81.6346 
G01 X-31.4188 Y81.4912 
G01 X-31.5828 Y81.3720 
G01 X-31.7635 Y81.2800 
G01 X-31.9563 Y81.2173 
G01 X-32.1566 Y81.1856 
G01 X-32.3594 Y81.1856 
G01 X-32.5597 Y81.2173 
G01 X-32.7525 Y81.2800 
G01 X-32.9332 Y81.3720 
G01 X-33.0972 Y81.4912 
G01 X-33.2406 Y81.6346 
G01 X-33.3598 Y81.7986 
G01 X-33.4518 Y81.9793 
G01 X-33.5145 Y82.1721 
G01 X-33.5462 Y82.3724 
G01 X-33.5462 Y84.2516 
G01 X-33.5145 Y84.4519 
G01 X-33.4518 Y84.6447 
G01 X-33.3598 Y84.8254 
G01 X-33.2406 Y84.9894 
G01 X-33.0972 Y85.1328 
G01 X-32.9332 Y85.2520 
G01 X-32.7525 Y85.3440 
G01 X-32.5597 Y85.4067 
G01 X-32.3594 Y85.4384 
G01 X-32.1566 Y85.4384 
G01 X-31.9563 Y85.4067 
G01 X-31.7635 Y85.3440 
G01 X-31.5828 Y85.2520 
G01 X-31.4188 Y85.1328 
G01 X-31.2754 Y84.9894 
G01 X-31.1562 Y84.8254 
G01 X-31.0642 Y84.6447 
G01 X-31.0015 Y84.4519 
G01 X-30.9715 Y84.2620 
G01 X-30.2434 Y84.2620 
G01 X-30.1237 Y84.3818 
G01 X-29.9451 Y84.5115 
G01 X-29.8067 Y84.5820 
G01 X-29.9451 Y84.6525 
G01 X-30.1237 Y84.7822 
G01 X-30.2798 Y84.9383 
G01 X-30.4095 Y85.1169 
G01 X-30.5097 Y85.3136 
G01 X-30.5780 Y85.5236 
G01 X-30.6125 Y85.7416 
G01 X-30.6125 Y85.9624 
G01 X-30.5780 Y86.1804 
G01 X-30.5097 Y86.3904 
G01 X-30.4095 Y86.5871 
G01 X-30.2798 Y86.7657 
G01 X-30.1237 Y86.9218 
G01 X-29.9451 Y87.0515 
G01 X-29.8067 Y87.1220 
G01 X-29.9451 Y87.1925 
G01 X-30.1237 Y87.3222 
G01 X-30.2798 Y87.4783 
G01 X-30.4095 Y87.6569 
G01 X-30.5097 Y87.8536 
G01 X-30.5780 Y88.0636 
G01 X-30.6125 Y88.2816 
G01 X-30.6125 Y88.5024 
G01 X-30.5780 Y88.7204 
G01 X-30.5097 Y88.9304 
G01 X-30.4095 Y89.1271 
G01 X-30.2798 Y89.3057 
G01 X-30.1237 Y89.4618 
G01 X-29.9451 Y89.5915 
G01 X-29.8067 Y89.6620 
G01 X-29.9451 Y89.7325 
G01 X-30.1237 Y89.8622 
G01 X-30.2434 Y89.9820 
G01 X-30.9715 Y89.9820 
G01 X-31.0015 Y89.7921 
G01 X-31.0642 Y89.5993 
G01 X-31.1562 Y89.4186 
G01 X-31.2754 Y89.2546 
G01 X-31.4188 Y89.1112 
G01 X-31.5828 Y88.9920 
G01 X-31.7635 Y88.9000 
G01 X-31.9563 Y88.8373 
G01 X-32.1566 Y88.8056 
G01 X-32.3594 Y88.8056 
G01 X-32.5597 Y88.8373 
G01 X-32.7525 Y88.9000 
G01 X-32.9332 Y88.9920 
G01 X-33.0972 Y89.1112 
G01 X-33.2406 Y89.2546 
G01 X-33.3598 Y89.4186 
G01 X-33.4518 Y89.5993 
G01 X-33.5145 Y89.7921 
G01 X-33.5445 Y89.9820 
G01 X-33.7655 Y89.9820 
G01 X-33.7955 Y89.7921 
G01 X-33.8582 Y89.5993 
G01 X-33.9502 Y89.4186 
G01 X-34.0694 Y89.2546 
G01 X-34.2128 Y89.1112 
G01 X-34.3768 Y88.9920 
G01 X-34.5575 Y88.9000 
G01 X-34.7503 Y88.8373 
G01 X-34.9506 Y88.8056 
G01 X-35.1534 Y88.8056 
G01 X-35.3537 Y88.8373 
G01 X-35.5465 Y88.9000 
G01 X-35.7272 Y88.9920 
G01 X-35.8912 Y89.1112 
G01 X-36.0346 Y89.2546 
G01 X-36.1538 Y89.4186 
G01 X-36.2458 Y89.5993 
G01 X-36.3085 Y89.7921 
G01 X-36.3402 Y89.9924 
G01 X-36.3402 Y91.8716 
G01 X-36.3085 Y92.0719 
G01 X-36.2458 Y92.2647 
G01 X-36.1538 Y92.4454 
G01 X-36.0346 Y92.6094 
G01 X-35.8912 Y92.7528 
G01 X-35.7272 Y92.8720 
G01 X-35.5465 Y92.9640 
G01 X-35.3537 Y93.0267 
G01 X-35.1534 Y93.0584 
G01 X-34.9506 Y93.0584 
G01 X-34.7503 Y93.0267 
G01 X-34.5575 Y92.9640 
G01 X-34.3768 Y92.8720 
G01 X-34.2128 Y92.7528 
G01 X-34.0694 Y92.6094 
G01 X-33.9502 Y92.4454 
G01 X-33.8582 Y92.2647 
G01 X-33.7955 Y92.0719 
G01 X-33.7655 Y91.8820 
G01 X-33.5445 Y91.8820 
G01 X-33.5145 Y92.0719 
G01 X-33.4518 Y92.2647 
G01 X-33.3598 Y92.4454 
G01 X-33.2406 Y92.6094 
G01 X-33.0972 Y92.7528 
G01 X-32.9332 Y92.8720 
G01 X-32.7525 Y92.9640 
G01 X-32.5597 Y93.0267 
G01 X-32.3594 Y93.0584 
G01 X-32.1566 Y93.0584 
G01 X-31.9563 Y93.0267 
G01 X-31.7635 Y92.9640 
G01 X-31.5828 Y92.8720 
G01 X-31.4188 Y92.7528 
G01 X-31.2754 Y92.6094 
G01 X-31.1562 Y92.4454 
G01 X-31.0642 Y92.2647 
G01 X-31.0015 Y92.0719 
G01 X-30.9715 Y91.8820 
G01 X-30.2434 Y91.8820 
G01 X-30.1237 Y92.0018 
G01 X-29.9451 Y92.1315 
G01 X-29.8067 Y92.2020 
G01 X-29.9451 Y92.2725 
G01 X-30.1237 Y92.4022 
G01 X-30.2798 Y92.5583 
G01 X-30.4095 Y92.7369 
G01 X-30.5097 Y92.9336 
G01 X-30.5780 Y93.1436 
G01 X-30.6125 Y93.3616 
G01 X-30.6125 Y93.5824 
G01 X-30.5780 Y93.8004 
G01 X-30.5097 Y94.0104 
G01 X-30.4095 Y94.2071 
G01 X-30.2798 Y94.3857 
G01 X-30.1237 Y94.5418 
G01 X-29.9451 Y94.6715 
G01 X-29.8067 Y94.7420 
G01 X-29.9451 Y94.8125 
G01 X-30.1237 Y94.9422 
G01 X-30.2434 Y95.0620 
G01 X-35.4761 Y95.0620 
G01 X-35.6382 Y94.8999 
G01 X-35.8238 Y94.7650 
G01 X-36.0283 Y94.6608 
G01 X-36.2466 Y94.5899 
G01 X-36.4733 Y94.5540 
G01 X-36.7027 Y94.5540 
G01 X-36.9294 Y94.5899 
G01 X-37.1477 Y94.6608 
G01 X-37.3522 Y94.7650 
G01 X-37.5378 Y94.8999 
G01 X-37.7001 Y95.0622 
G01 X-37.8350 Y95.2478 
G01 X-37.9392 Y95.4523 
G01 X-38.0101 Y95.6706 
G01 X-38.0460 Y95.8972 
G01 X-38.0460 Y96.1267 
G01 X-38.0101 Y96.3534 
G01 X-37.9392 Y96.5717 
G01 X-37.8350 Y96.7762 
G01 X-37.7001 Y96.9618 
G01 X-37.5378 Y97.1241 
G01 X-37.3522 Y97.2590 
G01 X-37.1477 Y97.3632 
G01 X-36.9294 Y97.4341 
G01 X-36.7027 Y97.4700 
G01 X-36.4733 Y97.4700 
G01 X-36.2466 Y97.4341 
G01 X-36.0283 Y97.3632 
G01 X-35.8238 Y97.2590 
G01 X-35.6382 Y97.1241 
G01 X-35.4761 Y96.9620 
G01 X-30.2434 Y96.9620 
G01 X-30.1237 Y97.0818 
G01 X-29.9451 Y97.2115 
G01 X-29.8067 Y97.2820 
G01 X-29.9451 Y97.3525 
G01 X-30.1237 Y97.4822 
G01 X-30.2798 Y97.6383 
G01 X-30.4095 Y97.8169 
G01 X-30.5097 Y98.0136 
G01 X-30.5780 Y98.2236 
G01 X-30.6125 Y98.4416 
G01 X-30.6125 Y98.6624 
G01 X-30.5780 Y98.8804 
G01 X-30.5097 Y99.0904 
G01 X-30.4095 Y99.2871 
G01 X-30.3740 Y99.3360 
G01 X-30.3740 Y104.3820 
G01 X-30.4503 Y104.4871 
G01 X-30.5361 Y104.6554 
G01 X-30.5945 Y104.8350 
G01 X-30.6240 Y105.0216 
G01 X-30.6240 Y105.5335 
G01 X-32.3691 Y103.7884 
G01 X-32.5014 Y103.6561 
G01 X-32.6570 Y103.5521 
G01 X-32.8299 Y103.4805 
G01 X-33.0134 Y103.4440 
G01 X-38.2145 Y103.4440 
G01 X-38.4200 Y103.2385 
G01 X-38.4200 Y77.3555 
G01 X-37.5795 Y76.5150 
G01 X-30.2434 Y76.5150 
G01 X-30.1237 Y76.6348 
G01 X-29.9451 Y76.7645 
G01 X-29.7484 Y76.8647 
G01 X-29.5384 Y76.9330 
G01 X-29.3204 Y76.9675 
G01 X-29.0996 Y76.9675 
G01 X-28.8816 Y76.9330 
G01 X-28.6716 Y76.8647 
G01 X-28.4749 Y76.7645 
G01 X-28.2963 Y76.6348 
G01 X-28.1402 Y76.4787 
G01 X-28.0105 Y76.3001 
G01 X-27.9103 Y76.1034 
G01 X-27.8420 Y75.8934 
G01 X-27.8075 Y75.6754 
G01 X-27.8075 Y75.4546 
G01 X-27.8420 Y75.2366 
G01 X-27.9103 Y75.0266 
G01 X-28.0105 Y74.8299 
G01 X-28.1402 Y74.6513 
G01 X-28.2963 Y74.4952 
G01 X-28.4749 Y74.3655 
G01 X-28.6133 Y74.2950 
G01 X-28.4749 Y74.2245 
G01 X-28.2963 Y74.0948 
G01 X-28.1402 Y73.9387 
G01 X-28.0105 Y73.7601 
G01 X-27.9103 Y73.5634 
G01 X-27.8420 Y73.3534 
G01 X-27.8075 Y73.1354 
G01 X-27.8075 Y72.9146 
G01 X-27.8420 Y72.6966 
G01 X-27.9103 Y72.4866 
G01 X-28.0105 Y72.2899 
G01 X-28.1402 Y72.1113 
G01 X-28.2963 Y71.9552 
G01 X-28.4749 Y71.8255 
G01 X-28.6133 Y71.7550 
G01 X-28.4749 Y71.6845 
G01 X-28.2963 Y71.5548 
G01 X-28.1766 Y71.4350 
G01 X-14.3635 Y71.4350 
G01 X-13.3965 Y72.4020 
G01 X-13.4620 Y72.5305 
G01 X-13.5247 Y72.7233 
G01 X-13.5564 Y72.9236 
G01 X-13.5564 Y73.1264 
G01 X-13.5247 Y73.3266 
G01 X-13.4620 Y73.5195 
G01 X-13.3700 Y73.7001 
G01 X-13.2508 Y73.8642 
G01 X-13.1074 Y74.0076 
G01 X-12.9434 Y74.1268 
G01 X-12.7627 Y74.2188 
G01 X-12.5699 Y74.2815 
G01 X-12.3800 Y74.3115 
G01 X-12.3800 Y74.6413 
G01 X-12.5699 Y74.6714 
G01 X-12.7627 Y74.7340 
G01 X-12.9434 Y74.8261 
G01 X-13.1074 Y74.9453 
G01 X-13.2508 Y75.0886 
G01 X-13.3700 Y75.2527 
G01 X-13.4620 Y75.4333 
G01 X-13.5247 Y75.6262 
G01 X-13.5564 Y75.8265 
G01 X-13.5564 Y76.0292 
G01 X-13.5247 Y76.2295 
G01 X-13.4620 Y76.4223 
G01 X-13.3700 Y76.6030 
G01 X-13.2508 Y76.7670 
G01 X-13.1074 Y76.9104 
G01 X-12.9434 Y77.0296 
G01 X-12.7627 Y77.1217 
G01 X-12.5699 Y77.1843 
G01 X-12.3696 Y77.2160 
G01 X-10.4904 Y77.2160 
G01 X-10.2901 Y77.1843 
G01 X-10.0973 Y77.1217 
G01 X-9.9166 Y77.0296 
G01 X-9.7526 Y76.9104 
G01 X-9.6092 Y76.7670 
G01 X-9.4900 Y76.6030 
G01 X-9.3980 Y76.4223 
G01 X-9.3353 Y76.2295 
G01 X-9.3036 Y76.0292 
G01 X-9.3036 Y75.8265 
G01 X-9.3353 Y75.6262 
G01 X-9.3980 Y75.4333 
G01 X-9.4900 Y75.2527 
G01 X-9.5828 Y75.1250 
G01 X-6.5478 Y75.1250 
G01 X-6.5381 Y75.1383 
G01 X-6.3735 Y75.3029 
G01 X-6.1852 Y75.4397 
G01 X-5.9778 Y75.5454 
G01 X-5.7565 Y75.6173 
G01 X-5.5266 Y75.6537 
G01 X-3.2364 Y75.6537 
G01 X-3.0065 Y75.6173 
G01 X-2.7852 Y75.5454 
G01 X-2.5778 Y75.4397 
G01 X-2.3895 Y75.3029 
G01 X-2.2249 Y75.1383 
G01 X-2.0881 Y74.9500 
G01 X-1.9824 Y74.7426 
G01 X-1.9105 Y74.5213 
G01 X-1.8741 Y74.2914 
G01 X-1.8741 Y74.0586 
G01 X-1.9105 Y73.8287 
G01 X-1.9824 Y73.6074 
G01 X-2.0881 Y73.4000 
G01 X-2.2249 Y73.2117 
G01 X-2.3895 Y73.0471 
G01 X-2.5778 Y72.9103 
G01 X-2.7852 Y72.8046 
G01 X-3.0065 Y72.7327 
G01 X-3.2364 Y72.6963 
G01 X-5.5266 Y72.6963 
G01 X-5.7565 Y72.7327 
G01 X-5.9778 Y72.8046 
G01 X-6.1852 Y72.9103 
G01 X-6.3735 Y73.0471 
G01 X-6.5381 Y73.2117 
G01 X-6.5478 Y73.2250 
G01 X-9.3192 Y73.2250 
G01 X-9.3036 Y73.1264 
G01 X-9.3036 Y72.9236 
G01 X-9.3353 Y72.7233 
G01 X-9.3980 Y72.5305 
G01 X-9.4900 Y72.3498 
G01 X-9.6092 Y72.1858 
G01 X-9.7526 Y72.0424 
G01 X-9.9166 Y71.9232 
G01 X-10.0973 Y71.8312 
G01 X-10.2901 Y71.7685 
G01 X-10.4904 Y71.7368 
G01 X-11.3747 Y71.7368 
G01 X-13.3644 Y69.7471 
G01 X-13.5200 Y69.6431 
G01 X-13.6929 Y69.5715 
G01 X-13.8764 Y69.5350 
G01 X-28.1766 Y69.5350 
G01 X-28.2963 Y69.4152 
G01 X-28.4749 Y69.2855 
G01 X-28.6133 Y69.2150 
G01 X-28.4749 Y69.1445 
G01 X-28.3662 Y69.0655 
G01 X-28.2461 Y69.1856 
G01 X-28.1138 Y69.3179 
G01 X-27.9582 Y69.4219 
G01 X-27.7853 Y69.4935 
G01 X-27.6018 Y69.5300 
G01 X-6.8497 Y69.5300 
G01 X-6.7806 Y69.7426 
G01 X-6.6749 Y69.9500 
G01 X-6.5381 Y70.1383 
G01 X-6.3735 Y70.3029 
G01 X-6.1852 Y70.4397 
G01 X-5.9778 Y70.5454 
G01 X-5.7565 Y70.6173 
G01 X-5.5266 Y70.6537 
G01 X-3.2364 Y70.6537 
G01 X-3.0065 Y70.6173 
G01 X-2.7852 Y70.5454 
G01 X-2.5778 Y70.4397 
G01 X-2.3895 Y70.3029 
G01 X-2.2249 Y70.1383 
G01 X-2.0881 Y69.9500 
G01 X-1.9824 Y69.7426 
G01 X-1.9105 Y69.5213 
G01 X-1.8741 Y69.2914 
G01 X-1.8741 Y69.0586 
G01 X-1.9105 Y68.8287 
G01 X-1.9824 Y68.6074 
G01 X-2.0881 Y68.4000 
G01 X-2.2249 Y68.2117 
G01 X-2.3895 Y68.0471 
G01 X-2.5778 Y67.9103 
G01 X-2.7852 Y67.8046 
G01 X-3.0065 Y67.7327 
G01 X-3.2364 Y67.6963 
G01 X-4.6275 Y67.6963 
G01 X-4.6994 Y67.6665 
G01 X-4.8829 Y67.6300 
G01 X-27.1147 Y67.6300 
G01 X-27.5376 Y67.2071 
G01 X-27.6932 Y67.1031 
G01 X-27.8661 Y67.0315 
G01 X-28.0496 Y66.9950 
G01 X-28.1766 Y66.9950 
G01 X-28.2963 Y66.8752 
G01 X-28.4749 Y66.7455 
G01 X-28.6133 Y66.6750 
G01 X-28.4749 Y66.6045 
G01 X-28.2963 Y66.4748 
G01 X-28.1766 Y66.3550 
G01 X-26.5958 Y66.3550 
G01 X-26.5658 Y66.5449 
G01 X-26.5031 Y66.7377 
G01 X-26.4110 Y66.9184 
G01 X-26.2919 Y67.0824 
G01 X-26.1485 Y67.2258 
G01 X-25.9844 Y67.3450 
G01 X-25.8038 Y67.4370 
G01 X-25.6109 Y67.4997 
G01 X-25.4107 Y67.5314 
G01 X-25.2079 Y67.5314 
G01 X-25.0076 Y67.4997 
G01 X-24.8148 Y67.4370 
G01 X-24.6341 Y67.3450 
G01 X-24.4701 Y67.2258 
G01 X-24.3267 Y67.0824 
G01 X-24.2075 Y66.9184 
G01 X-24.1155 Y66.7377 
G01 X-24.0528 Y66.5449 
G01 X-24.0227 Y66.3550 
G01 X-23.6930 Y66.3550 
G01 X-23.6629 Y66.5449 
G01 X-23.6002 Y66.7377 
G01 X-23.5082 Y66.9184 
G01 X-23.3890 Y67.0824 
G01 X-23.2456 Y67.2258 
G01 X-23.0816 Y67.3450 
G01 X-22.9009 Y67.4370 
G01 X-22.7081 Y67.4997 
G01 X-22.5078 Y67.5314 
G01 X-22.3050 Y67.5314 
G01 X-22.1048 Y67.4997 
G01 X-21.9119 Y67.4370 
G01 X-21.7313 Y67.3450 
G01 X-21.5672 Y67.2258 
G01 X-21.4238 Y67.0824 
G01 X-21.3047 Y66.9184 
G01 X-21.2126 Y66.7377 
G01 X-21.1499 Y66.5449 
G01 X-21.1199 Y66.3550 
G01 X-11.9714 Y66.3550 
G01 X-11.7879 Y66.3185 
G01 X-11.6150 Y66.2469 
G01 X-11.4594 Y66.1429 
G01 X-10.4415 Y65.1250 
G01 X-6.5478 Y65.1250 
G01 X-6.5381 Y65.1383 
G01 X-6.3735 Y65.3029 
G01 X-6.1852 Y65.4397 
G01 X-5.9778 Y65.5454 
G01 X-5.7565 Y65.6173 
G01 X-5.5266 Y65.6537 
G01 X-3.2364 Y65.6537 
G01 X-3.0065 Y65.6173 
G01 X-2.7852 Y65.5454 
G01 X-2.5778 Y65.4397 
G01 X-2.3895 Y65.3029 
G01 X-2.2249 Y65.1383 
G01 X-2.0881 Y64.9500 
G01 X-1.9824 Y64.7426 
G01 X-1.9105 Y64.5213 
G01 X-1.8741 Y64.2914 
G01 X-1.8741 Y64.0586 
G01 X-1.9105 Y63.8287 
G01 X-1.9824 Y63.6074 
G01 X-2.0881 Y63.4000 
G01 X-2.2249 Y63.2117 
G01 X-2.3895 Y63.0471 
G01 X-2.5778 Y62.9103 
G01 X-2.7852 Y62.8046 
G01 X-3.0065 Y62.7327 
G01 X-3.2364 Y62.6963 
G01 X-5.5266 Y62.6963 
G01 X-5.7565 Y62.7327 
G01 X-5.9778 Y62.8046 
G01 X-6.1852 Y62.9103 
G01 X-6.3735 Y63.0471 
G01 X-6.5381 Y63.2117 
G01 X-6.5478 Y63.2250 
G01 X-10.9286 Y63.2250 
G01 X-11.1121 Y63.2615 
G01 X-11.2850 Y63.3331 
G01 X-11.4406 Y63.4371 
G01 X-11.5729 Y63.5694 
G01 X-12.4585 Y64.4550 
G01 X-21.1199 Y64.4550 
G01 X-21.1499 Y64.2651 
G01 X-21.2126 Y64.0723 
G01 X-21.3047 Y63.8916 
G01 X-21.4238 Y63.7276 
G01 X-21.5672 Y63.5842 
G01 X-21.7313 Y63.4650 
G01 X-21.7922 Y63.4340 
G01 X-13.9269 Y63.4340 
G01 X-13.7433 Y63.3975 
G01 X-13.5704 Y63.3259 
G01 X-13.4149 Y63.2219 
G01 X-11.3747 Y61.1818 
G01 X-10.4904 Y61.1818 
G01 X-10.2901 Y61.1500 
G01 X-10.0973 Y61.0874 
G01 X-9.9166 Y60.9953 
G01 X-9.7526 Y60.8761 
G01 X-9.7200 Y60.8436 
G01 X-5.0065 Y60.8436 
G01 X-4.8230 Y60.8070 
G01 X-4.6501 Y60.7354 
G01 X-4.5277 Y60.6537 
G01 X-3.2364 Y60.6537 
G01 X-3.0065 Y60.6173 
G01 X-2.7852 Y60.5454 
G01 X-2.5778 Y60.4397 
G01 X-2.3895 Y60.3029 
G01 X-2.2249 Y60.1383 
G01 X-2.0881 Y59.9500 
G01 X-1.9824 Y59.7426 
G01 X-1.9105 Y59.5213 
G01 X-1.8741 Y59.2914 
G01 X-1.8741 Y59.0586 
G01 X-1.9105 Y58.8287 
G01 X-1.9824 Y58.6074 
G01 X-2.0881 Y58.4000 
G01 X-2.2249 Y58.2117 
G01 X-2.3895 Y58.0471 
G01 X-2.5778 Y57.9103 
G01 X-2.7852 Y57.8046 
G01 X-3.0065 Y57.7327 
G01 X-3.2364 Y57.6963 
G01 X-5.5266 Y57.6963 
G01 X-5.7565 Y57.7327 
G01 X-5.9778 Y57.8046 
G01 X-6.1852 Y57.9103 
G01 X-6.3735 Y58.0471 
G01 X-6.5381 Y58.2117 
G01 X-6.6749 Y58.4000 
G01 X-6.7806 Y58.6074 
G01 X-6.8525 Y58.8287 
G01 X-6.8707 Y58.9436 
G01 X-9.5125 Y58.9436 
G01 X-10.4800 Y57.9761 
G01 X-10.4800 Y57.8015 
G01 X-10.2901 Y57.7715 
G01 X-10.0973 Y57.7088 
G01 X-9.9166 Y57.6168 
G01 X-9.7526 Y57.4976 
G01 X-9.6092 Y57.3542 
G01 X-9.4900 Y57.1902 
G01 X-9.3980 Y57.0095 
G01 X-9.3353 Y56.8167 
G01 X-9.3036 Y56.6164 
G01 X-9.3036 Y56.4136 
G01 X-9.3353 Y56.2133 
G01 X-9.3980 Y56.0205 
G01 X-9.4900 Y55.8398 
G01 X-9.6092 Y55.6758 
G01 X-9.7526 Y55.5324 
G01 X-9.9166 Y55.4132 
G01 X-10.0973 Y55.3212 
G01 X-10.2901 Y55.2585 
G01 X-10.4904 Y55.2268 
G01 X-12.3696 Y55.2268 
G01 X-12.5699 Y55.2585 
G01 X-12.7627 Y55.3212 
G01 X-12.9434 Y55.4132 
G01 X-13.1074 Y55.5324 
G01 X-13.2508 Y55.6758 
G01 X-13.3700 Y55.8398 
G01 X-13.4620 Y56.0205 
G01 X-13.5247 Y56.2133 
G01 X-13.5564 Y56.4136 
G01 X-13.5564 Y56.6164 
G01 X-13.5247 Y56.8167 
G01 X-13.4620 Y57.0095 
G01 X-13.3700 Y57.1902 
G01 X-13.2508 Y57.3542 
G01 X-13.1074 Y57.4976 
G01 X-12.9434 Y57.6168 
G01 X-12.7627 Y57.7088 
G01 X-12.5699 Y57.7715 
G01 X-12.3800 Y57.8015 
G01 X-12.3800 Y58.6070 
G01 X-12.5699 Y58.6371 
G01 X-12.7627 Y58.6997 
G01 X-12.9434 Y58.7918 
G01 X-13.1074 Y58.9110 
G01 X-13.2508 Y59.0544 
G01 X-13.3700 Y59.2184 
G01 X-13.4620 Y59.3991 
G01 X-13.5247 Y59.5919 
G01 X-13.5564 Y59.7922 
G01 X-13.5564 Y59.9949 
G01 X-13.5247 Y60.1952 
G01 X-13.4620 Y60.3881 
G01 X-13.3965 Y60.5166 
G01 X-14.4139 Y61.5340 
G01 X-20.8205 Y61.5340 
G01 X-20.3760 Y61.0895 
G01 X-20.1899 Y61.1500 
G01 X-19.9896 Y61.1818 
G01 X-18.1104 Y61.1818 
G01 X-17.9101 Y61.1500 
G01 X-17.7173 Y61.0874 
G01 X-17.5366 Y60.9953 
G01 X-17.3726 Y60.8761 
G01 X-17.3400 Y60.8436 
G01 X-16.8740 Y60.8436 
G01 X-16.6905 Y60.8070 
G01 X-16.5176 Y60.7354 
G01 X-16.3620 Y60.6315 
G01 X-16.2296 Y60.4991 
G01 X-14.6344 Y58.9039 
G01 X-14.5021 Y58.7716 
G01 X-14.3981 Y58.6160 
G01 X-14.3265 Y58.4431 
G01 X-14.2900 Y58.2596 
G01 X-14.2900 Y55.1514 
G01 X-14.3265 Y54.9679 
G01 X-14.3981 Y54.7950 
G01 X-14.5021 Y54.6394 
G01 X-14.6344 Y54.5071 
G01 X-17.4645 Y51.6770 
G01 X-17.3990 Y51.5485 
G01 X-17.3363 Y51.3557 
G01 X-17.3046 Y51.1554 
G01 X-17.3046 Y50.9526 
G01 X-17.3363 Y50.7523 
G01 X-17.3990 Y50.5595 
G01 X-17.4910 Y50.3788 
G01 X-17.6102 Y50.2148 
G01 X-17.7536 Y50.0714 
G01 X-17.9176 Y49.9522 
G01 X-18.0983 Y49.8602 
G01 X-18.2911 Y49.7975 
G01 X-18.4914 Y49.7658 
G01 X-20.3706 Y49.7658 
G01 X-20.5709 Y49.7975 
G01 X-20.7637 Y49.8602 
G01 X-20.9444 Y49.9522 
G01 X-21.1084 Y50.0714 
G01 X-21.2518 Y50.2148 
G01 X-21.3710 Y50.3788 
G01 X-21.4630 Y50.5595 
G01 X-21.5257 Y50.7523 
G01 X-21.5574 Y50.9526 
G01 X-21.5574 Y51.1554 
G01 X-21.5257 Y51.3557 
G01 X-21.4630 Y51.5485 
G01 X-21.3710 Y51.7292 
G01 X-21.2518 Y51.8932 
G01 X-21.1084 Y52.0366 
G01 X-20.9444 Y52.1558 
G01 X-20.7637 Y52.2478 
G01 X-20.5709 Y52.3105 
G01 X-20.3706 Y52.3422 
G01 X-19.4863 Y52.3422 
G01 X-16.1900 Y55.6385 
G01 X-16.1900 Y57.7725 
G01 X-17.3505 Y58.9330 
G01 X-17.3726 Y58.9110 
G01 X-17.5366 Y58.7918 
G01 X-17.7173 Y58.6997 
G01 X-17.9101 Y58.6371 
G01 X-18.1104 Y58.6054 
G01 X-19.9896 Y58.6054 
G01 X-20.1899 Y58.6371 
G01 X-20.3827 Y58.6997 
G01 X-20.5634 Y58.7918 
G01 X-20.7274 Y58.9110 
G01 X-20.7955 Y58.9790 
G01 X-20.8007 Y58.9801 
G01 X-20.9736 Y59.0517 
G01 X-21.1291 Y59.1556 
G01 X-21.3918 Y59.4183 
G01 X-21.3047 Y59.2984 
G01 X-21.2126 Y59.1177 
G01 X-21.1499 Y58.9249 
G01 X-21.1182 Y58.7246 
G01 X-21.1182 Y57.8403 
G01 X-20.7515 Y57.4735 
G01 X-20.7274 Y57.4976 
G01 X-20.5634 Y57.6168 
G01 X-20.3827 Y57.7088 
G01 X-20.1899 Y57.7715 
G01 X-19.9896 Y57.8032 
G01 X-18.1104 Y57.8032 
G01 X-17.9101 Y57.7715 
G01 X-17.7173 Y57.7088 
G01 X-17.5366 Y57.6168 
G01 X-17.3726 Y57.4976 
G01 X-17.2292 Y57.3542 
G01 X-17.1100 Y57.1902 
G01 X-17.0180 Y57.0095 
G01 X-16.9553 Y56.8167 
G01 X-16.9236 Y56.6164 
G01 X-16.9236 Y56.4136 
G01 X-16.9553 Y56.2133 
G01 X-17.0180 Y56.0205 
G01 X-17.1100 Y55.8398 
G01 X-17.2292 Y55.6758 
G01 X-17.3726 Y55.5324 
G01 X-17.5366 Y55.4132 
G01 X-17.7173 Y55.3212 
G01 X-17.9101 Y55.2585 
G01 X-18.1104 Y55.2268 
G01 X-19.9896 Y55.2268 
G01 X-20.1899 Y55.2585 
G01 X-20.3827 Y55.3212 
G01 X-20.5634 Y55.4132 
G01 X-20.7274 Y55.5324 
G01 X-20.7600 Y55.5650 
G01 X-21.0695 Y55.5650 
G01 X-21.8008 Y54.8337 
G01 X-23.0164 Y53.6181 
G01 X-23.1720 Y53.5141 
G01 X-23.1800 Y53.5108 
G01 X-23.1800 Y51.7015 
G01 X-20.8754 Y49.3969 
G01 X-20.7637 Y49.4538 
G01 X-20.5709 Y49.5165 
G01 X-20.3706 Y49.5482 
G01 X-18.4914 Y49.5482 
G01 X-18.2911 Y49.5165 
G01 X-18.0983 Y49.4538 
G01 X-17.9176 Y49.3618 
G01 X-17.7536 Y49.2426 
G01 X-17.6102 Y49.0992 
G01 X-17.4910 Y48.9352 
G01 X-17.3990 Y48.7545 
G01 X-17.3363 Y48.5617 
G01 X-17.3046 Y48.3614 
G01 X-17.3046 Y48.1586 
G01 X-17.3363 Y47.9583 
G01 X-17.3990 Y47.7655 
G01 X-17.4910 Y47.5848 
G01 X-17.6102 Y47.4208 
G01 X-17.7536 Y47.2774 
G01 X-17.8904 Y47.1780 
G01 X-14.2365 Y47.1780 
G01 X-13.7775 Y47.6370 
G01 X-13.8430 Y47.7655 
G01 X-13.9057 Y47.9583 
G01 X-13.9374 Y48.1586 
G01 X-13.9374 Y48.3614 
G01 X-13.9057 Y48.5617 
G01 X-13.8430 Y48.7545 
G01 X-13.7510 Y48.9352 
G01 X-13.6318 Y49.0992 
G01 X-13.4884 Y49.2426 
G01 X-13.3244 Y49.3618 
G01 X-13.1437 Y49.4538 
G01 X-12.9509 Y49.5165 
G01 X-12.7610 Y49.5465 
G01 X-12.7610 Y49.7675 
G01 X-12.9509 Y49.7975 
G01 X-13.1437 Y49.8602 
G01 X-13.3244 Y49.9522 
G01 X-13.4884 Y50.0714 
G01 X-13.6318 Y50.2148 
G01 X-13.7510 Y50.3788 
G01 X-13.8430 Y50.5595 
G01 X-13.9057 Y50.7523 
G01 X-13.9374 Y50.9526 
G01 X-13.9374 Y51.1554 
G01 X-13.9057 Y51.3557 
G01 X-13.8430 Y51.5485 
G01 X-13.7510 Y51.7292 
G01 X-13.6318 Y51.8932 
G01 X-13.4884 Y52.0366 
G01 X-13.3244 Y52.1558 
G01 X-13.1437 Y52.2478 
G01 X-12.9509 Y52.3105 
G01 X-12.7506 Y52.3422 
G01 X-10.8714 Y52.3422 
G01 X-10.6711 Y52.3105 
G01 X-10.4783 Y52.2478 
G01 X-10.2976 Y52.1558 
G01 X-10.1336 Y52.0366 
G01 X-9.9902 Y51.8932 
G01 X-9.8710 Y51.7292 
G01 X-9.7790 Y51.5485 
G01 X-9.7163 Y51.3557 
G01 X-9.6846 Y51.1554 
G01 X-9.6846 Y50.9526 
G01 X-9.7163 Y50.7523 
G01 X-9.7790 Y50.5595 
G01 X-9.8159 Y50.4870 
G01 X-6.5478 Y50.4870 
G01 X-6.5381 Y50.5003 
G01 X-6.3735 Y50.6649 
G01 X-6.1852 Y50.8017 
G01 X-5.9778 Y50.9074 
G01 X-5.7565 Y50.9793 
G01 X-5.5266 Y51.0157 
G01 X-3.2364 Y51.0157 
G01 X-3.0065 Y50.9793 
G01 X-2.7852 Y50.9074 
G01 X-2.5778 Y50.8017 
G01 X-2.3895 Y50.6649 
G01 X-2.2249 Y50.5003 
G01 X-2.0881 Y50.3120 
G01 X-1.9824 Y50.1046 
G01 X-1.9105 Y49.8833 
G01 X-1.8741 Y49.6534 
G01 X-1.8741 Y49.4206 
G01 X-1.9105 Y49.1907 
G01 X-1.9824 Y48.9694 
G01 X-2.0881 Y48.7620 
G01 X-2.2249 Y48.5737 
G01 X-2.3895 Y48.4091 
G01 X-2.5778 Y48.2723 
G01 X-2.7852 Y48.1666 
G01 X-3.0065 Y48.0947 
G01 X-3.2364 Y48.0583 
G01 X-5.5266 Y48.0583 
G01 X-5.7565 Y48.0947 
G01 X-5.9778 Y48.1666 
G01 X-6.1852 Y48.2723 
G01 X-6.3735 Y48.4091 
G01 X-6.5381 Y48.5737 
G01 X-6.5478 Y48.5870 
G01 X-9.7246 Y48.5870 
G01 X-9.7163 Y48.5617 
G01 X-9.6846 Y48.3614 
G01 X-9.6846 Y48.1586 
G01 X-9.7163 Y47.9583 
G01 X-9.7790 Y47.7655 
G01 X-9.8710 Y47.5848 
G01 X-9.9902 Y47.4208 
G01 X-10.1336 Y47.2774 
G01 X-10.2976 Y47.1582 
G01 X-10.4783 Y47.0662 
G01 X-10.6711 Y47.0035 
G01 X-10.8714 Y46.9718 
G01 X-11.7557 Y46.9718 
G01 X-13.1051 Y45.6224 
G01 X-13.2374 Y45.4901 
G01 X-13.3930 Y45.3861 
G01 X-13.5659 Y45.3145 
G01 X-13.7494 Y45.2780 
G01 X-28.7377 Y45.2780 
G01 X-28.8673 Y45.2120 
G01 X-28.7289 Y45.1415 
G01 X-28.5503 Y45.0118 
G01 X-28.4306 Y44.8920 
G01 X-12.8395 Y44.8920 
G01 X-12.4566 Y45.2749 
G01 X-12.3010 Y45.3789 
G01 X-12.1281 Y45.4505 
G01 X-11.9446 Y45.4870 
G01 X-6.5478 Y45.4870 
G01 X-6.5381 Y45.5003 
G01 X-6.3735 Y45.6649 
G01 X-6.1852 Y45.8017 
G01 X-5.9778 Y45.9074 
G01 X-5.7565 Y45.9793 
G01 X-5.5266 Y46.0157 
G01 X-3.2364 Y46.0157 
G01 X-3.0065 Y45.9793 
G01 X-2.7852 Y45.9074 
G01 X-2.5778 Y45.8017 
G01 X-2.3895 Y45.6649 
G01 X-2.2249 Y45.5003 
G01 X-2.0881 Y45.3120 
G01 X-1.9824 Y45.1046 
G01 X-1.9105 Y44.8833 
G01 X-1.8741 Y44.6534 
G01 X-1.8741 Y44.4206 
G01 X-1.9105 Y44.1907 
G01 X-1.9824 Y43.9694 
G01 X-2.0881 Y43.7620 
G01 X-2.2249 Y43.5737 
G01 X-2.3895 Y43.4091 
G01 X-2.5778 Y43.2723 
G01 X-2.7852 Y43.1666 
G01 X-3.0065 Y43.0947 
G01 X-3.2364 Y43.0583 
G01 X-5.5266 Y43.0583 
G01 X-5.7565 Y43.0947 
G01 X-5.9778 Y43.1666 
G01 X-6.1852 Y43.2723 
G01 X-6.3735 Y43.4091 
G01 X-6.5381 Y43.5737 
G01 X-6.5478 Y43.5870 
G01 X-11.4575 Y43.5870 
G01 X-11.8404 Y43.2041 
G01 X-11.9960 Y43.1001 
G01 X-12.1689 Y43.0285 
G01 X-12.3524 Y42.9920 
G01 X-22.5063 Y42.9920 
G01 X-22.4744 Y42.9688 
G01 X-22.3310 Y42.8254 
G01 X-22.2118 Y42.6614 
G01 X-22.1197 Y42.4807 
G01 X-22.0571 Y42.2879 
G01 X-22.0270 Y42.0980 
G01 X-5.8989 Y42.0980 
G01 X-5.7154 Y42.0615 
G01 X-5.5425 Y41.9899 
G01 X-5.3869 Y41.8859 
G01 X-4.5167 Y41.0157 
G01 X-3.2364 Y41.0157 
G01 X-3.0065 Y40.9793 
G01 X-2.7852 Y40.9074 
G01 X-2.5778 Y40.8017 
G01 X-2.3895 Y40.6649 
G01 X-2.2249 Y40.5003 
G01 X-2.0881 Y40.3120 
G01 X-1.9824 Y40.1046 
G01 X-1.9105 Y39.8833 
G01 X-1.8741 Y39.6534 
G01 X-1.8741 Y39.4206 
G01 X-1.9105 Y39.1907 
G01 X-1.9824 Y38.9694 
G01 X-2.0881 Y38.7620 
G01 X-2.2249 Y38.5737 
G01 X-2.3895 Y38.4091 
G01 X-2.5778 Y38.2723 
G01 X-2.7852 Y38.1666 
G01 X-3.0065 Y38.0947 
G01 X-3.2364 Y38.0583 
G01 X-5.5266 Y38.0583 
G01 X-5.7565 Y38.0947 
G01 X-5.9778 Y38.1666 
G01 X-6.1852 Y38.2723 
G01 X-6.3735 Y38.4091 
G01 X-6.5381 Y38.5737 
G01 X-6.6749 Y38.7620 
G01 X-6.7806 Y38.9694 
G01 X-6.8525 Y39.1907 
G01 X-6.8889 Y39.4206 
G01 X-6.8889 Y39.6534 
G01 X-6.8525 Y39.8833 
G01 X-6.7806 Y40.1046 
G01 X-6.7330 Y40.1980 
G01 X-22.0270 Y40.1980 
G01 X-22.0571 Y40.0081 
G01 X-22.1197 Y39.8153 
G01 X-22.2118 Y39.6346 
G01 X-22.3310 Y39.4706 
G01 X-22.3880 Y39.4136 
G01 X-14.4940 Y39.4136 
G01 X-14.3105 Y39.3771 
G01 X-14.1376 Y39.3055 
G01 X-13.9820 Y39.2015 
G01 X-13.8497 Y39.0692 
G01 X-11.3747 Y36.5942 
G01 X-10.4904 Y36.5942 
G01 X-10.2901 Y36.5625 
G01 X-10.1286 Y36.5100 
G01 X-9.5654 Y36.5100 
G01 X-9.3819 Y36.4735 
G01 X-9.2090 Y36.4019 
G01 X-9.0534 Y36.2979 
G01 X-8.9211 Y36.1656 
G01 X-8.2425 Y35.4870 
G01 X-6.5478 Y35.4870 
G01 X-6.5381 Y35.5003 
G01 X-6.3735 Y35.6649 
G01 X-6.1852 Y35.8017 
G01 X-5.9778 Y35.9074 
G01 X-5.7565 Y35.9793 
G01 X-5.5266 Y36.0157 
G01 X-3.2364 Y36.0157 
G01 X-3.0065 Y35.9793 
G01 X-2.7852 Y35.9074 
G01 X-2.5778 Y35.8017 
G01 X-2.3895 Y35.6649 
G01 X-2.2249 Y35.5003 
G01 X-2.0881 Y35.3120 
G01 X-1.9824 Y35.1046 
G01 X-1.9105 Y34.8833 
G01 X-1.8741 Y34.6534 
G01 X-1.8741 Y34.4206 
G01 X-1.9105 Y34.1907 
G01 X-1.9824 Y33.9694 
G01 X-2.0881 Y33.7620 
G01 X-2.2249 Y33.5737 
G01 X-2.3895 Y33.4091 
G01 X-2.5778 Y33.2723 
G01 X-2.7852 Y33.1666 
G01 X-3.0065 Y33.0947 
G01 X-3.2364 Y33.0583 
G01 X-5.5266 Y33.0583 
G01 X-5.7565 Y33.0947 
G01 X-5.9778 Y33.1666 
G01 X-6.1852 Y33.2723 
G01 X-6.3735 Y33.4091 
G01 X-6.5381 Y33.5737 
G01 X-6.5478 Y33.5870 
G01 X-8.7575 Y33.5870 
G01 X-9.4635 Y32.8810 
G01 X-9.3980 Y32.7525 
G01 X-9.3353 Y32.5597 
G01 X-9.3036 Y32.3594 
G01 X-9.3036 Y32.1566 
G01 X-9.3353 Y31.9563 
G01 X-9.3980 Y31.7635 
G01 X-9.4900 Y31.5828 
G01 X-9.6092 Y31.4188 
G01 X-9.7526 Y31.2754 
G01 X-9.9166 Y31.1562 
G01 X-10.0973 Y31.0642 
G01 X-10.2901 Y31.0015 
G01 X-10.4904 Y30.9698 
G01 X-12.3696 Y30.9698 
G01 X-12.5699 Y31.0015 
G01 X-12.7627 Y31.0642 
G01 X-12.9434 Y31.1562 
G01 X-13.1074 Y31.2754 
G01 X-13.2508 Y31.4188 
G01 X-13.3700 Y31.5828 
G01 X-13.4620 Y31.7635 
G01 X-13.5247 Y31.9563 
G01 X-13.5564 Y32.1566 
G01 X-13.5564 Y32.3594 
G01 X-13.5247 Y32.5597 
G01 X-13.4620 Y32.7525 
G01 X-13.3700 Y32.9332 
G01 X-13.2508 Y33.0972 
G01 X-13.1074 Y33.2406 
G01 X-12.9434 Y33.3598 
G01 X-12.7627 Y33.4518 
G01 X-12.5699 Y33.5145 
G01 X-12.3800 Y33.5445 
G01 X-12.3800 Y34.0194 
G01 X-12.5699 Y34.0495 
G01 X-12.7627 Y34.1122 
G01 X-12.9434 Y34.2042 
G01 X-13.1074 Y34.3234 
G01 X-13.2508 Y34.4668 
G01 X-13.3700 Y34.6308 
G01 X-13.4620 Y34.8115 
G01 X-13.5247 Y35.0043 
G01 X-13.5564 Y35.2046 
G01 X-13.5564 Y35.4074 
G01 X-13.5247 Y35.6077 
G01 X-13.4620 Y35.8005 
G01 X-13.3965 Y35.9290 
G01 X-14.9811 Y37.5136 
G01 X-28.1432 Y37.5136 
G01 X-28.3267 Y37.5501 
G01 X-28.4996 Y37.6217 
G01 X-28.6483 Y37.7211 
G01 X-28.7289 Y37.6625 
G01 X-28.8673 Y37.5920 
G01 X-28.7289 Y37.5215 
G01 X-28.5503 Y37.3918 
G01 X-28.4306 Y37.2720 
G01 X-19.9724 Y37.2720 
G01 X-19.7889 Y37.2355 
G01 X-19.6160 Y37.1639 
G01 X-19.4604 Y37.0599 
G01 X-19.3281 Y36.9276 
G01 X-18.9947 Y36.5942 
G01 X-18.1104 Y36.5942 
G01 X-17.9101 Y36.5625 
G01 X-17.7173 Y36.4998 
G01 X-17.5366 Y36.4078 
G01 X-17.3726 Y36.2886 
G01 X-17.2292 Y36.1452 
G01 X-17.1100 Y35.9812 
G01 X-17.0180 Y35.8005 
G01 X-16.9553 Y35.6077 
G01 X-16.9236 Y35.4074 
G01 X-16.9236 Y35.2046 
G01 X-16.9553 Y35.0043 
G01 X-17.0180 Y34.8115 
G01 X-17.1100 Y34.6308 
G01 X-17.2292 Y34.4668 
G01 X-17.3726 Y34.3234 
G01 X-17.5366 Y34.2042 
G01 X-17.7173 Y34.1122 
G01 X-17.9101 Y34.0495 
G01 X-18.1104 Y34.0178 
G01 X-19.9896 Y34.0178 
G01 X-20.1899 Y34.0495 
G01 X-20.3827 Y34.1122 
G01 X-20.5634 Y34.2042 
G01 X-20.7274 Y34.3234 
G01 X-20.8708 Y34.4668 
G01 X-20.9900 Y34.6308 
G01 X-21.0820 Y34.8115 
G01 X-21.1447 Y35.0043 
G01 X-21.1764 Y35.2046 
G01 X-21.1764 Y35.3720 
G01 X-22.5063 Y35.3720 
G01 X-22.4744 Y35.3488 
G01 X-22.3310 Y35.2054 
G01 X-22.2118 Y35.0414 
G01 X-22.1197 Y34.8607 
G01 X-22.0571 Y34.6679 
G01 X-22.0254 Y34.4676 
G01 X-22.0254 Y33.5833 
G01 X-21.9732 Y33.5311 
G01 X-21.6501 Y33.2080 
G01 X-20.7600 Y33.2080 
G01 X-20.7274 Y33.2406 
G01 X-20.5634 Y33.3598 
G01 X-20.3827 Y33.4518 
G01 X-20.1899 Y33.5145 
G01 X-19.9896 Y33.5462 
G01 X-18.1104 Y33.5462 
G01 X-17.9101 Y33.5145 
G01 X-17.7173 Y33.4518 
G01 X-17.5366 Y33.3598 
G01 X-17.3726 Y33.2406 
G01 X-17.2292 Y33.0972 
G01 X-17.1100 Y32.9332 
G01 X-17.0180 Y32.7525 
G01 X-16.9553 Y32.5597 
G01 X-16.9236 Y32.3594 
G01 X-16.9236 Y32.1566 
G01 X-16.9553 Y31.9563 
G01 X-17.0180 Y31.7635 
G01 X-17.1100 Y31.5828 
G01 X-17.2292 Y31.4188 
G01 X-17.3726 Y31.2754 
G01 X-17.5366 Y31.1562 
G01 X-17.7173 Y31.0642 
G01 X-17.9101 Y31.0015 
G01 X-18.1104 Y30.9698 
G01 X-19.9896 Y30.9698 
G01 X-20.1899 Y31.0015 
G01 X-20.3827 Y31.0642 
G01 X-20.5634 Y31.1562 
G01 X-20.7274 Y31.2754 
G01 X-20.7600 Y31.3080 
G01 X-21.4505 Y31.3080 
G01 X-21.9951 Y30.7634 
G01 X-22.7080 Y30.0505 
G01 X-23.5244 Y29.2341 
G01 X-23.6800 Y29.1301 
G01 X-23.8529 Y29.0585 
G01 X-24.0364 Y29.0220 
G01 X-27.2716 Y29.0220 
G01 X-27.4551 Y29.0585 
G01 X-27.6280 Y29.1301 
G01 X-27.7836 Y29.2341 
G01 X-30.1115 Y31.5620 
G01 X-33.6216 Y31.5620 
G01 X-33.8051 Y31.5985 
G01 X-33.9780 Y31.6701 
G01 X-34.1336 Y31.7741 
G01 X-35.6031 Y33.2437 
G01 X-35.7355 Y33.3760 
G01 X-35.8394 Y33.5316 
G01 X-35.9111 Y33.7045 
G01 X-35.9476 Y33.8880 
G01 X-35.9476 Y34.6120 
G01 X-35.9801 Y34.6446 
G01 X-36.0993 Y34.8086 
G01 X-36.1914 Y34.9893 
G01 X-36.2540 Y35.1821 
G01 X-36.2858 Y35.3824 
G01 X-36.2858 Y37.2616 
G01 X-36.2540 Y37.4619 
G01 X-36.1914 Y37.6547 
G01 X-36.0993 Y37.8354 
G01 X-35.9801 Y37.9994 
G01 X-35.8368 Y38.1428 
G01 X-35.6727 Y38.2620 
G01 X-35.4921 Y38.3540 
G01 X-35.2992 Y38.4167 
G01 X-35.0989 Y38.4484 
G01 X-34.8962 Y38.4484 
G01 X-34.6959 Y38.4167 
G01 X-34.5031 Y38.3540 
G01 X-34.3224 Y38.2620 
G01 X-34.1584 Y38.1428 
G01 X-34.0150 Y37.9994 
G01 X-33.8958 Y37.8354 
G01 X-33.8037 Y37.6547 
G01 X-33.7411 Y37.4619 
G01 X-33.7094 Y37.2616 
G01 X-33.7094 Y35.3824 
G01 X-33.7411 Y35.1821 
G01 X-33.8037 Y34.9893 
G01 X-33.8958 Y34.8086 
G01 X-34.0150 Y34.6446 
G01 X-34.0476 Y34.6120 
G01 X-34.0476 Y34.3751 
G01 X-33.1345 Y33.4620 
G01 X-31.1275 Y33.4620 
G01 X-30.8665 Y33.7230 
G01 X-30.8665 Y33.8924 
G01 X-30.8320 Y34.1104 
G01 X-30.7637 Y34.3204 
G01 X-30.6635 Y34.5171 
G01 X-30.5338 Y34.6957 
G01 X-30.3777 Y34.8518 
G01 X-30.1991 Y34.9815 
G01 X-30.0607 Y35.0520 
G01 X-30.1991 Y35.1225 
G01 X-30.3777 Y35.2522 
G01 X-30.4974 Y35.3720 
G01 X-30.9352 Y35.3720 
G01 X-30.9652 Y35.1821 
G01 X-31.0279 Y34.9893 
G01 X-31.1199 Y34.8086 
G01 X-31.2391 Y34.6446 
G01 X-31.3825 Y34.5012 
G01 X-31.5465 Y34.3820 
G01 X-31.7272 Y34.2900 
G01 X-31.9200 Y34.2273 
G01 X-32.1203 Y34.1956 
G01 X-32.3231 Y34.1956 
G01 X-32.5234 Y34.2273 
G01 X-32.7162 Y34.2900 
G01 X-32.8969 Y34.3820 
G01 X-33.0609 Y34.5012 
G01 X-33.2043 Y34.6446 
G01 X-33.3235 Y34.8086 
G01 X-33.4155 Y34.9893 
G01 X-33.4782 Y35.1821 
G01 X-33.5099 Y35.3824 
G01 X-33.5099 Y37.2616 
G01 X-33.4782 Y37.4619 
G01 X-33.4155 Y37.6547 
G01 X-33.3235 Y37.8354 
G01 X-33.2043 Y37.9994 
G01 X-33.0609 Y38.1428 
G01 X-32.8969 Y38.2620 
G01 X-32.7162 Y38.3540 
G01 X-32.5234 Y38.4167 
G01 X-32.3231 Y38.4484 
G01 X-32.1203 Y38.4484 
G01 X-31.9200 Y38.4167 
G01 X-31.7272 Y38.3540 
G01 X-31.5465 Y38.2620 
G01 X-31.3825 Y38.1428 
G01 X-31.2391 Y37.9994 
G01 X-31.1199 Y37.8354 
G01 X-31.0279 Y37.6547 
G01 X-30.9652 Y37.4619 
G01 X-30.9352 Y37.2720 
G01 X-30.4974 Y37.2720 
G01 X-30.3777 Y37.3918 
G01 X-30.1991 Y37.5215 
G01 X-30.0607 Y37.5920 
G01 X-30.1991 Y37.6625 
G01 X-30.3777 Y37.7922 
G01 X-30.5338 Y37.9483 
G01 X-30.6635 Y38.1269 
G01 X-30.7637 Y38.3236 
G01 X-30.8320 Y38.5336 
G01 X-30.8665 Y38.7516 
G01 X-30.8665 Y38.9724 
G01 X-30.8320 Y39.1904 
G01 X-30.7637 Y39.4004 
G01 X-30.6635 Y39.5971 
G01 X-30.5338 Y39.7757 
G01 X-30.3777 Y39.9318 
G01 X-30.1991 Y40.0615 
G01 X-30.0607 Y40.1320 
G01 X-30.1991 Y40.2025 
G01 X-30.3777 Y40.3322 
G01 X-30.5338 Y40.4883 
G01 X-30.6635 Y40.6669 
G01 X-30.7637 Y40.8636 
G01 X-30.8320 Y41.0736 
G01 X-30.8665 Y41.2916 
G01 X-30.8665 Y41.5124 
G01 X-30.8320 Y41.7304 
G01 X-30.7637 Y41.9404 
G01 X-30.6635 Y42.1371 
G01 X-30.5338 Y42.3157 
G01 X-30.3777 Y42.4718 
G01 X-30.1991 Y42.6015 
G01 X-30.0607 Y42.6720 
G01 X-30.1991 Y42.7425 
G01 X-30.3777 Y42.8722 
G01 X-30.4974 Y42.9920 
G01 X-30.9352 Y42.9920 
G01 X-30.9652 Y42.8021 
G01 X-31.0279 Y42.6093 
G01 X-31.1199 Y42.4286 
G01 X-31.2391 Y42.2646 
G01 X-31.3825 Y42.1212 
G01 X-31.5465 Y42.0020 
G01 X-31.7272 Y41.9100 
G01 X-31.9200 Y41.8473 
G01 X-32.1203 Y41.8156 
G01 X-32.3231 Y41.8156 
G01 X-32.5234 Y41.8473 
G01 X-32.7162 Y41.9100 
G01 X-32.8969 Y42.0020 
G01 X-33.0609 Y42.1212 
G01 X-33.2043 Y42.2646 
G01 X-33.3235 Y42.4286 
G01 X-33.4155 Y42.6093 
G01 X-33.4782 Y42.8021 
G01 X-33.5083 Y42.9920 
G01 X-33.7110 Y42.9920 
G01 X-33.7411 Y42.8021 
G01 X-33.8037 Y42.6093 
G01 X-33.8958 Y42.4286 
G01 X-34.0150 Y42.2646 
G01 X-34.1584 Y42.1212 
G01 X-34.3224 Y42.0020 
G01 X-34.5031 Y41.9100 
G01 X-34.6959 Y41.8473 
G01 X-34.8962 Y41.8156 
G01 X-35.0989 Y41.8156 
G01 X-35.2992 Y41.8473 
G01 X-35.4921 Y41.9100 
G01 X-35.6727 Y42.0020 
G01 X-35.8368 Y42.1212 
G01 X-35.9801 Y42.2646 
G01 X-36.0993 Y42.4286 
G01 X-36.1914 Y42.6093 
G01 X-36.2540 Y42.8021 
G01 X-36.2858 Y43.0024 
G01 X-36.2858 Y44.8816 
G01 X-36.2540 Y45.0819 
G01 X-36.1914 Y45.2747 
G01 X-36.0993 Y45.4554 
G01 X-35.9801 Y45.6194 
G01 X-35.8368 Y45.7628 
G01 X-35.6727 Y45.8820 
G01 X-35.4921 Y45.9740 
G01 X-35.2992 Y46.0367 
G01 X-35.0989 Y46.0684 
G01 X-34.8962 Y46.0684 
G01 X-34.6959 Y46.0367 
G01 X-34.5031 Y45.9740 
G01 X-34.3224 Y45.8820 
G01 X-34.1584 Y45.7628 
G01 X-34.0150 Y45.6194 
G01 X-33.8958 Y45.4554 
G01 X-33.8037 Y45.2747 
G01 X-33.7411 Y45.0819 
G01 X-33.7110 Y44.8920 
G01 X-33.5083 Y44.8920 
G01 X-33.4782 Y45.0819 
G01 X-33.4155 Y45.2747 
G01 X-33.3235 Y45.4554 
G01 X-33.2043 Y45.6194 
G01 X-33.0609 Y45.7628 
G01 X-32.8969 Y45.8820 
G01 X-32.7162 Y45.9740 
G01 X-32.5234 Y46.0367 
G01 X-32.3231 Y46.0684 
G01 X-32.1203 Y46.0684 
G01 X-31.9200 Y46.0367 
G01 X-31.7272 Y45.9740 
G01 X-31.5465 Y45.8820 
G01 X-31.3825 Y45.7628 
G01 X-31.2391 Y45.6194 
G01 X-31.1199 Y45.4554 
G01 X-31.0279 Y45.2747 
G01 X-30.9652 Y45.0819 
G01 X-30.9352 Y44.8920 
G01 X-30.4974 Y44.8920 
G01 X-30.3777 Y45.0118 
G01 X-30.1991 Y45.1415 
G01 X-30.0607 Y45.2120 
G01 X-30.1991 Y45.2825 
G01 X-30.3777 Y45.4122 
G01 X-30.5338 Y45.5683 
G01 X-30.6635 Y45.7469 
G01 X-30.7637 Y45.9436 
G01 X-30.7722 Y45.9696 
G01 X-30.8139 Y46.0320 
G01 X-30.8855 Y46.2049 
G01 X-30.9220 Y46.3884 
G01 X-30.9220 Y46.5756 
G01 X-30.8855 Y46.7591 
G01 X-30.8139 Y46.9320 
G01 X-30.7722 Y46.9944 
G01 X-30.7637 Y47.0204 
G01 X-30.6635 Y47.2171 
G01 X-30.5338 Y47.3957 
G01 X-30.3777 Y47.5518 
G01 X-30.1991 Y47.6815 
G01 X-30.0607 Y47.7520 
G01 X-30.1991 Y47.8225 
G01 X-30.3777 Y47.9522 
G01 X-30.4974 Y48.0720 
G01 X-36.4801 Y48.0720 
G01 X-36.6422 Y47.9099 
G01 X-36.8278 Y47.7750 
G01 X-37.0323 Y47.6708 
G01 X-37.2506 Y47.5999 
G01 X-37.4773 Y47.5640 
G01 X-37.7067 Y47.5640 
G01 X-37.9334 Y47.5999 
G01 X-38.1517 Y47.6708 
G01 X-38.3562 Y47.7750 
G01 X-38.5418 Y47.9099 
G01 X-38.7041 Y48.0722 
G01 X-38.8390 Y48.2578 
G01 X-38.9432 Y48.4623 
G01 X-39.0141 Y48.6806 
G01 X-39.0500 Y48.9073 
G01 X-39.0500 Y49.1367 
G01 X-39.0141 Y49.3634 
G01 X-38.9432 Y49.5817 
G01 X-38.8390 Y49.7862 
G01 X-38.7041 Y49.9718 
G01 X-38.5418 Y50.1341 
G01 X-38.3562 Y50.2690 
G01 X-38.1517 Y50.3732 
G01 X-37.9334 Y50.4441 
G01 X-37.7067 Y50.4800 
G01 X-37.4773 Y50.4800 
G01 X-37.2506 Y50.4441 
G01 X-37.0323 Y50.3732 
G01 X-36.8278 Y50.2690 
G01 X-36.6422 Y50.1341 
G01 X-36.4801 Y49.9720 
G01 X-30.4974 Y49.9720 
G01 X-30.3777 Y50.0918 
G01 X-30.1991 Y50.2215 
G01 X-30.0607 Y50.2920 
G01 X-30.1991 Y50.3625 
G01 X-30.3777 Y50.4922 
G01 X-30.4974 Y50.6120 
G01 X-37.4316 Y50.6120 
G01 X-37.6151 Y50.6485 
G01 X-37.7880 Y50.7201 
G01 X-37.9436 Y50.8241 
G01 X-40.1079 Y52.9884 
G01 X-40.2119 Y53.1440 
G01 X-40.2835 Y53.3169 
G01 X-40.3200 Y53.5004 
G01 X-40.3200 Y77.0280 
G01 X-45.0725 Y77.0280 
G01 X-47.0560 Y75.0445 
G01 X-47.0560 Y73.8768 
G01 X-46.9659 Y74.0116 
G01 X-44.6746 Y76.3029 
G01 X-44.5190 Y76.4069 
G01 X-44.3461 Y76.4785 
G01 X-44.1626 Y76.5150 
G01 X-42.9434 Y76.5150 
G01 X-42.8237 Y76.6348 
G01 X-42.6451 Y76.7645 
G01 X-42.4484 Y76.8647 
G01 X-42.2384 Y76.9330 
G01 X-42.0204 Y76.9675 
G01 X-41.7996 Y76.9675 
G01 X-41.5816 Y76.9330 
G01 X-41.3716 Y76.8647 
G01 X-41.1749 Y76.7645 
G01 X-40.9963 Y76.6348 
G01 X-40.8402 Y76.4787 
G01 X-40.7105 Y76.3001 
G01 X-40.6103 Y76.1034 
G01 X-40.5420 Y75.8934 
G01 X-40.5075 Y75.6754 
G01 X-40.5075 Y75.4546 
G01 X-40.5420 Y75.2366 
G01 X-40.6103 Y75.0266 
G01 X-40.7105 Y74.8299 
G01 X-40.8402 Y74.6513 
G01 X-40.9963 Y74.4952 
G01 X-41.1749 Y74.3655 
G01 X-41.3133 Y74.2950 
G01 X-41.1749 Y74.2245 
G01 X-40.9963 Y74.0948 
G01 X-40.8402 Y73.9387 
G01 X-40.7105 Y73.7601 
