(.../eagleLibs/ULP/pcb-gcode.ulp)
(Copyright 2005 - 2012 by John Johnson)
(See readme.txt for licensing terms.)
(This file generated from the board:)
(.../EAGLE/projects/Jonica/schematic.brd)
(Current profile is .../eagleLibs/ULP/profiles/mach.pp  )
(This file generated 16/11/2018 14:48)
(Settings from pcb-machine.h)
(spindle on time = 2.0000)
(  Tool Size)
(0.2000  )
(spindle speed = 40000.0000)
(tool change at 0.0000  0.0000  12.7000 )
(feed rate xy = F50    )
(feed rate z  = F50    )
(Z Axis Settings)
(  High     Up        Down     Drill)
(5.0000  	5.0000  	-0.0250 	-1.0000 )
(Settings from pcb-defaults.h)
(isolate min = 0.1000)
(isolate max = 1.0000)
(isolate step = 0.2500)
(Generated top outlines, bottom outlines, bottom drill, )
(Unit of measure: mm)
(Metric Mode)
G21
(Absolute Coordinates)
G90
S40000
G00 Z5.0000  
G00 X0.0000  Y0.0000  
M03
G04 P2.000000
G00 X2.1616  Y5.7966  
G01 Z-0.0250 F50    
G01 X2.2984  Y5.6598  F50    
G01 X2.4548  Y5.5461  
G01 X2.6271  Y5.4583  
G01 X2.8111  Y5.3986  
G01 X3.0021  Y5.3683  
G01 X5.2529  Y5.3683  
G01 X5.4439  Y5.3986  
G01 X5.6279  Y5.4583  
G01 X5.8002  Y5.5461  
G01 X5.9566  Y5.6598  
G01 X6.0934  Y5.7966  
G01 X6.2071  Y5.9530  
G01 X6.2949  Y6.1253  
G01 X6.3546  Y6.3093  
G01 X6.3849  Y6.5003  
G01 X6.3849  Y6.6937  
G01 X6.3546  Y6.8847  
G01 X6.2949  Y7.0687  
G01 X6.2071  Y7.2410  
G01 X6.0934  Y7.3974  
G01 X5.9566  Y7.5342  
G01 X5.8002  Y7.6479  
G01 X5.6279  Y7.7357  
G01 X5.4439  Y7.7954  
G01 X5.2529  Y7.8257  
G01 X3.0021  Y7.8257  
G01 X2.8111  Y7.7954  
G01 X2.6271  Y7.7357  
G01 X2.4548  Y7.6479  
G01 X2.2984  Y7.5342  
G01 X2.1616  Y7.3974  
G01 X2.0479  Y7.2410  
G01 X1.9601  Y7.0687  
G01 X1.9004  Y6.8847  
G01 X1.8701  Y6.6937  
G01 X1.8701  Y6.5003  
G01 X1.9004  Y6.3093  
G01 X1.9601  Y6.1253  
G01 X2.0479  Y5.9530  
G01 X2.1616  Y5.7966  
G00 Z5.0000  
G00 X2.1616  Y10.7966 
G01 Z-0.0250 F50    
G01 X2.2984  Y10.6598 F50    
G01 X2.4548  Y10.5461 
G01 X2.6271  Y10.4583 
G01 X2.8111  Y10.3986 
G01 X3.0021  Y10.3683 
G01 X5.2529  Y10.3683 
G01 X5.4439  Y10.3986 
G01 X5.6279  Y10.4583 
G01 X5.8002  Y10.5461 
G01 X5.9566  Y10.6598 
G01 X6.0934  Y10.7966 
G01 X6.2071  Y10.9530 
G01 X6.2949  Y11.1253 
G01 X6.3546  Y11.3093 
G01 X6.3849  Y11.5003 
G01 X6.3849  Y11.6937 
G01 X6.3546  Y11.8847 
G01 X6.2949  Y12.0687 
G01 X6.2071  Y12.2410 
G01 X6.0934  Y12.3974 
G01 X5.9566  Y12.5342 
G01 X5.8002  Y12.6479 
G01 X5.6279  Y12.7357 
G01 X5.4439  Y12.7954 
G01 X5.2529  Y12.8257 
G01 X3.0021  Y12.8257 
G01 X2.8111  Y12.7954 
G01 X2.6271  Y12.7357 
G01 X2.4548  Y12.6479 
G01 X2.2984  Y12.5342 
G01 X2.1616  Y12.3974 
G01 X2.0479  Y12.2410 
G01 X1.9601  Y12.0687 
G01 X1.9004  Y11.8847 
G01 X1.8701  Y11.6937 
G01 X1.8701  Y11.5003 
G01 X1.9004  Y11.3093 
G01 X1.9601  Y11.1253 
G01 X2.0479  Y10.9530 
G01 X2.1616  Y10.7966 
G00 Z5.0000  
G00 X2.1616  Y15.7966 
G01 Z-0.0250 F50    
G01 X2.2984  Y15.6598 F50    
G01 X2.4548  Y15.5461 
G01 X2.6271  Y15.4583 
G01 X2.8111  Y15.3986 
G01 X3.0021  Y15.3683 
G01 X5.2529  Y15.3683 
G01 X5.4439  Y15.3986 
G01 X5.6279  Y15.4583 
G01 X5.8002  Y15.5461 
G01 X5.9566  Y15.6598 
G01 X6.0934  Y15.7966 
G01 X6.2071  Y15.9530 
G01 X6.2949  Y16.1253 
G01 X6.3546  Y16.3093 
G01 X6.3849  Y16.5003 
G01 X6.3849  Y16.6937 
G01 X6.3546  Y16.8847 
G01 X6.2949  Y17.0687 
G01 X6.2071  Y17.2410 
G01 X6.0934  Y17.3974 
G01 X5.9566  Y17.5342 
G01 X5.8002  Y17.6479 
G01 X5.6279  Y17.7357 
G01 X5.4439  Y17.7954 
G01 X5.2529  Y17.8257 
G01 X3.0021  Y17.8257 
G01 X2.8111  Y17.7954 
G01 X2.6271  Y17.7357 
G01 X2.4548  Y17.6479 
G01 X2.2984  Y17.5342 
G01 X2.1616  Y17.3974 
G01 X2.0479  Y17.2410 
G01 X1.9601  Y17.0687 
G01 X1.9004  Y16.8847 
G01 X1.8701  Y16.6937 
G01 X1.8701  Y16.5003 
G01 X1.9004  Y16.3093 
G01 X1.9601  Y16.1253 
G01 X2.0479  Y15.9530 
G01 X2.1616  Y15.7966 
G00 Z5.0000  
G00 X2.1616  Y20.7966 
G01 Z-0.0250 F50    
G01 X2.2984  Y20.6598 F50    
G01 X2.4548  Y20.5461 
G01 X2.6271  Y20.4583 
G01 X2.8111  Y20.3986 
G01 X3.0021  Y20.3683 
G01 X5.2529  Y20.3683 
G01 X5.4439  Y20.3986 
G01 X5.6279  Y20.4583 
G01 X5.8002  Y20.5461 
G01 X5.9566  Y20.6598 
G01 X6.0934  Y20.7966 
G01 X6.2071  Y20.9530 
G01 X6.2949  Y21.1253 
G01 X6.3546  Y21.3093 
G01 X6.3849  Y21.5003 
G01 X6.3849  Y21.6937 
G01 X6.3546  Y21.8847 
G01 X6.2949  Y22.0687 
G01 X6.2071  Y22.2410 
G01 X6.0934  Y22.3974 
G01 X5.9566  Y22.5342 
G01 X5.8002  Y22.6479 
G01 X5.6279  Y22.7357 
G01 X5.4439  Y22.7954 
G01 X5.2529  Y22.8257 
G01 X3.0021  Y22.8257 
G01 X2.8111  Y22.7954 
G01 X2.6271  Y22.7357 
G01 X2.4548  Y22.6479 
G01 X2.2984  Y22.5342 
G01 X2.1616  Y22.3974 
G01 X2.0479  Y22.2410 
G01 X1.9601  Y22.0687 
G01 X1.9004  Y21.8847 
G01 X1.8701  Y21.6937 
G01 X1.8701  Y21.5003 
G01 X1.9004  Y21.3093 
G01 X1.9601  Y21.1253 
G01 X2.0479  Y20.9530 
G01 X2.1616  Y20.7966 
G00 Z5.0000  
G00 X9.7567  Y20.7185 
G01 Z-0.0250 F50    
G01 X9.7062  Y20.5631 F50    
G01 X9.6806  Y20.4017 
G01 X9.6806  Y20.2383 
G01 X9.7062  Y20.0769 
G01 X9.7567  Y19.9215 
G01 X9.8308  Y19.7759 
G01 X9.9269  Y19.6437 
G01 X10.0425 Y19.5281 
G01 X10.1747 Y19.4321 
G01 X10.3203 Y19.3579 
G01 X10.4757 Y19.3074 
G01 X10.6371 Y19.2818 
G01 X12.4769 Y19.2818 
G01 X12.6383 Y19.3074 
G01 X12.7937 Y19.3579 
G01 X12.9393 Y19.4321 
G01 X13.0715 Y19.5281 
G01 X13.1871 Y19.6437 
G01 X13.2831 Y19.7759 
G01 X13.3573 Y19.9215 
G01 X13.4078 Y20.0769 
G01 X13.4334 Y20.2383 
G01 X13.4334 Y20.4017 
G01 X13.4078 Y20.5631 
G01 X13.3573 Y20.7185 
G01 X13.2831 Y20.8641 
G01 X13.1871 Y20.9963 
G01 X13.0715 Y21.1119 
G01 X12.9393 Y21.2079 
G01 X12.7937 Y21.2821 
G01 X12.6383 Y21.3326 
G01 X12.4769 Y21.3582 
G01 X10.6371 Y21.3582 
G01 X10.4757 Y21.3326 
G01 X10.3203 Y21.2821 
G01 X10.1747 Y21.2079 
G01 X10.0425 Y21.1119 
G01 X9.9269  Y20.9963 
G01 X9.8308  Y20.8641 
G01 X9.7567  Y20.7185 
G00 Z5.0000  
G00 X9.9269  Y22.4377 
G01 Z-0.0250 F50    
G01 X10.0425 Y22.3221 F50    
G01 X10.1747 Y22.2261 
G01 X10.3203 Y22.1519 
G01 X10.4757 Y22.1014 
G01 X10.6371 Y22.0758 
G01 X12.4769 Y22.0758 
G01 X12.6383 Y22.1014 
G01 X12.7937 Y22.1519 
G01 X12.9393 Y22.2261 
G01 X13.0715 Y22.3221 
G01 X13.1871 Y22.4377 
G01 X13.2831 Y22.5699 
G01 X13.3573 Y22.7155 
G01 X13.4078 Y22.8709 
G01 X13.4334 Y23.0323 
G01 X13.4334 Y23.1957 
G01 X13.4078 Y23.3571 
G01 X13.3573 Y23.5125 
G01 X13.2831 Y23.6581 
G01 X13.1871 Y23.7903 
G01 X13.0715 Y23.9059 
G01 X12.9393 Y24.0019 
G01 X12.7937 Y24.0761 
G01 X12.6383 Y24.1266 
G01 X12.4769 Y24.1522 
G01 X10.6371 Y24.1522 
G01 X10.4757 Y24.1266 
G01 X10.3203 Y24.0761 
G01 X10.1747 Y24.0019 
G01 X10.0425 Y23.9059 
G01 X9.9269  Y23.7903 
G01 X9.8308  Y23.6581 
G01 X9.7567  Y23.5125 
G01 X9.7062  Y23.3571 
G01 X9.6806  Y23.1957 
G01 X9.6806  Y23.0323 
G01 X9.7062  Y22.8709 
G01 X9.7567  Y22.7155 
G01 X9.8308  Y22.5699 
G01 X9.9269  Y22.4377 
G00 Z5.0000  
G00 X9.9393  Y27.6129 
G01 Z-0.0250 F50    
G01 X10.0947 Y27.5624 F50    
G01 X10.2561 Y27.5368 
G01 X12.0959 Y27.5368 
G01 X12.2573 Y27.5624 
G01 X12.4127 Y27.6129 
G01 X12.5583 Y27.6870 
G01 X12.6905 Y27.7831 
G01 X12.8061 Y27.8987 
G01 X12.9021 Y28.0309 
G01 X12.9763 Y28.1765 
G01 X13.0268 Y28.3319 
G01 X13.0524 Y28.4933 
G01 X13.0524 Y28.6567 
G01 X13.0268 Y28.8181 
G01 X12.9763 Y28.9735 
G01 X12.9021 Y29.1191 
G01 X12.8061 Y29.2513 
G01 X12.6905 Y29.3669 
G01 X12.5583 Y29.4629 
G01 X12.4127 Y29.5371 
G01 X12.2573 Y29.5876 
G01 X12.0959 Y29.6132 
G01 X10.2561 Y29.6132 
G01 X10.0947 Y29.5876 
G01 X9.9393  Y29.5371 
G01 X9.7937  Y29.4629 
G01 X9.6615  Y29.3669 
G01 X9.5459  Y29.2513 
G01 X9.4498  Y29.1191 
G01 X9.3757  Y28.9735 
G01 X9.3252  Y28.8181 
G01 X9.2996  Y28.6567 
G01 X9.2996  Y28.4933 
G01 X9.3252  Y28.3319 
G01 X9.3757  Y28.1765 
G01 X9.4498  Y28.0309 
G01 X9.5459  Y27.8987 
G01 X9.6615  Y27.7831 
G01 X9.7937  Y27.6870 
G01 X9.9393  Y27.6129 
G00 Z5.0000  
G00 X9.9393  Y30.9914 
G01 Z-0.0250 F50    
G01 X10.0947 Y30.9409 F50    
G01 X10.2561 Y30.9154 
G01 X12.0959 Y30.9154 
G01 X12.2573 Y30.9409 
G01 X12.4127 Y30.9914 
G01 X12.5583 Y31.0656 
G01 X12.6905 Y31.1617 
G01 X12.8061 Y31.2772 
G01 X12.9021 Y31.4094 
G01 X12.9763 Y31.5550 
G01 X13.0268 Y31.7104 
G01 X13.0524 Y31.8718 
G01 X13.0524 Y32.0353 
G01 X13.0268 Y32.1967 
G01 X12.9763 Y32.3521 
G01 X12.9021 Y32.4977 
G01 X12.8061 Y32.6299 
G01 X12.6905 Y32.7455 
G01 X12.5583 Y32.8415 
G01 X12.4127 Y32.9157 
G01 X12.2573 Y32.9662 
G01 X12.0959 Y32.9918 
G01 X10.2561 Y32.9918 
G01 X10.0947 Y32.9662 
G01 X9.9393  Y32.9157 
G01 X9.7937  Y32.8415 
G01 X9.6615  Y32.7455 
G01 X9.5459  Y32.6299 
G01 X9.4498  Y32.4977 
G01 X9.3757  Y32.3521 
G01 X9.3252  Y32.1967 
G01 X9.2996  Y32.0353 
G01 X9.2996  Y31.8718 
G01 X9.3252  Y31.7104 
G01 X9.3757  Y31.5550 
G01 X9.4498  Y31.4094 
G01 X9.5459  Y31.2772 
G01 X9.6615  Y31.1617 
G01 X9.7937  Y31.0656 
G01 X9.9393  Y30.9914 
G00 Z5.0000  
G00 X6.3546  Y30.9473 
G01 Z-0.0250 F50    
G01 X6.3849  Y31.1383 F50    
G01 X6.3849  Y31.3317 
G01 X6.3546  Y31.5227 
G01 X6.2949  Y31.7067 
G01 X6.2071  Y31.8790 
G01 X6.0934  Y32.0354 
G01 X5.9566  Y32.1722 
G01 X5.8002  Y32.2859 
G01 X5.6279  Y32.3737 
G01 X5.4439  Y32.4334 
G01 X5.2529  Y32.4637 
G01 X3.0021  Y32.4637 
G01 X2.8111  Y32.4334 
G01 X2.6271  Y32.3737 
G01 X2.4548  Y32.2859 
G01 X2.2984  Y32.1722 
G01 X2.1616  Y32.0354 
G01 X2.0479  Y31.8790 
G01 X1.9601  Y31.7067 
G01 X1.9004  Y31.5227 
G01 X1.8701  Y31.3317 
G01 X1.8701  Y31.1383 
G01 X1.9004  Y30.9473 
G01 X1.9601  Y30.7633 
G01 X2.0479  Y30.5910 
G01 X2.1616  Y30.4346 
G01 X2.2984  Y30.2978 
G01 X2.4548  Y30.1841 
G01 X2.6271  Y30.0963 
G01 X2.8111  Y30.0366 
G01 X3.0021  Y30.0063 
G01 X5.2529  Y30.0063 
G01 X5.4439  Y30.0366 
G01 X5.6279  Y30.0963 
G01 X5.8002  Y30.1841 
G01 X5.9566  Y30.2978 
G01 X6.0934  Y30.4346 
G01 X6.2071  Y30.5910 
G01 X6.2949  Y30.7633 
G01 X6.3546  Y30.9473 
G00 Z5.0000  
G00 X5.9566  Y35.2978 
G01 Z-0.0250 F50    
G01 X6.0934  Y35.4346 F50    
G01 X6.2071  Y35.5910 
G01 X6.2949  Y35.7633 
G01 X6.3546  Y35.9473 
G01 X6.3849  Y36.1383 
G01 X6.3849  Y36.3317 
G01 X6.3546  Y36.5227 
G01 X6.2949  Y36.7067 
G01 X6.2071  Y36.8790 
G01 X6.0934  Y37.0354 
G01 X5.9566  Y37.1722 
G01 X5.8002  Y37.2859 
G01 X5.6279  Y37.3737 
G01 X5.4439  Y37.4334 
G01 X5.2529  Y37.4637 
G01 X3.0021  Y37.4637 
G01 X2.8111  Y37.4334 
G01 X2.6271  Y37.3737 
G01 X2.4548  Y37.2859 
G01 X2.2984  Y37.1722 
G01 X2.1616  Y37.0354 
G01 X2.0479  Y36.8790 
G01 X1.9601  Y36.7067 
G01 X1.9004  Y36.5227 
G01 X1.8701  Y36.3317 
G01 X1.8701  Y36.1383 
G01 X1.9004  Y35.9473 
G01 X1.9601  Y35.7633 
G01 X2.0479  Y35.5910 
G01 X2.1616  Y35.4346 
G01 X2.2984  Y35.2978 
G01 X2.4548  Y35.1841 
G01 X2.6271  Y35.0963 
G01 X2.8111  Y35.0366 
G01 X3.0021  Y35.0063 
G01 X5.2529  Y35.0063 
G01 X5.4439  Y35.0366 
G01 X5.6279  Y35.0963 
G01 X5.8002  Y35.1841 
G01 X5.9566  Y35.2978 
G00 Z5.0000  
G00 X5.9566  Y40.2978 
G01 Z-0.0250 F50    
G01 X6.0934  Y40.4346 F50    
G01 X6.2071  Y40.5910 
G01 X6.2949  Y40.7633 
G01 X6.3546  Y40.9473 
G01 X6.3849  Y41.1383 
G01 X6.3849  Y41.3317 
G01 X6.3546  Y41.5227 
G01 X6.2949  Y41.7067 
G01 X6.2071  Y41.8790 
G01 X6.0934  Y42.0354 
G01 X5.9566  Y42.1722 
G01 X5.8002  Y42.2859 
G01 X5.6279  Y42.3737 
G01 X5.4439  Y42.4334 
G01 X5.2529  Y42.4637 
G01 X3.0021  Y42.4637 
G01 X2.8111  Y42.4334 
G01 X2.6271  Y42.3737 
G01 X2.4548  Y42.2859 
G01 X2.2984  Y42.1722 
G01 X2.1616  Y42.0354 
G01 X2.0479  Y41.8790 
G01 X1.9601  Y41.7067 
G01 X1.9004  Y41.5227 
G01 X1.8701  Y41.3317 
G01 X1.8701  Y41.1383 
G01 X1.9004  Y40.9473 
G01 X1.9601  Y40.7633 
G01 X2.0479  Y40.5910 
G01 X2.1616  Y40.4346 
G01 X2.2984  Y40.2978 
G01 X2.4548  Y40.1841 
G01 X2.6271  Y40.0963 
G01 X2.8111  Y40.0366 
G01 X3.0021  Y40.0063 
G01 X5.2529  Y40.0063 
G01 X5.4439  Y40.0366 
G01 X5.6279  Y40.0963 
G01 X5.8002  Y40.1841 
G01 X5.9566  Y40.2978 
G00 Z5.0000  
G00 X5.9566  Y45.2978 
G01 Z-0.0250 F50    
G01 X6.0934  Y45.4346 F50    
G01 X6.2071  Y45.5910 
G01 X6.2949  Y45.7633 
G01 X6.3546  Y45.9473 
G01 X6.3849  Y46.1383 
G01 X6.3849  Y46.3317 
G01 X6.3546  Y46.5227 
G01 X6.2949  Y46.7067 
G01 X6.2071  Y46.8790 
G01 X6.0934  Y47.0354 
G01 X5.9566  Y47.1722 
G01 X5.8002  Y47.2859 
G01 X5.6279  Y47.3737 
G01 X5.4439  Y47.4334 
G01 X5.2529  Y47.4637 
G01 X3.0021  Y47.4637 
G01 X2.8111  Y47.4334 
G01 X2.6271  Y47.3737 
G01 X2.4548  Y47.2859 
G01 X2.2984  Y47.1722 
G01 X2.1616  Y47.0354 
G01 X2.0479  Y46.8790 
G01 X1.9601  Y46.7067 
G01 X1.9004  Y46.5227 
G01 X1.8701  Y46.3317 
G01 X1.8701  Y46.1383 
G01 X1.9004  Y45.9473 
G01 X1.9601  Y45.7633 
G01 X2.0479  Y45.5910 
G01 X2.1616  Y45.4346 
G01 X2.2984  Y45.2978 
G01 X2.4548  Y45.1841 
G01 X2.6271  Y45.0963 
G01 X2.8111  Y45.0366 
G01 X3.0021  Y45.0063 
G01 X5.2529  Y45.0063 
G01 X5.4439  Y45.0366 
G01 X5.6279  Y45.0963 
G01 X5.8002  Y45.1841 
G01 X5.9566  Y45.2978 
G00 Z5.0000  
G00 X9.3252  Y45.3281 
G01 Z-0.0250 F50    
G01 X9.2996  Y45.1667 F50    
G01 X9.2996  Y45.0033 
G01 X9.3252  Y44.8419 
G01 X9.3757  Y44.6865 
G01 X9.4498  Y44.5408 
G01 X9.5459  Y44.4086 
G01 X9.6615  Y44.2931 
G01 X9.7937  Y44.1970 
G01 X9.9393  Y44.1228 
G01 X10.0947 Y44.0723 
G01 X10.2561 Y44.0468 
G01 X12.0959 Y44.0468 
G01 X12.2573 Y44.0723 
G01 X12.4127 Y44.1228 
G01 X12.5583 Y44.1970 
G01 X12.6905 Y44.2931 
G01 X12.8061 Y44.4086 
G01 X12.9021 Y44.5408 
G01 X12.9763 Y44.6865 
G01 X13.0268 Y44.8419 
G01 X13.0524 Y45.0033 
G01 X13.0524 Y45.1667 
G01 X13.0268 Y45.3281 
G01 X12.9763 Y45.4835 
G01 X12.9021 Y45.6291 
G01 X12.8061 Y45.7613 
G01 X12.6905 Y45.8769 
G01 X12.5583 Y45.9729 
G01 X12.4127 Y46.0471 
G01 X12.2573 Y46.0976 
G01 X12.0959 Y46.1232 
G01 X10.2561 Y46.1232 
G01 X10.0947 Y46.0976 
G01 X9.9393  Y46.0471 
G01 X9.7937  Y45.9729 
G01 X9.6615  Y45.8769 
G01 X9.5459  Y45.7613 
G01 X9.4498  Y45.6291 
G01 X9.3757  Y45.4835 
G01 X9.3252  Y45.3281 
G00 Z5.0000  
G00 X9.5459  Y47.3115 
G01 Z-0.0250 F50    
G01 X9.6615  Y47.1959 F50    
G01 X9.7937  Y47.0999 
G01 X9.9393  Y47.0257 
G01 X10.0947 Y46.9752 
G01 X10.2561 Y46.9496 
G01 X12.0959 Y46.9496 
G01 X12.2573 Y46.9752 
G01 X12.4127 Y47.0257 
G01 X12.5583 Y47.0999 
G01 X12.6905 Y47.1959 
G01 X12.8061 Y47.3115 
G01 X12.9021 Y47.4437 
G01 X12.9763 Y47.5893 
G01 X13.0268 Y47.7447 
G01 X13.0524 Y47.9061 
G01 X13.0524 Y48.0696 
G01 X13.0268 Y48.2310 
G01 X12.9763 Y48.3864 
G01 X12.9021 Y48.5320 
G01 X12.8061 Y48.6642 
G01 X12.6905 Y48.7797 
G01 X12.5583 Y48.8758 
G01 X12.4127 Y48.9500 
G01 X12.2573 Y49.0005 
G01 X12.0959 Y49.0260 
G01 X10.2561 Y49.0260 
G01 X10.0947 Y49.0005 
G01 X9.9393  Y48.9500 
G01 X9.7937  Y48.8758 
G01 X9.6615  Y48.7797 
G01 X9.5459  Y48.6642 
G01 X9.4498  Y48.5320 
G01 X9.3757  Y48.3864 
G01 X9.3252  Y48.2310 
G01 X9.2996  Y48.0696 
G01 X9.2996  Y47.9061 
G01 X9.3252  Y47.7447 
G01 X9.3757  Y47.5893 
G01 X9.4498  Y47.4437 
G01 X9.5459  Y47.3115 
G00 Z5.0000  
G00 X9.5459  Y51.7747 
G01 Z-0.0250 F50    
G01 X9.6615  Y51.6591 F50    
G01 X9.7937  Y51.5630 
G01 X9.9393  Y51.4889 
G01 X10.0947 Y51.4384 
G01 X10.2561 Y51.4128 
G01 X12.0959 Y51.4128 
G01 X12.2573 Y51.4384 
G01 X12.4127 Y51.4889 
G01 X12.5583 Y51.5630 
G01 X12.6905 Y51.6591 
G01 X12.8061 Y51.7747 
G01 X12.9021 Y51.9069 
G01 X12.9763 Y52.0525 
G01 X13.0268 Y52.2079 
G01 X13.0524 Y52.3693 
G01 X13.0524 Y52.5327 
G01 X13.0268 Y52.6941 
G01 X12.9763 Y52.8495 
G01 X12.9021 Y52.9951 
G01 X12.8061 Y53.1273 
G01 X12.6905 Y53.2429 
G01 X12.5583 Y53.3389 
G01 X12.4127 Y53.4131 
G01 X12.2573 Y53.4636 
G01 X12.0959 Y53.4892 
G01 X10.2561 Y53.4892 
G01 X10.0947 Y53.4636 
G01 X9.9393  Y53.4131 
G01 X9.7937  Y53.3389 
G01 X9.6615  Y53.2429 
G01 X9.5459  Y53.1273 
G01 X9.4498  Y52.9951 
G01 X9.3757  Y52.8495 
G01 X9.3252  Y52.6941 
G01 X9.2996  Y52.5327 
G01 X9.2996  Y52.3693 
G01 X9.3252  Y52.2079 
G01 X9.3757  Y52.0525 
G01 X9.4498  Y51.9069 
G01 X9.5459  Y51.7747 
G00 Z5.0000  
G00 X9.5459  Y54.8227 
G01 Z-0.0250 F50    
G01 X9.6615  Y54.7071 F50    
G01 X9.7937  Y54.6110 
G01 X9.9393  Y54.5369 
G01 X10.0947 Y54.4864 
G01 X10.2561 Y54.4608 
G01 X12.0959 Y54.4608 
G01 X12.2573 Y54.4864 
G01 X12.4127 Y54.5369 
G01 X12.5583 Y54.6110 
G01 X12.6905 Y54.7071 
G01 X12.8061 Y54.8227 
G01 X12.9021 Y54.9549 
G01 X12.9763 Y55.1005 
G01 X13.0268 Y55.2559 
G01 X13.0524 Y55.4173 
G01 X13.0524 Y55.5807 
G01 X13.0268 Y55.7421 
G01 X12.9763 Y55.8975 
G01 X12.9021 Y56.0431 
G01 X12.8061 Y56.1753 
G01 X12.6905 Y56.2909 
G01 X12.5583 Y56.3869 
G01 X12.4127 Y56.4611 
G01 X12.2573 Y56.5116 
G01 X12.0959 Y56.5372 
G01 X10.2561 Y56.5372 
G01 X10.0947 Y56.5116 
G01 X9.9393  Y56.4611 
G01 X9.7937  Y56.3869 
G01 X9.6615  Y56.2909 
G01 X9.5459  Y56.1753 
G01 X9.4498  Y56.0431 
G01 X9.3757  Y55.8975 
G01 X9.3252  Y55.7421 
G01 X9.2996  Y55.5807 
G01 X9.2996  Y55.4173 
G01 X9.3252  Y55.2559 
G01 X9.3757  Y55.1005 
G01 X9.4498  Y54.9549 
G01 X9.5459  Y54.8227 
G00 Z5.0000  
G00 X6.4306  Y54.8233 
G01 Z-0.0250 F50    
G01 X6.4609  Y55.0143 F50    
G01 X6.4609  Y55.2077 
G01 X6.4306  Y55.3987 
G01 X6.3709  Y55.5827 
G01 X6.2831  Y55.7550 
G01 X6.1694  Y55.9114 
G01 X6.0326  Y56.0482 
G01 X5.8762  Y56.1619 
G01 X5.7039  Y56.2497 
G01 X5.5199  Y56.3094 
G01 X5.3289  Y56.3397 
G01 X3.0781  Y56.3397 
G01 X2.8871  Y56.3094 
G01 X2.7031  Y56.2497 
G01 X2.5308  Y56.1619 
G01 X2.3744  Y56.0482 
G01 X2.2376  Y55.9114 
G01 X2.1239  Y55.7550 
G01 X2.0361  Y55.5827 
G01 X1.9764  Y55.3987 
G01 X1.9461  Y55.2077 
G01 X1.9461  Y55.0143 
G01 X1.9764  Y54.8233 
G01 X2.0361  Y54.6393 
G01 X2.1239  Y54.4670 
G01 X2.2376  Y54.3106 
G01 X2.3744  Y54.1738 
G01 X2.5308  Y54.0601 
G01 X2.7031  Y53.9723 
G01 X2.8871  Y53.9126 
G01 X3.0781  Y53.8823 
G01 X5.3289  Y53.8823 
G01 X5.5199  Y53.9126 
G01 X5.7039  Y53.9723 
G01 X5.8762  Y54.0601 
G01 X6.0326  Y54.1738 
G01 X6.1694  Y54.3106 
G01 X6.2831  Y54.4670 
G01 X6.3709  Y54.6393 
G01 X6.4306  Y54.8233 
G00 Z5.0000  
G00 X6.0326  Y59.1738 
G01 Z-0.0250 F50    
G01 X6.1694  Y59.3106 F50    
G01 X6.2831  Y59.4670 
G01 X6.3709  Y59.6393 
G01 X6.4306  Y59.8233 
G01 X6.4609  Y60.0143 
G01 X6.4609  Y60.2077 
G01 X6.4306  Y60.3987 
G01 X6.3709  Y60.5827 
G01 X6.2831  Y60.7550 
G01 X6.1694  Y60.9114 
G01 X6.0326  Y61.0482 
G01 X5.8762  Y61.1619 
G01 X5.7039  Y61.2497 
G01 X5.5199  Y61.3094 
G01 X5.3289  Y61.3397 
G01 X3.0781  Y61.3397 
G01 X2.8871  Y61.3094 
G01 X2.7031  Y61.2497 
G01 X2.5308  Y61.1619 
G01 X2.3744  Y61.0482 
G01 X2.2376  Y60.9114 
G01 X2.1239  Y60.7550 
G01 X2.0361  Y60.5827 
G01 X1.9764  Y60.3987 
G01 X1.9461  Y60.2077 
G01 X1.9461  Y60.0143 
G01 X1.9764  Y59.8233 
G01 X2.0361  Y59.6393 
G01 X2.1239  Y59.4670 
G01 X2.2376  Y59.3106 
G01 X2.3744  Y59.1738 
G01 X2.5308  Y59.0601 
G01 X2.7031  Y58.9723 
G01 X2.8871  Y58.9126 
G01 X3.0781  Y58.8823 
G01 X5.3289  Y58.8823 
G01 X5.5199  Y58.9126 
G01 X5.7039  Y58.9723 
G01 X5.8762  Y59.0601 
G01 X6.0326  Y59.1738 
G00 Z5.0000  
G00 X6.0326  Y64.1738 
G01 Z-0.0250 F50    
G01 X6.1694  Y64.3106 F50    
G01 X6.2831  Y64.4670 
G01 X6.3709  Y64.6393 
G01 X6.4306  Y64.8233 
G01 X6.4609  Y65.0143 
G01 X6.4609  Y65.2077 
G01 X6.4306  Y65.3987 
G01 X6.3709  Y65.5827 
G01 X6.2831  Y65.7550 
G01 X6.1694  Y65.9114 
G01 X6.0326  Y66.0482 
G01 X5.8762  Y66.1619 
G01 X5.7039  Y66.2497 
G01 X5.5199  Y66.3094 
G01 X5.3289  Y66.3397 
G01 X3.0781  Y66.3397 
G01 X2.8871  Y66.3094 
G01 X2.7031  Y66.2497 
G01 X2.5308  Y66.1619 
G01 X2.3744  Y66.0482 
G01 X2.2376  Y65.9114 
G01 X2.1239  Y65.7550 
G01 X2.0361  Y65.5827 
G01 X1.9764  Y65.3987 
G01 X1.9461  Y65.2077 
G01 X1.9461  Y65.0143 
G01 X1.9764  Y64.8233 
G01 X2.0361  Y64.6393 
G01 X2.1239  Y64.4670 
G01 X2.2376  Y64.3106 
G01 X2.3744  Y64.1738 
G01 X2.5308  Y64.0601 
G01 X2.7031  Y63.9723 
G01 X2.8871  Y63.9126 
G01 X3.0781  Y63.8823 
G01 X5.3289  Y63.8823 
G01 X5.5199  Y63.9126 
G01 X5.7039  Y63.9723 
G01 X5.8762  Y64.0601 
G01 X6.0326  Y64.1738 
G00 Z5.0000  
G00 X6.0326  Y69.1738 
G01 Z-0.0250 F50    
G01 X6.1694  Y69.3106 F50    
G01 X6.2831  Y69.4670 
G01 X6.3709  Y69.6393 
G01 X6.4306  Y69.8233 
G01 X6.4609  Y70.0143 
G01 X6.4609  Y70.2077 
G01 X6.4306  Y70.3987 
G01 X6.3709  Y70.5827 
G01 X6.2831  Y70.7550 
G01 X6.1694  Y70.9114 
G01 X6.0326  Y71.0482 
G01 X5.8762  Y71.1619 
G01 X5.7039  Y71.2497 
G01 X5.5199  Y71.3094 
G01 X5.3289  Y71.3397 
G01 X3.0781  Y71.3397 
G01 X2.8871  Y71.3094 
G01 X2.7031  Y71.2497 
G01 X2.5308  Y71.1619 
G01 X2.3744  Y71.0482 
G01 X2.2376  Y70.9114 
G01 X2.1239  Y70.7550 
G01 X2.0361  Y70.5827 
G01 X1.9764  Y70.3987 
G01 X1.9461  Y70.2077 
G01 X1.9461  Y70.0143 
G01 X1.9764  Y69.8233 
G01 X2.0361  Y69.6393 
G01 X2.1239  Y69.4670 
G01 X2.2376  Y69.3106 
G01 X2.3744  Y69.1738 
G01 X2.5308  Y69.0601 
G01 X2.7031  Y68.9723 
G01 X2.8871  Y68.9126 
G01 X3.0781  Y68.8823 
G01 X5.3289  Y68.8823 
G01 X5.5199  Y68.9126 
G01 X5.7039  Y68.9723 
G01 X5.8762  Y69.0601 
G01 X6.0326  Y69.1738 
G00 Z5.0000  
G00 X9.9155  Y69.1179 
G01 Z-0.0250 F50    
G01 X9.7999  Y69.0023 F50    
G01 X9.7038  Y68.8701 
G01 X9.6297  Y68.7245 
G01 X9.5792  Y68.5691 
G01 X9.5536  Y68.4077 
G01 X9.5536  Y68.2443 
G01 X9.5792  Y68.0829 
G01 X9.6297  Y67.9275 
G01 X9.7038  Y67.7819 
G01 X9.7999  Y67.6497 
G01 X9.9155  Y67.5341 
G01 X10.0477 Y67.4381 
G01 X10.1933 Y67.3639 
G01 X10.3487 Y67.3134 
G01 X10.5101 Y67.2878 
G01 X12.3499 Y67.2878 
G01 X12.5113 Y67.3134 
G01 X12.6667 Y67.3639 
G01 X12.8123 Y67.4381 
G01 X12.9445 Y67.5341 
G01 X13.0601 Y67.6497 
G01 X13.1561 Y67.7819 
G01 X13.2303 Y67.9275 
G01 X13.2808 Y68.0829 
G01 X13.3064 Y68.2443 
G01 X13.3064 Y68.4077 
G01 X13.2808 Y68.5691 
G01 X13.2303 Y68.7245 
G01 X13.1561 Y68.8701 
G01 X13.0601 Y69.0023 
G01 X12.9445 Y69.1179 
G01 X12.8123 Y69.2139 
G01 X12.6667 Y69.2881 
G01 X12.5113 Y69.3386 
G01 X12.3499 Y69.3642 
G01 X10.5101 Y69.3642 
G01 X10.3487 Y69.3386 
G01 X10.1933 Y69.2881 
G01 X10.0477 Y69.2139 
G01 X9.9155  Y69.1179 
G00 Z5.0000  
G00 X9.9155  Y70.8361 
G01 Z-0.0250 F50    
G01 X10.0477 Y70.7400 F50    
G01 X10.1933 Y70.6659 
G01 X10.3487 Y70.6154 
G01 X10.5101 Y70.5898 
G01 X12.3499 Y70.5898 
G01 X12.5113 Y70.6154 
G01 X12.6667 Y70.6659 
G01 X12.8123 Y70.7400 
G01 X12.9445 Y70.8361 
G01 X13.0601 Y70.9517 
G01 X13.1561 Y71.0839 
G01 X13.2303 Y71.2295 
G01 X13.2808 Y71.3849 
G01 X13.3064 Y71.5463 
G01 X13.3064 Y71.7097 
G01 X13.2808 Y71.8711 
G01 X13.2303 Y72.0265 
G01 X13.1561 Y72.1721 
G01 X13.0601 Y72.3043 
G01 X12.9445 Y72.4199 
G01 X12.8123 Y72.5159 
G01 X12.6667 Y72.5901 
G01 X12.5113 Y72.6406 
G01 X12.3499 Y72.6662 
G01 X10.5101 Y72.6662 
G01 X10.3487 Y72.6406 
G01 X10.1933 Y72.5901 
G01 X10.0477 Y72.5159 
G01 X9.9155  Y72.4199 
G01 X9.7999  Y72.3043 
G01 X9.7038  Y72.1721 
G01 X9.6297  Y72.0265 
G01 X9.5792  Y71.8711 
G01 X9.5536  Y71.7097 
G01 X9.5536  Y71.5463 
G01 X9.5792  Y71.3849 
G01 X9.6297  Y71.2295 
G01 X9.7038  Y71.0839 
G01 X9.7999  Y70.9517 
G01 X9.9155  Y70.8361 
G00 Z5.0000  
G00 X17.4199 Y70.9517 
G01 Z-0.0250 F50    
G01 X17.5355 Y70.8361 F50    
G01 X17.6677 Y70.7400 
G01 X17.8133 Y70.6659 
G01 X17.9687 Y70.6154 
G01 X18.1301 Y70.5898 
G01 X19.9699 Y70.5898 
G01 X20.1313 Y70.6154 
G01 X20.2867 Y70.6659 
G01 X21.4505 Y70.6780 
G01 X22.1640 Y69.9645 
G01 X22.1640 Y66.6875 
G01 X18.0581 Y62.5816 
G01 X17.9541 Y62.4260 
G01 X17.8825 Y62.2531 
G01 X17.8460 Y62.0696 
G01 X17.8460 Y56.5324 
G01 X17.7147 Y56.5116 
G01 X17.5593 Y56.4611 
G01 X17.4137 Y56.3869 
G01 X17.2815 Y56.2909 
G01 X17.1659 Y56.1753 
G01 X17.0698 Y56.0431 
G01 X16.9957 Y55.8975 
G01 X16.9452 Y55.7421 
G01 X16.9196 Y55.5807 
G01 X16.9196 Y55.4173 
G01 X16.9452 Y55.2559 
G01 X16.9957 Y55.1005 
G01 X17.0698 Y54.9549 
G01 X17.1659 Y54.8227 
G01 X17.2815 Y54.7071 
G01 X17.4137 Y54.6110 
G01 X17.5593 Y54.5369 
G01 X17.7147 Y54.4864 
G01 X17.8761 Y54.4608 
G01 X19.7159 Y54.4608 
G01 X19.8773 Y54.4864 
G01 X20.0327 Y54.5369 
G01 X20.1783 Y54.6110 
G01 X20.3105 Y54.7071 
G01 X20.4261 Y54.8227 
G01 X20.5221 Y54.9549 
G01 X20.5963 Y55.1005 
G01 X20.6468 Y55.2559 
G01 X20.6724 Y55.4173 
G01 X20.6724 Y55.5807 
G01 X20.6468 Y55.7421 
G01 X20.5963 Y55.8975 
G01 X20.5221 Y56.0431 
G01 X20.4261 Y56.1753 
G01 X20.3105 Y56.2909 
G01 X20.1783 Y56.3869 
G01 X20.0327 Y56.4611 
G01 X19.8773 Y56.5116 
G01 X19.7460 Y56.5324 
G01 X19.7460 Y61.5825 
G01 X23.8519 Y65.6884 
G01 X23.9559 Y65.8440 
G01 X24.0275 Y66.0169 
G01 X24.0640 Y66.2004 
G01 X24.0640 Y70.4516 
G01 X24.0275 Y70.6351 
G01 X23.9559 Y70.8080 
G01 X23.8519 Y70.9636 
G01 X22.4496 Y72.3659 
G01 X22.2940 Y72.4699 
G01 X22.1211 Y72.5415 
G01 X21.9376 Y72.5780 
G01 X20.3105 Y72.5780 
G01 X20.1313 Y72.6406 
G01 X19.9699 Y72.6662 
G01 X18.1301 Y72.6662 
G01 X17.9687 Y72.6406 
G01 X17.8133 Y72.5901 
G01 X17.6677 Y72.5159 
G01 X17.5355 Y72.4199 
G01 X17.4199 Y72.3043 
G01 X17.3239 Y72.1721 
G01 X17.2497 Y72.0265 
G01 X17.1992 Y71.8711 
G01 X17.1736 Y71.7097 
G01 X17.1736 Y71.5463 
G01 X17.1992 Y71.3849 
G01 X17.2497 Y71.2295 
G01 X17.3239 Y71.0839 
G01 X17.4199 Y70.9517 
G00 Z5.0000  
G00 X17.5355 Y69.1179 
G01 Z-0.0250 F50    
G01 X17.4199 Y69.0023 F50    
G01 X17.3239 Y68.8701 
G01 X17.2497 Y68.7245 
G01 X17.1992 Y68.5691 
G01 X17.1736 Y68.4077 
G01 X17.1736 Y68.2443 
G01 X17.1992 Y68.0829 
G01 X17.2497 Y67.9275 
G01 X17.2693 Y67.8888 
G01 X13.7401 Y64.3596 
G01 X13.6361 Y64.2040 
G01 X13.5645 Y64.0311 
G01 X13.5280 Y63.8476 
G01 X13.5280 Y54.2624 
G01 X13.5645 Y54.0789 
G01 X13.6361 Y53.9060 
G01 X13.7401 Y53.7504 
G01 X13.8724 Y53.6181 
G01 X15.6451 Y51.8454 
G01 X15.7774 Y51.7131 
G01 X15.9330 Y51.6091 
G01 X16.1059 Y51.5375 
G01 X16.2894 Y51.5010 
G01 X17.5354 Y51.5010 
G01 X17.7147 Y51.4384 
G01 X17.8761 Y51.4128 
G01 X19.7159 Y51.4128 
G01 X19.8773 Y51.4384 
G01 X20.0327 Y51.4889 
G01 X20.1783 Y51.5630 
G01 X20.3105 Y51.6591 
G01 X20.4261 Y51.7747 
G01 X20.5221 Y51.9069 
G01 X20.5963 Y52.0525 
G01 X20.6468 Y52.2079 
G01 X20.6724 Y52.3693 
G01 X20.6724 Y52.5327 
G01 X20.6468 Y52.6941 
G01 X20.5963 Y52.8495 
G01 X20.5221 Y52.9951 
G01 X20.4261 Y53.1273 
G01 X20.3105 Y53.2429 
G01 X20.1783 Y53.3389 
G01 X20.0327 Y53.4131 
G01 X19.8773 Y53.4636 
G01 X19.7159 Y53.4892 
G01 X17.8761 Y53.4892 
G01 X17.7147 Y53.4636 
G01 X17.5593 Y53.4131 
G01 X16.7765 Y53.4010 
G01 X15.4280 Y54.7495 
G01 X15.4280 Y63.3605 
G01 X19.3553 Y67.2878 
G01 X19.9699 Y67.2878 
G01 X20.1313 Y67.3134 
G01 X20.2867 Y67.3639 
G01 X20.4323 Y67.4381 
G01 X20.5645 Y67.5341 
G01 X20.6801 Y67.6497 
G01 X20.7761 Y67.7819 
G01 X20.8503 Y67.9275 
G01 X20.9008 Y68.0829 
G01 X20.9264 Y68.2443 
G01 X20.9264 Y68.4077 
G01 X20.9008 Y68.5691 
G01 X20.8503 Y68.7245 
G01 X20.7761 Y68.8701 
G01 X20.6801 Y69.0023 
G01 X20.5645 Y69.1179 
G01 X20.4323 Y69.2139 
G01 X20.2867 Y69.2881 
G01 X20.1313 Y69.3386 
G01 X19.9699 Y69.3642 
G01 X18.1301 Y69.3642 
G01 X17.9687 Y69.3386 
G01 X17.8133 Y69.2881 
G01 X17.6677 Y69.2139 
G01 X17.5355 Y69.1179 
G00 Z5.0000  
G00 X18.8906 Y74.1430 
G01 Z-0.0250 F50    
G01 X19.0250 Y74.0086 F50    
G01 X19.1789 Y73.8968 
G01 X19.3483 Y73.8105 
G01 X19.5291 Y73.7517 
G01 X19.7169 Y73.7220 
G01 X19.9071 Y73.7220 
G01 X20.0949 Y73.7517 
G01 X20.2757 Y73.8105 
G01 X20.4451 Y73.8968 
G01 X20.5990 Y74.0086 
G01 X20.7334 Y74.1430 
G01 X20.7966 Y74.2300 
G01 X42.4869 Y74.2300 
G01 X42.6222 Y74.2569 
G01 X42.7496 Y74.3097 
G01 X42.8642 Y74.3863 
G01 X45.2162 Y76.7382 
G01 X46.7298 Y76.7382 
G01 X47.0680 Y76.4000 
G01 X47.9280 Y76.4000 
G01 X48.5362 Y77.0082 
G01 X48.5362 Y77.8683 
G01 X47.9280 Y78.4764 
G01 X47.0680 Y78.4764 
G01 X46.7298 Y78.1382 
G01 X44.8573 Y78.1382 
G01 X44.7221 Y78.1113 
G01 X44.5947 Y78.0586 
G01 X44.4800 Y77.9820 
G01 X42.1281 Y75.6300 
G01 X20.7966 Y75.6300 
G01 X20.7334 Y75.7170 
G01 X20.5990 Y75.8514 
G01 X20.4451 Y75.9632 
G01 X20.2757 Y76.0495 
G01 X20.0949 Y76.1083 
G01 X19.9071 Y76.1380 
G01 X19.7169 Y76.1380 
G01 X19.5291 Y76.1083 
G01 X19.3483 Y76.0495 
G01 X19.1789 Y75.9632 
G01 X19.0250 Y75.8514 
G01 X18.8906 Y75.7170 
G01 X18.7788 Y75.5631 
G01 X18.6925 Y75.3937 
G01 X18.6337 Y75.2129 
G01 X18.6040 Y75.0251 
G01 X18.6040 Y74.8349 
G01 X18.6337 Y74.6471 
G01 X18.6925 Y74.4663 
G01 X18.7788 Y74.2969 
G01 X18.8906 Y74.1430 
G00 Z5.0000  
G00 X23.2328 Y78.3079 
G01 Z-0.0250 F50    
G01 X23.3696 Y78.1711 F50    
G01 X23.5260 Y78.0574 
G01 X23.6983 Y77.9696 
G01 X23.8823 Y77.9099 
G01 X24.0733 Y77.8796 
G01 X24.2667 Y77.8796 
G01 X24.4577 Y77.9099 
G01 X24.6417 Y77.9696 
G01 X24.8140 Y78.0574 
G01 X24.9704 Y78.1711 
G01 X25.1072 Y78.3079 
G01 X25.2209 Y78.4643 
G01 X25.3087 Y78.6366 
G01 X25.3684 Y78.8206 
G01 X25.3987 Y79.0116 
G01 X25.3987 Y81.2624 
G01 X25.3684 Y81.4534 
G01 X25.3087 Y81.6374 
G01 X25.2209 Y81.8097 
G01 X25.1072 Y81.9661 
G01 X24.9704 Y82.1029 
G01 X24.8140 Y82.2166 
G01 X24.6417 Y82.3044 
G01 X24.4577 Y82.3641 
G01 X24.2667 Y82.3944 
G01 X24.0733 Y82.3944 
G01 X23.8823 Y82.3641 
G01 X23.6983 Y82.3044 
G01 X23.5260 Y82.2166 
G01 X23.3696 Y82.1029 
G01 X23.2328 Y81.9661 
G01 X23.1191 Y81.8097 
G01 X23.0313 Y81.6374 
G01 X22.9716 Y81.4534 
G01 X22.9413 Y81.2624 
G01 X22.9413 Y79.0116 
G01 X22.9716 Y78.8206 
G01 X23.0313 Y78.6366 
G01 X23.1191 Y78.4643 
G01 X23.2328 Y78.3079 
G00 Z5.0000  
G00 X28.2328 Y78.3079 
G01 Z-0.0250 F50    
G01 X28.3696 Y78.1711 F50    
G01 X28.5260 Y78.0574 
G01 X28.6983 Y77.9696 
G01 X28.8823 Y77.9099 
G01 X29.0733 Y77.8796 
G01 X29.2667 Y77.8796 
G01 X29.4577 Y77.9099 
G01 X29.6417 Y77.9696 
G01 X29.8140 Y78.0574 
G01 X29.9704 Y78.1711 
G01 X30.1072 Y78.3079 
G01 X30.2209 Y78.4643 
G01 X30.3087 Y78.6366 
G01 X30.3684 Y78.8206 
G01 X30.3987 Y79.0116 
G01 X30.3987 Y81.2624 
G01 X30.3684 Y81.4534 
G01 X30.3087 Y81.6374 
G01 X30.2209 Y81.8097 
G01 X30.1072 Y81.9661 
G01 X29.9704 Y82.1029 
G01 X29.8140 Y82.2166 
G01 X29.6417 Y82.3044 
G01 X29.4577 Y82.3641 
G01 X29.2667 Y82.3944 
G01 X29.0733 Y82.3944 
G01 X28.8823 Y82.3641 
G01 X28.6983 Y82.3044 
G01 X28.5260 Y82.2166 
G01 X28.3696 Y82.1029 
G01 X28.2328 Y81.9661 
G01 X28.1191 Y81.8097 
G01 X28.0313 Y81.6374 
G01 X27.9716 Y81.4534 
G01 X27.9413 Y81.2624 
G01 X27.9413 Y79.0116 
G01 X27.9716 Y78.8206 
G01 X28.0313 Y78.6366 
G01 X28.1191 Y78.4643 
G01 X28.2328 Y78.3079 
G00 Z5.0000  
G00 X28.3520 Y71.5977 
G01 Z-0.0250 F50    
G01 X28.2052 Y71.4911 F50    
G01 X28.0769 Y71.3628 
G01 X27.9703 Y71.2160 
G01 X27.8879 Y71.0544 
G01 X27.8319 Y70.8819 
G01 X27.8035 Y70.7027 
G01 X27.8035 Y70.5213 
G01 X27.8319 Y70.3421 
G01 X27.8879 Y70.1696 
G01 X27.9703 Y70.0080 
G01 X28.0769 Y69.8612 
G01 X28.2052 Y69.7329 
G01 X28.3520 Y69.6263 
G01 X28.5136 Y69.5439 
G01 X28.6861 Y69.4879 
G01 X28.8653 Y69.4595 
G01 X29.0467 Y69.4595 
G01 X29.2259 Y69.4879 
G01 X29.3984 Y69.5439 
G01 X29.5600 Y69.6263 
G01 X29.7068 Y69.7329 
G01 X29.8351 Y69.8612 
G01 X29.9417 Y70.0080 
G01 X30.0241 Y70.1696 
G01 X30.0801 Y70.3421 
G01 X30.1085 Y70.5213 
G01 X30.1085 Y70.7027 
G01 X30.0801 Y70.8819 
G01 X30.0241 Y71.0544 
G01 X29.9417 Y71.2160 
G01 X29.8351 Y71.3628 
G01 X29.7068 Y71.4911 
G01 X29.5600 Y71.5977 
G01 X29.3984 Y71.6801 
G01 X29.2259 Y71.7361 
G01 X29.0467 Y71.7645 
G01 X28.8653 Y71.7645 
G01 X28.6861 Y71.7361 
G01 X28.5136 Y71.6801 
G01 X28.3520 Y71.5977 
G00 Z5.0000  
G00 X28.3520 Y69.0577 
G01 Z-0.0250 F50    
G01 X28.2052 Y68.9511 F50    
G01 X28.0769 Y68.8228 
G01 X27.9703 Y68.6760 
G01 X27.8879 Y68.5144 
G01 X27.8319 Y68.3419 
G01 X27.8035 Y68.1627 
G01 X27.8035 Y67.9813 
G01 X27.8319 Y67.8021 
G01 X27.8879 Y67.6296 
G01 X27.9703 Y67.4680 
G01 X28.0769 Y67.3212 
G01 X28.2052 Y67.1929 
G01 X28.3520 Y67.0863 
G01 X28.5136 Y67.0039 
G01 X28.6861 Y66.9479 
G01 X28.8653 Y66.9195 
G01 X29.0467 Y66.9195 
G01 X29.2259 Y66.9479 
G01 X29.3984 Y67.0039 
G01 X29.5600 Y67.0863 
G01 X29.7068 Y67.1929 
G01 X29.8351 Y67.3212 
G01 X29.9417 Y67.4680 
G01 X30.0241 Y67.6296 
G01 X30.0801 Y67.8021 
G01 X30.1085 Y67.9813 
G01 X30.1085 Y68.1627 
G01 X30.0801 Y68.3419 
G01 X30.0241 Y68.5144 
G01 X29.9417 Y68.6760 
G01 X29.8351 Y68.8228 
G01 X29.7068 Y68.9511 
G01 X29.5600 Y69.0577 
G01 X29.3984 Y69.1401 
G01 X29.2259 Y69.1961 
G01 X29.0467 Y69.2245 
G01 X28.8653 Y69.2245 
G01 X28.6861 Y69.1961 
G01 X28.5136 Y69.1401 
G01 X28.3520 Y69.0577 
G00 Z5.0000  
G00 X28.3520 Y66.5177 
G01 Z-0.0250 F50    
G01 X28.2052 Y66.4111 F50    
G01 X28.0769 Y66.2828 
G01 X27.9703 Y66.1360 
G01 X27.8879 Y65.9744 
G01 X27.8319 Y65.8019 
G01 X27.8035 Y65.6227 
G01 X27.8035 Y65.4413 
G01 X27.8319 Y65.2621 
G01 X27.8879 Y65.0896 
G01 X27.9703 Y64.9280 
G01 X28.0769 Y64.7812 
G01 X28.2052 Y64.6529 
G01 X28.3520 Y64.5463 
G01 X28.5136 Y64.4639 
G01 X28.6861 Y64.4079 
G01 X28.8653 Y64.3795 
G01 X29.0467 Y64.3795 
G01 X29.2259 Y64.4079 
G01 X29.3984 Y64.4639 
G01 X29.5600 Y64.5463 
G01 X29.7068 Y64.6529 
G01 X29.8351 Y64.7812 
G01 X29.9417 Y64.9280 
G01 X30.0241 Y65.0896 
G01 X30.0801 Y65.2621 
G01 X30.1085 Y65.4413 
G01 X30.1085 Y65.6227 
G01 X30.0801 Y65.8019 
G01 X30.0241 Y65.9744 
G01 X29.9417 Y66.1360 
G01 X29.8351 Y66.2828 
G01 X29.7068 Y66.4111 
G01 X29.5600 Y66.5177 
G01 X29.3984 Y66.6001 
G01 X29.2259 Y66.6561 
G01 X29.0467 Y66.6845 
G01 X28.8653 Y66.6845 
G01 X28.6861 Y66.6561 
G01 X28.5136 Y66.6001 
G01 X28.3520 Y66.5177 
G00 Z5.0000  
G00 X28.3520 Y63.9777 
G01 Z-0.0250 F50    
G01 X28.2052 Y63.8711 F50    
G01 X28.0769 Y63.7428 
G01 X27.9703 Y63.5960 
G01 X27.8879 Y63.4344 
G01 X27.8319 Y63.2619 
G01 X27.8035 Y63.0827 
G01 X27.8035 Y62.9013 
G01 X27.8319 Y62.7221 
G01 X27.8879 Y62.5496 
G01 X27.9703 Y62.3880 
G01 X28.0769 Y62.2412 
G01 X28.2052 Y62.1129 
G01 X28.3520 Y62.0063 
G01 X28.5136 Y61.9239 
G01 X28.6861 Y61.8679 
G01 X28.8653 Y61.8395 
G01 X29.0467 Y61.8395 
G01 X29.2259 Y61.8679 
G01 X29.3984 Y61.9239 
G01 X29.5600 Y62.0063 
G01 X29.7068 Y62.1129 
G01 X29.8351 Y62.2412 
G01 X29.9417 Y62.3880 
G01 X30.0241 Y62.5496 
G01 X30.0801 Y62.7221 
G01 X30.1085 Y62.9013 
G01 X30.1085 Y63.0827 
G01 X30.0801 Y63.2619 
G01 X30.0241 Y63.4344 
G01 X29.9417 Y63.5960 
G01 X29.8351 Y63.7428 
G01 X29.7068 Y63.8711 
G01 X29.5600 Y63.9777 
G01 X29.3984 Y64.0601 
G01 X29.2259 Y64.1161 
G01 X29.0467 Y64.1445 
G01 X28.8653 Y64.1445 
G01 X28.6861 Y64.1161 
G01 X28.5136 Y64.0601 
G01 X28.3520 Y63.9777 
G00 Z5.0000  
G00 X28.3520 Y61.4377 
G01 Z-0.0250 F50    
G01 X28.2052 Y61.3311 F50    
G01 X28.0769 Y61.2028 
G01 X27.9703 Y61.0560 
G01 X27.8879 Y60.8944 
G01 X27.8319 Y60.7219 
G01 X27.8035 Y60.5427 
G01 X27.8035 Y60.3613 
G01 X27.8319 Y60.1821 
G01 X27.8879 Y60.0096 
G01 X27.9703 Y59.8480 
G01 X28.0769 Y59.7012 
G01 X28.2052 Y59.5729 
G01 X28.3520 Y59.4663 
G01 X28.5136 Y59.3839 
G01 X28.6861 Y59.3279 
G01 X28.8653 Y59.2995 
G01 X29.0467 Y59.2995 
G01 X29.2259 Y59.3279 
G01 X29.3984 Y59.3839 
G01 X29.5600 Y59.4663 
G01 X29.7068 Y59.5729 
G01 X29.8351 Y59.7012 
G01 X29.9417 Y59.8480 
G01 X30.0241 Y60.0096 
G01 X30.0801 Y60.1821 
G01 X30.1085 Y60.3613 
G01 X30.1085 Y60.5427 
G01 X30.0801 Y60.7219 
G01 X30.0241 Y60.8944 
G01 X29.9417 Y61.0560 
G01 X29.8351 Y61.2028 
G01 X29.7068 Y61.3311 
G01 X29.5600 Y61.4377 
G01 X29.3984 Y61.5201 
G01 X29.2259 Y61.5761 
G01 X29.0467 Y61.6045 
G01 X28.8653 Y61.6045 
G01 X28.6861 Y61.5761 
G01 X28.5136 Y61.5201 
G01 X28.3520 Y61.4377 
G00 Z5.0000  
G00 X26.1842 Y61.3719 
G01 Z-0.0250 F50    
G01 X26.1586 Y61.5333 F50    
G01 X26.1081 Y61.6887 
G01 X26.0339 Y61.8343 
G01 X25.9379 Y61.9665 
G01 X25.8223 Y62.0821 
G01 X25.6901 Y62.1781 
G01 X25.5445 Y62.2523 
G01 X25.3891 Y62.3028 
G01 X25.2277 Y62.3284 
G01 X25.0643 Y62.3284 
G01 X24.9029 Y62.3028 
G01 X24.7475 Y62.2523 
G01 X24.6019 Y62.1781 
G01 X24.4697 Y62.0821 
G01 X24.3541 Y61.9665 
G01 X24.2581 Y61.8343 
G01 X24.1839 Y61.6887 
G01 X24.1334 Y61.5333 
G01 X24.1078 Y61.3719 
G01 X24.1078 Y59.5321 
G01 X24.1334 Y59.3707 
G01 X24.1839 Y59.2153 
G01 X24.2581 Y59.0697 
G01 X24.3541 Y58.9375 
G01 X24.4697 Y58.8219 
G01 X24.6019 Y58.7259 
G01 X24.7475 Y58.6517 
G01 X24.9029 Y58.6012 
G01 X25.0643 Y58.5756 
G01 X25.2277 Y58.5756 
G01 X25.3891 Y58.6012 
G01 X25.5445 Y58.6517 
G01 X25.6901 Y58.7259 
G01 X25.8223 Y58.8219 
G01 X25.9379 Y58.9375 
G01 X26.0339 Y59.0697 
G01 X26.1081 Y59.2153 
G01 X26.1586 Y59.3707 
G01 X26.1842 Y59.5321 
G01 X26.1842 Y61.3719 
G00 Z5.0000  
G00 X23.1362 Y61.3719 
G01 Z-0.0250 F50    
G01 X23.1106 Y61.5333 F50    
G01 X23.0601 Y61.6887 
G01 X22.9859 Y61.8343 
G01 X22.8899 Y61.9665 
G01 X22.7743 Y62.0821 
G01 X22.6421 Y62.1781 
G01 X22.4965 Y62.2523 
G01 X22.3411 Y62.3028 
G01 X22.1797 Y62.3284 
G01 X22.0163 Y62.3284 
G01 X21.8549 Y62.3028 
G01 X21.6995 Y62.2523 
G01 X21.5539 Y62.1781 
G01 X21.4217 Y62.0821 
G01 X21.3061 Y61.9665 
G01 X21.2100 Y61.8343 
G01 X21.1359 Y61.6887 
G01 X21.0854 Y61.5333 
G01 X21.0598 Y61.3719 
G01 X21.0598 Y59.5321 
G01 X21.0854 Y59.3707 
G01 X21.1359 Y59.2153 
G01 X21.2100 Y59.0697 
G01 X21.3061 Y58.9375 
G01 X21.4217 Y58.8219 
G01 X21.5539 Y58.7259 
G01 X21.6995 Y58.6517 
G01 X21.8549 Y58.6012 
G01 X22.0163 Y58.5756 
G01 X22.1797 Y58.5756 
G01 X22.3411 Y58.6012 
G01 X22.4965 Y58.6517 
G01 X22.6421 Y58.7259 
G01 X22.7743 Y58.8219 
G01 X22.8899 Y58.9375 
G01 X22.9859 Y59.0697 
G01 X23.0601 Y59.2153 
G01 X23.1106 Y59.3707 
G01 X23.1362 Y59.5321 
G01 X23.1362 Y61.3719 
G00 Z5.0000  
G00 X22.8899 Y54.3465 
G01 Z-0.0250 F50    
G01 X22.7743 Y54.4621 F50    
G01 X22.6421 Y54.5581 
G01 X22.4965 Y54.6323 
G01 X22.3411 Y54.6828 
G01 X22.1797 Y54.7084 
G01 X22.0163 Y54.7084 
G01 X21.8549 Y54.6828 
G01 X21.6995 Y54.6323 
G01 X21.5539 Y54.5581 
G01 X21.4217 Y54.4621 
G01 X21.3061 Y54.3465 
G01 X21.2100 Y54.2143 
G01 X21.1359 Y54.0687 
G01 X21.0854 Y53.9133 
G01 X21.0598 Y53.7519 
G01 X21.0598 Y51.9121 
G01 X21.0854 Y51.7507 
G01 X21.1359 Y51.5953 
G01 X21.2100 Y51.4497 
G01 X21.3061 Y51.3175 
G01 X21.4217 Y51.2019 
G01 X21.5539 Y51.1058 
G01 X21.6995 Y51.0317 
G01 X21.8549 Y50.9812 
G01 X22.0163 Y50.9556 
G01 X22.1797 Y50.9556 
G01 X22.3411 Y50.9812 
G01 X22.4965 Y51.0317 
G01 X22.6421 Y51.1058 
G01 X22.7743 Y51.2019 
G01 X22.8899 Y51.3175 
G01 X22.9859 Y51.4497 
G01 X23.0601 Y51.5953 
G01 X23.1106 Y51.7507 
G01 X23.1362 Y51.9121 
G01 X23.1362 Y53.7519 
G01 X23.1106 Y53.9133 
G01 X23.0601 Y54.0687 
G01 X22.9859 Y54.2143 
G01 X22.8899 Y54.3465 
G00 Z5.0000  
G00 X24.3541 Y54.3465 
G01 Z-0.0250 F50    
G01 X24.2581 Y54.2143 F50    
G01 X24.1839 Y54.0687 
G01 X24.1334 Y53.9133 
G01 X24.1078 Y53.7519 
G01 X24.1078 Y51.9121 
G01 X24.1334 Y51.7507 
G01 X24.1839 Y51.5953 
G01 X24.2581 Y51.4497 
G01 X24.3541 Y51.3175 
G01 X24.4697 Y51.2019 
G01 X24.6019 Y51.1058 
G01 X24.7475 Y51.0317 
G01 X24.9029 Y50.9812 
G01 X25.0643 Y50.9556 
G01 X25.2277 Y50.9556 
G01 X25.3891 Y50.9812 
G01 X25.5445 Y51.0317 
G01 X25.6901 Y51.1058 
G01 X25.8223 Y51.2019 
G01 X25.9379 Y51.3175 
G01 X26.0339 Y51.4497 
G01 X26.1081 Y51.5953 
G01 X26.1586 Y51.7507 
G01 X26.1842 Y51.9121 
G01 X26.1842 Y53.7519 
G01 X26.1586 Y53.9133 
G01 X26.1081 Y54.0687 
G01 X26.0339 Y54.2143 
G01 X25.9379 Y54.3465 
G01 X25.8223 Y54.4621 
G01 X25.6901 Y54.5581 
G01 X25.5445 Y54.6323 
G01 X25.3891 Y54.6828 
G01 X25.2277 Y54.7084 
G01 X25.0643 Y54.7084 
G01 X24.9029 Y54.6828 
G01 X24.7475 Y54.6323 
G01 X24.6019 Y54.5581 
G01 X24.4697 Y54.4621 
G01 X24.3541 Y54.3465 
G00 Z5.0000  
G00 X28.0769 Y54.6212 
G01 Z-0.0250 F50    
G01 X28.2052 Y54.4929 F50    
G01 X28.3520 Y54.3863 
G01 X28.5136 Y54.3039 
G01 X28.6861 Y54.2479 
G01 X28.8653 Y54.2195 
G01 X29.0467 Y54.2195 
G01 X29.2259 Y54.2479 
G01 X29.3984 Y54.3039 
G01 X29.5600 Y54.3863 
G01 X29.7068 Y54.4929 
G01 X29.8351 Y54.6212 
G01 X29.9417 Y54.7680 
G01 X30.0241 Y54.9296 
G01 X30.0801 Y55.1021 
G01 X30.1085 Y55.2813 
G01 X30.1085 Y55.4627 
G01 X30.0801 Y55.6419 
G01 X30.0241 Y55.8144 
G01 X29.9417 Y55.9760 
G01 X29.8351 Y56.1228 
G01 X29.7068 Y56.2511 
G01 X29.5600 Y56.3577 
G01 X29.3984 Y56.4401 
G01 X29.2259 Y56.4961 
G01 X29.0467 Y56.5245 
G01 X28.8653 Y56.5245 
G01 X28.6861 Y56.4961 
G01 X28.5136 Y56.4401 
G01 X28.3520 Y56.3577 
G01 X28.2052 Y56.2511 
G01 X28.0769 Y56.1228 
G01 X27.9703 Y55.9760 
G01 X27.8879 Y55.8144 
G01 X27.8319 Y55.6419 
G01 X27.8035 Y55.4627 
G01 X27.8035 Y55.2813 
G01 X27.8319 Y55.1021 
G01 X27.8879 Y54.9296 
G01 X27.9703 Y54.7680 
G01 X28.0769 Y54.6212 
G00 Z5.0000  
G00 X28.2052 Y53.7111 
G01 Z-0.0250 F50    
G01 X28.0769 Y53.5828 F50    
G01 X27.9703 Y53.4360 
G01 X27.8879 Y53.2744 
G01 X27.8319 Y53.1019 
G01 X27.8035 Y52.9227 
G01 X27.8035 Y52.7413 
G01 X27.8319 Y52.5621 
G01 X27.8879 Y52.3896 
G01 X27.9703 Y52.2280 
G01 X28.0769 Y52.0812 
G01 X28.2052 Y51.9529 
G01 X28.3520 Y51.8463 
G01 X28.5136 Y51.7639 
G01 X28.6861 Y51.7079 
G01 X28.8653 Y51.6795 
G01 X29.0467 Y51.6795 
G01 X29.2259 Y51.7079 
G01 X29.3984 Y51.7639 
G01 X29.5600 Y51.8463 
G01 X29.7068 Y51.9529 
G01 X29.8351 Y52.0812 
G01 X29.9417 Y52.2280 
G01 X30.0241 Y52.3896 
G01 X30.0801 Y52.5621 
G01 X30.1085 Y52.7413 
G01 X30.1085 Y52.9227 
G01 X30.0801 Y53.1019 
G01 X30.0241 Y53.2744 
G01 X29.9417 Y53.4360 
G01 X29.8351 Y53.5828 
G01 X29.7068 Y53.7111 
G01 X29.5600 Y53.8177 
G01 X29.3984 Y53.9001 
G01 X29.2259 Y53.9561 
G01 X29.0467 Y53.9845 
G01 X28.8653 Y53.9845 
G01 X28.6861 Y53.9561 
G01 X28.5136 Y53.9001 
G01 X28.3520 Y53.8177 
G01 X28.2052 Y53.7111 
G00 Z5.0000  
G00 X31.2121 Y53.8575 
G01 Z-0.0250 F50    
G01 X31.3277 Y53.7419 F50    
G01 X31.4599 Y53.6459 
G01 X31.6055 Y53.5717 
G01 X31.7609 Y53.5212 
G01 X31.9223 Y53.4956 
G01 X32.0857 Y53.4956 
G01 X32.2471 Y53.5212 
G01 X32.4025 Y53.5717 
G01 X32.5481 Y53.6459 
G01 X32.6803 Y53.7419 
G01 X32.7959 Y53.8575 
G01 X32.8919 Y53.9897 
G01 X32.9661 Y54.1353 
G01 X33.0166 Y54.2907 
G01 X33.0422 Y54.4521 
G01 X33.0422 Y56.2919 
G01 X33.0166 Y56.4533 
G01 X32.9661 Y56.6087 
G01 X32.8919 Y56.7543 
G01 X32.7959 Y56.8865 
G01 X32.6803 Y57.0021 
G01 X32.5481 Y57.0981 
G01 X32.4025 Y57.1723 
G01 X32.2471 Y57.2228 
G01 X32.0857 Y57.2484 
G01 X31.9223 Y57.2484 
G01 X31.7609 Y57.2228 
G01 X31.6055 Y57.1723 
G01 X31.4599 Y57.0981 
G01 X31.3277 Y57.0021 
G01 X31.2121 Y56.8865 
G01 X31.1161 Y56.7543 
G01 X31.0419 Y56.6087 
G01 X30.9914 Y56.4533 
G01 X30.9658 Y56.2919 
G01 X30.9658 Y54.4521 
G01 X30.9914 Y54.2907 
G01 X31.0419 Y54.1353 
G01 X31.1161 Y53.9897 
G01 X31.2121 Y53.8575 
G00 Z5.0000  
G00 X34.0061 Y53.8575 
G01 Z-0.0250 F50    
G01 X34.1217 Y53.7419 F50    
G01 X34.2539 Y53.6459 
G01 X34.3995 Y53.5717 
G01 X34.5549 Y53.5212 
G01 X34.7163 Y53.4956 
G01 X34.8797 Y53.4956 
G01 X35.0411 Y53.5212 
G01 X35.1965 Y53.5717 
G01 X35.3421 Y53.6459 
G01 X35.4743 Y53.7419 
G01 X35.5899 Y53.8575 
G01 X35.6859 Y53.9897 
G01 X35.7601 Y54.1353 
G01 X35.8106 Y54.2907 
G01 X35.8362 Y54.4521 
G01 X35.8362 Y56.2919 
G01 X35.8106 Y56.4533 
G01 X35.7601 Y56.6087 
G01 X35.6859 Y56.7543 
G01 X35.5899 Y56.8865 
G01 X35.4743 Y57.0021 
G01 X35.3421 Y57.0981 
G01 X35.1965 Y57.1723 
G01 X35.0411 Y57.2228 
G01 X34.8797 Y57.2484 
G01 X34.7163 Y57.2484 
G01 X34.5549 Y57.2228 
G01 X34.3995 Y57.1723 
G01 X34.2539 Y57.0981 
G01 X34.1217 Y57.0021 
G01 X34.0061 Y56.8865 
G01 X33.9100 Y56.7543 
G01 X33.8359 Y56.6087 
G01 X33.7854 Y56.4533 
G01 X33.7598 Y56.2919 
G01 X33.7598 Y54.4521 
G01 X33.7854 Y54.2907 
G01 X33.8359 Y54.1353 
G01 X33.9100 Y53.9897 
G01 X34.0061 Y53.8575 
G00 Z5.0000  
G00 X40.9052 Y53.7111 
G01 Z-0.0250 F50    
G01 X40.7769 Y53.5828 F50    
G01 X40.6703 Y53.4360 
G01 X40.5879 Y53.2744 
G01 X40.5319 Y53.1019 
G01 X40.5035 Y52.9227 
G01 X40.5035 Y52.7413 
G01 X40.5319 Y52.5621 
G01 X40.5879 Y52.3896 
G01 X40.6703 Y52.2280 
G01 X40.7769 Y52.0812 
G01 X40.9052 Y51.9529 
G01 X41.0520 Y51.8463 
G01 X41.2136 Y51.7639 
G01 X41.3861 Y51.7079 
G01 X41.5653 Y51.6795 
G01 X41.7467 Y51.6795 
G01 X41.9259 Y51.7079 
G01 X42.0984 Y51.7639 
G01 X42.2600 Y51.8463 
G01 X42.4068 Y51.9529 
G01 X42.5351 Y52.0812 
G01 X42.6417 Y52.2280 
G01 X42.7241 Y52.3896 
G01 X42.7801 Y52.5621 
G01 X42.8085 Y52.7413 
G01 X42.8085 Y52.9227 
G01 X42.7801 Y53.1019 
G01 X42.7241 Y53.2744 
G01 X42.6417 Y53.4360 
G01 X42.5351 Y53.5828 
G01 X42.4068 Y53.7111 
G01 X42.2600 Y53.8177 
G01 X42.0984 Y53.9001 
G01 X41.9259 Y53.9561 
G01 X41.7467 Y53.9845 
G01 X41.5653 Y53.9845 
G01 X41.3861 Y53.9561 
G01 X41.2136 Y53.9001 
G01 X41.0520 Y53.8177 
G01 X40.9052 Y53.7111 
G00 Z5.0000  
G00 X40.9052 Y54.4929 
G01 Z-0.0250 F50    
G01 X41.0520 Y54.3863 F50    
G01 X41.2136 Y54.3039 
G01 X41.3861 Y54.2479 
G01 X41.5653 Y54.2195 
G01 X41.7467 Y54.2195 
G01 X41.9259 Y54.2479 
G01 X42.0984 Y54.3039 
G01 X42.2600 Y54.3863 
G01 X42.4068 Y54.4929 
G01 X42.5351 Y54.6212 
G01 X42.6417 Y54.7680 
G01 X42.7241 Y54.9296 
G01 X42.7801 Y55.1021 
G01 X42.8085 Y55.2813 
G01 X42.8085 Y55.4627 
G01 X42.7801 Y55.6419 
G01 X42.7241 Y55.8144 
G01 X42.6417 Y55.9760 
G01 X42.5351 Y56.1228 
G01 X42.4068 Y56.2511 
G01 X42.2600 Y56.3577 
G01 X42.0984 Y56.4401 
G01 X41.9259 Y56.4961 
G01 X41.7467 Y56.5245 
G01 X41.5653 Y56.5245 
G01 X41.3861 Y56.4961 
G01 X41.2136 Y56.4401 
G01 X41.0520 Y56.3577 
G01 X40.9052 Y56.2511 
G01 X40.7769 Y56.1228 
G01 X40.6703 Y55.9760 
G01 X40.5879 Y55.8144 
G01 X40.5319 Y55.6419 
G01 X40.5035 Y55.4627 
G01 X40.5035 Y55.2813 
G01 X40.5319 Y55.1021 
G01 X40.5879 Y54.9296 
G01 X40.6703 Y54.7680 
G01 X40.7769 Y54.6212 
G01 X40.9052 Y54.4929 
G00 Z5.0000  
G00 X40.9052 Y57.0329 
G01 Z-0.0250 F50    
G01 X41.0520 Y56.9263 F50    
G01 X41.2136 Y56.8439 
G01 X41.3861 Y56.7879 
G01 X41.5653 Y56.7595 
G01 X41.7467 Y56.7595 
G01 X41.9259 Y56.7879 
G01 X42.0984 Y56.8439 
G01 X42.2600 Y56.9263 
G01 X42.4068 Y57.0329 
G01 X42.5351 Y57.1612 
G01 X42.6417 Y57.3080 
G01 X42.7241 Y57.4696 
G01 X42.7801 Y57.6421 
G01 X42.8085 Y57.8213 
G01 X42.8085 Y58.0027 
G01 X42.7801 Y58.1819 
G01 X42.7241 Y58.3544 
G01 X42.6417 Y58.5160 
G01 X42.5351 Y58.6628 
G01 X42.4068 Y58.7911 
G01 X42.2600 Y58.8977 
G01 X42.0984 Y58.9801 
G01 X41.9259 Y59.0361 
G01 X41.7467 Y59.0645 
G01 X41.5653 Y59.0645 
G01 X41.3861 Y59.0361 
G01 X41.2136 Y58.9801 
G01 X41.0520 Y58.8977 
G01 X40.9052 Y58.7911 
G01 X40.7769 Y58.6628 
G01 X40.6703 Y58.5160 
G01 X40.5879 Y58.3544 
G01 X40.5319 Y58.1819 
G01 X40.5035 Y58.0027 
G01 X40.5035 Y57.8213 
G01 X40.5319 Y57.6421 
G01 X40.5879 Y57.4696 
G01 X40.6703 Y57.3080 
G01 X40.7769 Y57.1612 
G01 X40.9052 Y57.0329 
G00 Z5.0000  
G00 X40.9052 Y59.5729 
G01 Z-0.0250 F50    
G01 X41.0520 Y59.4663 F50    
G01 X41.2136 Y59.3839 
G01 X41.3861 Y59.3279 
G01 X41.5653 Y59.2995 
G01 X41.7467 Y59.2995 
G01 X41.9259 Y59.3279 
G01 X42.0984 Y59.3839 
G01 X42.2600 Y59.4663 
G01 X42.4068 Y59.5729 
G01 X42.5351 Y59.7012 
G01 X42.6417 Y59.8480 
G01 X42.7241 Y60.0096 
G01 X42.7801 Y60.1821 
G01 X42.8085 Y60.3613 
G01 X42.8085 Y60.5427 
G01 X42.7801 Y60.7219 
G01 X42.7241 Y60.8944 
G01 X42.6417 Y61.0560 
G01 X42.5351 Y61.2028 
G01 X42.4068 Y61.3311 
G01 X42.2600 Y61.4377 
G01 X42.0984 Y61.5201 
G01 X41.9259 Y61.5761 
G01 X41.7467 Y61.6045 
G01 X41.5653 Y61.6045 
G01 X41.3861 Y61.5761 
G01 X41.2136 Y61.5201 
G01 X41.0520 Y61.4377 
G01 X40.9052 Y61.3311 
G01 X40.7769 Y61.2028 
G01 X40.6703 Y61.0560 
G01 X40.5879 Y60.8944 
G01 X40.5319 Y60.7219 
G01 X40.5035 Y60.5427 
G01 X40.5035 Y60.3613 
G01 X40.5319 Y60.1821 
G01 X40.5879 Y60.0096 
G01 X40.6703 Y59.8480 
G01 X40.7769 Y59.7012 
G01 X40.9052 Y59.5729 
G00 Z5.0000  
G00 X40.9052 Y62.1129 
G01 Z-0.0250 F50    
G01 X41.0520 Y62.0063 F50    
G01 X41.2136 Y61.9239 
G01 X41.3861 Y61.8679 
G01 X41.5653 Y61.8395 
G01 X41.7467 Y61.8395 
G01 X41.9259 Y61.8679 
G01 X42.0984 Y61.9239 
G01 X42.2600 Y62.0063 
G01 X42.4068 Y62.1129 
G01 X42.5351 Y62.2412 
G01 X42.6417 Y62.3880 
G01 X42.7241 Y62.5496 
G01 X42.7801 Y62.7221 
G01 X42.8085 Y62.9013 
G01 X42.8085 Y63.0827 
G01 X42.7801 Y63.2619 
G01 X42.7241 Y63.4344 
G01 X42.6417 Y63.5960 
G01 X42.5351 Y63.7428 
G01 X42.4068 Y63.8711 
G01 X42.2600 Y63.9777 
G01 X42.0984 Y64.0601 
G01 X41.9259 Y64.1161 
G01 X41.7467 Y64.1445 
G01 X41.5653 Y64.1445 
G01 X41.3861 Y64.1161 
G01 X41.2136 Y64.0601 
G01 X41.0520 Y63.9777 
G01 X40.9052 Y63.8711 
G01 X40.7769 Y63.7428 
G01 X40.6703 Y63.5960 
G01 X40.5879 Y63.4344 
G01 X40.5319 Y63.2619 
G01 X40.5035 Y63.0827 
G01 X40.5035 Y62.9013 
G01 X40.5319 Y62.7221 
G01 X40.5879 Y62.5496 
G01 X40.6703 Y62.3880 
G01 X40.7769 Y62.2412 
G01 X40.9052 Y62.1129 
G00 Z5.0000  
G00 X40.9052 Y64.6529 
G01 Z-0.0250 F50    
G01 X41.0520 Y64.5463 F50    
G01 X41.2136 Y64.4639 
G01 X41.3861 Y64.4079 
G01 X41.5653 Y64.3795 
G01 X41.7467 Y64.3795 
G01 X41.9259 Y64.4079 
G01 X42.0984 Y64.4639 
G01 X42.2600 Y64.5463 
G01 X42.4068 Y64.6529 
G01 X42.5351 Y64.7812 
G01 X42.6417 Y64.9280 
G01 X42.7241 Y65.0896 
G01 X42.7801 Y65.2621 
G01 X42.8085 Y65.4413 
G01 X42.8085 Y65.6227 
G01 X42.7801 Y65.8019 
G01 X42.7241 Y65.9744 
G01 X42.6417 Y66.1360 
G01 X42.5351 Y66.2828 
G01 X42.4068 Y66.4111 
G01 X42.2600 Y66.5177 
G01 X42.0984 Y66.6001 
G01 X41.9259 Y66.6561 
G01 X41.7467 Y66.6845 
G01 X41.5653 Y66.6845 
G01 X41.3861 Y66.6561 
G01 X41.2136 Y66.6001 
G01 X41.0520 Y66.5177 
G01 X40.9052 Y66.4111 
G01 X40.7769 Y66.2828 
G01 X40.6703 Y66.1360 
G01 X40.5879 Y65.9744 
G01 X40.5319 Y65.8019 
G01 X40.5035 Y65.6227 
G01 X40.5035 Y65.4413 
G01 X40.5319 Y65.2621 
G01 X40.5879 Y65.0896 
G01 X40.6703 Y64.9280 
G01 X40.7769 Y64.7812 
G01 X40.9052 Y64.6529 
G00 Z5.0000  
G00 X40.9052 Y67.1929 
G01 Z-0.0250 F50    
G01 X41.0520 Y67.0863 F50    
G01 X41.2136 Y67.0039 
G01 X41.3861 Y66.9479 
G01 X41.5653 Y66.9195 
G01 X41.7467 Y66.9195 
G01 X41.9259 Y66.9479 
G01 X42.0984 Y67.0039 
G01 X42.2600 Y67.0863 
G01 X42.4068 Y67.1929 
G01 X42.5351 Y67.3212 
G01 X42.6417 Y67.4680 
G01 X42.7241 Y67.6296 
G01 X42.7801 Y67.8021 
G01 X42.8085 Y67.9813 
G01 X42.8085 Y68.1627 
G01 X42.7801 Y68.3419 
G01 X42.7241 Y68.5144 
G01 X42.6417 Y68.6760 
G01 X42.5351 Y68.8228 
G01 X42.4068 Y68.9511 
G01 X42.2600 Y69.0577 
G01 X42.0984 Y69.1401 
G01 X41.9259 Y69.1961 
G01 X41.7467 Y69.2245 
G01 X41.5653 Y69.2245 
G01 X41.3861 Y69.1961 
G01 X41.2136 Y69.1401 
G01 X41.0520 Y69.0577 
G01 X40.9052 Y68.9511 
G01 X40.7769 Y68.8228 
G01 X40.6703 Y68.6760 
G01 X40.5879 Y68.5144 
G01 X40.5319 Y68.3419 
G01 X40.5035 Y68.1627 
G01 X40.5035 Y67.9813 
G01 X40.5319 Y67.8021 
G01 X40.5879 Y67.6296 
G01 X40.6703 Y67.4680 
G01 X40.7769 Y67.3212 
G01 X40.9052 Y67.1929 
G00 Z5.0000  
G00 X40.9052 Y69.7329 
G01 Z-0.0250 F50    
G01 X41.0520 Y69.6263 F50    
G01 X41.2136 Y69.5439 
G01 X41.3861 Y69.4879 
G01 X41.5653 Y69.4595 
G01 X41.7467 Y69.4595 
G01 X41.9259 Y69.4879 
G01 X42.0984 Y69.5439 
G01 X42.2600 Y69.6263 
G01 X42.4068 Y69.7329 
G01 X42.5351 Y69.8612 
G01 X42.6417 Y70.0080 
G01 X42.7241 Y70.1696 
G01 X42.7801 Y70.3421 
G01 X42.8085 Y70.5213 
G01 X42.8085 Y70.7027 
G01 X42.7801 Y70.8819 
G01 X42.7241 Y71.0544 
G01 X42.6417 Y71.2160 
G01 X42.5351 Y71.3628 
G01 X42.4068 Y71.4911 
G01 X42.2600 Y71.5977 
G01 X42.0984 Y71.6801 
G01 X41.9259 Y71.7361 
G01 X41.7467 Y71.7645 
G01 X41.5653 Y71.7645 
G01 X41.3861 Y71.7361 
G01 X41.2136 Y71.6801 
G01 X41.0520 Y71.5977 
G01 X40.9052 Y71.4911 
G01 X40.7769 Y71.3628 
G01 X40.6703 Y71.2160 
G01 X40.5879 Y71.0544 
G01 X40.5319 Y70.8819 
G01 X40.5035 Y70.7027 
G01 X40.5035 Y70.5213 
G01 X40.5319 Y70.3421 
G01 X40.5879 Y70.1696 
G01 X40.6703 Y70.0080 
G01 X40.7769 Y69.8612 
G01 X40.9052 Y69.7329 
G00 Z5.0000  
G00 X38.0500 Y69.0191 
G01 Z-0.0250 F50    
G01 X38.0500 Y71.6041 F50    
G01 X38.8979 Y72.4520 
G01 X44.4141 Y72.4520 
G01 X45.9383 Y70.9278 
G01 X46.0358 Y70.8303 
G01 X46.1504 Y70.7537 
G01 X46.2778 Y70.7009 
G01 X46.4131 Y70.6740 
G01 X49.5989 Y70.6740 
G01 X49.7342 Y70.7009 
G01 X49.8616 Y70.7537 
G01 X49.9762 Y70.8303 
G01 X50.4183 Y71.2723 
G01 X50.5579 Y71.2502 
G01 X52.6169 Y71.2502 
G01 X52.7941 Y71.2783 
G01 X52.9647 Y71.3337 
G01 X53.1246 Y71.4152 
G01 X53.2697 Y71.5206 
G01 X53.3966 Y71.6475 
G01 X53.5020 Y71.7926 
G01 X53.5835 Y71.9525 
G01 X53.6389 Y72.1231 
G01 X53.6670 Y72.3003 
G01 X53.6670 Y72.4797 
G01 X53.6389 Y72.6569 
G01 X53.5835 Y72.8275 
G01 X53.5020 Y72.9874 
G01 X53.3966 Y73.1325 
G01 X53.2697 Y73.2594 
G01 X53.1246 Y73.3648 
G01 X52.9647 Y73.4463 
G01 X52.7941 Y73.5017 
G01 X52.6169 Y73.5298 
G01 X50.5579 Y73.5298 
G01 X50.3807 Y73.5017 
G01 X50.2101 Y73.4463 
G01 X50.0502 Y73.3648 
G01 X49.9051 Y73.2594 
G01 X49.7782 Y73.1325 
G01 X49.6728 Y72.9874 
G01 X49.5913 Y72.8275 
G01 X49.5359 Y72.6569 
G01 X49.5078 Y72.4797 
G01 X49.5078 Y72.3417 
G01 X49.2400 Y72.0740 
G01 X46.7719 Y72.0740 
G01 X45.1502 Y73.6957 
G01 X45.0356 Y73.7723 
G01 X44.9082 Y73.8251 
G01 X44.7729 Y73.8520 
G01 X38.5391 Y73.8520 
G01 X38.4038 Y73.8251 
G01 X38.2764 Y73.7723 
G01 X38.1618 Y73.6957 
G01 X38.0643 Y73.5982 
G01 X36.8063 Y72.3402 
G01 X36.7297 Y72.2256 
G01 X36.6769 Y72.0982 
G01 X36.6500 Y71.9629 
G01 X36.6500 Y69.3779 
G01 X36.5352 Y69.2632 
G01 X36.4291 Y69.2800 
G01 X36.2389 Y69.2800 
G01 X36.0511 Y69.2503 
G01 X35.8703 Y69.1915 
G01 X35.7009 Y69.1052 
G01 X35.5470 Y68.9934 
G01 X35.4126 Y68.8590 
G01 X35.3008 Y68.7051 
G01 X35.2145 Y68.5357 
G01 X35.1557 Y68.3549 
G01 X35.1260 Y68.1671 
G01 X35.1260 Y67.9769 
G01 X35.1557 Y67.7891 
G01 X35.2145 Y67.6083 
G01 X35.3008 Y67.4389 
G01 X35.4126 Y67.2850 
G01 X35.5470 Y67.1506 
G01 X35.7009 Y67.0388 
G01 X35.8703 Y66.9525 
G01 X36.0511 Y66.8937 
G01 X36.2389 Y66.8640 
G01 X36.4291 Y66.8640 
G01 X36.5352 Y66.8808 
G01 X36.6380 Y66.7780 
G01 X36.6380 Y46.1660 
G01 X36.4809 Y46.1660 
G01 X36.2931 Y46.1363 
G01 X36.1123 Y46.0775 
G01 X35.9429 Y45.9912 
G01 X35.7890 Y45.8794 
G01 X35.6546 Y45.7450 
G01 X35.5428 Y45.5911 
G01 X35.4565 Y45.4217 
G01 X35.3977 Y45.2409 
G01 X35.3680 Y45.0531 
G01 X35.3680 Y44.8629 
G01 X35.3977 Y44.6751 
G01 X35.4565 Y44.4943 
G01 X35.5428 Y44.3249 
G01 X35.6546 Y44.1710 
G01 X35.7890 Y44.0366 
G01 X35.9429 Y43.9248 
G01 X36.1123 Y43.8385 
G01 X36.2931 Y43.7797 
G01 X36.4809 Y43.7500 
G01 X36.6380 Y43.7500 
G01 X36.6380 Y22.0666 
G01 X36.5510 Y22.0034 
G01 X36.4166 Y21.8690 
G01 X36.3048 Y21.7151 
G01 X36.2185 Y21.5457 
G01 X36.1597 Y21.3649 
G01 X36.1300 Y21.1771 
G01 X36.1300 Y20.9869 
G01 X36.1597 Y20.7991 
G01 X36.2185 Y20.6183 
G01 X36.3048 Y20.4489 
G01 X36.4166 Y20.2950 
G01 X36.5510 Y20.1606 
G01 X36.7049 Y20.0488 
G01 X36.8743 Y19.9625 
G01 X37.0551 Y19.9037 
G01 X37.2429 Y19.8740 
G01 X37.4331 Y19.8740 
G01 X37.6209 Y19.9037 
G01 X37.8017 Y19.9625 
G01 X37.9711 Y20.0488 
G01 X38.1250 Y20.1606 
G01 X38.2594 Y20.2950 
G01 X38.3712 Y20.4489 
G01 X38.4575 Y20.6183 
G01 X38.5163 Y20.7991 
G01 X38.5460 Y20.9869 
G01 X38.5460 Y21.1771 
G01 X38.5163 Y21.3649 
G01 X38.4575 Y21.5457 
G01 X38.3712 Y21.7151 
G01 X38.2594 Y21.8690 
G01 X38.1250 Y22.0034 
G01 X38.0380 Y22.0666 
G01 X38.0380 Y68.9587 
G01 X38.0500 Y69.0191 
G00 Z5.0000  
G00 X35.5899 Y64.5065 
G01 Z-0.0250 F50    
G01 X35.4743 Y64.6221 F50    
G01 X35.3421 Y64.7181 
G01 X35.1965 Y64.7923 
G01 X35.0411 Y64.8428 
G01 X34.8797 Y64.8684 
G01 X34.7163 Y64.8684 
G01 X34.5549 Y64.8428 
G01 X34.3995 Y64.7923 
G01 X34.2539 Y64.7181 
G01 X34.1217 Y64.6221 
G01 X34.0061 Y64.5065 
G01 X33.9100 Y64.3743 
G01 X33.8359 Y64.2287 
G01 X33.7854 Y64.0733 
G01 X33.7598 Y63.9119 
G01 X33.7598 Y62.0721 
G01 X33.7854 Y61.9107 
G01 X33.8359 Y61.7553 
G01 X33.9100 Y61.6097 
G01 X34.0061 Y61.4775 
G01 X34.1217 Y61.3619 
G01 X34.2539 Y61.2659 
G01 X34.3995 Y61.1917 
G01 X34.5549 Y61.1412 
G01 X34.7163 Y61.1156 
G01 X34.8797 Y61.1156 
G01 X35.0411 Y61.1412 
G01 X35.1965 Y61.1917 
G01 X35.3421 Y61.2659 
G01 X35.4743 Y61.3619 
G01 X35.5899 Y61.4775 
G01 X35.6859 Y61.6097 
G01 X35.7601 Y61.7553 
G01 X35.8106 Y61.9107 
G01 X35.8362 Y62.0721 
G01 X35.8362 Y63.9119 
G01 X35.8106 Y64.0733 
G01 X35.7601 Y64.2287 
G01 X35.6859 Y64.3743 
G01 X35.5899 Y64.5065 
G00 Z5.0000  
G00 X32.7959 Y64.5065 
G01 Z-0.0250 F50    
G01 X32.6803 Y64.6221 F50    
G01 X32.5481 Y64.7181 
G01 X32.4025 Y64.7923 
G01 X32.2471 Y64.8428 
G01 X32.0857 Y64.8684 
G01 X31.9223 Y64.8684 
G01 X31.7609 Y64.8428 
G01 X31.6055 Y64.7923 
G01 X31.4599 Y64.7181 
G01 X31.3277 Y64.6221 
G01 X31.2121 Y64.5065 
G01 X31.1161 Y64.3743 
G01 X31.0419 Y64.2287 
G01 X30.9914 Y64.0733 
G01 X30.9658 Y63.9119 
G01 X30.9658 Y62.0721 
G01 X30.9914 Y61.9107 
G01 X31.0419 Y61.7553 
G01 X31.1161 Y61.6097 
G01 X31.2121 Y61.4775 
G01 X31.3277 Y61.3619 
G01 X31.4599 Y61.2659 
G01 X31.6055 Y61.1917 
G01 X31.7609 Y61.1412 
G01 X31.9223 Y61.1156 
G01 X32.0857 Y61.1156 
G01 X32.2471 Y61.1412 
G01 X32.4025 Y61.1917 
G01 X32.5481 Y61.2659 
G01 X32.6803 Y61.3619 
G01 X32.7959 Y61.4775 
G01 X32.8919 Y61.6097 
G01 X32.9661 Y61.7553 
G01 X33.0166 Y61.9107 
G01 X33.0422 Y62.0721 
G01 X33.0422 Y63.9119 
G01 X33.0166 Y64.0733 
G01 X32.9661 Y64.2287 
G01 X32.8919 Y64.3743 
G01 X32.7959 Y64.5065 
G00 Z5.0000  
G00 X29.8351 Y58.6628 
G01 Z-0.0250 F50    
G01 X29.7068 Y58.7911 F50    
G01 X29.5600 Y58.8977 
G01 X29.3984 Y58.9801 
G01 X29.2259 Y59.0361 
G01 X29.0467 Y59.0645 
G01 X28.8653 Y59.0645 
G01 X28.6861 Y59.0361 
G01 X28.5136 Y58.9801 
G01 X28.3520 Y58.8977 
G01 X28.2052 Y58.7911 
G01 X28.0769 Y58.6628 
G01 X27.9703 Y58.5160 
G01 X27.8879 Y58.3544 
G01 X27.8319 Y58.1819 
G01 X27.8035 Y58.0027 
G01 X27.8035 Y57.8213 
G01 X27.8319 Y57.6421 
G01 X27.8879 Y57.4696 
G01 X27.9703 Y57.3080 
G01 X28.0769 Y57.1612 
G01 X28.2052 Y57.0329 
G01 X28.3520 Y56.9263 
G01 X28.5136 Y56.8439 
G01 X28.6861 Y56.7879 
G01 X28.8653 Y56.7595 
G01 X29.0467 Y56.7595 
G01 X29.2259 Y56.7879 
G01 X29.3984 Y56.8439 
G01 X29.5600 Y56.9263 
G01 X29.7068 Y57.0329 
G01 X29.8351 Y57.1612 
G01 X29.9417 Y57.3080 
G01 X30.0241 Y57.4696 
G01 X30.0801 Y57.6421 
G01 X30.1085 Y57.8213 
G01 X30.1085 Y58.0027 
G01 X30.0801 Y58.1819 
G01 X30.0241 Y58.3544 
G01 X29.9417 Y58.5160 
G01 X29.8351 Y58.6628 
G00 Z5.0000  
G00 X29.8351 Y48.3758 
G01 Z-0.0250 F50    
G01 X29.7068 Y48.5041 F50    
G01 X29.5600 Y48.6107 
G01 X29.3984 Y48.6931 
G01 X29.2259 Y48.7491 
G01 X29.0467 Y48.7775 
G01 X28.8653 Y48.7775 
G01 X28.6861 Y48.7491 
G01 X28.5136 Y48.6931 
G01 X28.3520 Y48.6107 
G01 X28.2052 Y48.5041 
G01 X28.0769 Y48.3758 
G01 X27.9703 Y48.2290 
G01 X27.8879 Y48.0674 
G01 X27.8319 Y47.8949 
G01 X27.8035 Y47.7157 
G01 X27.8035 Y47.5343 
G01 X27.8319 Y47.3551 
G01 X27.8879 Y47.1826 
G01 X27.9703 Y47.0210 
G01 X28.0769 Y46.8742 
G01 X28.2052 Y46.7459 
G01 X28.3520 Y46.6393 
G01 X28.5136 Y46.5569 
G01 X28.6861 Y46.5009 
G01 X28.8653 Y46.4725 
G01 X29.0467 Y46.4725 
G01 X29.2259 Y46.5009 
G01 X29.3984 Y46.5569 
G01 X29.5600 Y46.6393 
G01 X29.7068 Y46.7459 
G01 X29.8351 Y46.8742 
G01 X29.9417 Y47.0210 
G01 X30.0241 Y47.1826 
G01 X30.0801 Y47.3551 
G01 X30.1085 Y47.5343 
G01 X30.1085 Y47.7157 
G01 X30.0801 Y47.8949 
G01 X30.0241 Y48.0674 
G01 X29.9417 Y48.2290 
G01 X29.8351 Y48.3758 
G00 Z5.0000  
G00 X29.8351 Y45.8358 
G01 Z-0.0250 F50    
G01 X29.7068 Y45.9641 F50    
G01 X29.5600 Y46.0707 
G01 X29.3984 Y46.1531 
G01 X29.2259 Y46.2091 
G01 X29.0467 Y46.2375 
G01 X28.8653 Y46.2375 
G01 X28.6861 Y46.2091 
G01 X28.5136 Y46.1531 
G01 X28.3520 Y46.0707 
G01 X28.2052 Y45.9641 
G01 X28.0769 Y45.8358 
G01 X27.9703 Y45.6890 
G01 X27.8879 Y45.5274 
G01 X27.8319 Y45.3549 
G01 X27.8035 Y45.1757 
G01 X27.8035 Y44.9943 
G01 X27.8319 Y44.8151 
G01 X27.8879 Y44.6426 
G01 X27.9703 Y44.4810 
G01 X28.0769 Y44.3342 
G01 X28.2052 Y44.2059 
G01 X28.3520 Y44.0993 
G01 X28.5136 Y44.0169 
G01 X28.6861 Y43.9609 
G01 X28.8653 Y43.9325 
G01 X29.0467 Y43.9325 
G01 X29.2259 Y43.9609 
G01 X29.3984 Y44.0169 
G01 X29.5600 Y44.0993 
G01 X29.7068 Y44.2059 
G01 X29.8351 Y44.3342 
G01 X29.9417 Y44.4810 
G01 X30.0241 Y44.6426 
G01 X30.0801 Y44.8151 
G01 X30.1085 Y44.9943 
G01 X30.1085 Y45.1757 
G01 X30.0801 Y45.3549 
G01 X30.0241 Y45.5274 
G01 X29.9417 Y45.6890 
G01 X29.8351 Y45.8358 
G00 Z5.0000  
G00 X29.8351 Y43.2958 
G01 Z-0.0250 F50    
G01 X29.7068 Y43.4241 F50    
G01 X29.5600 Y43.5307 
G01 X29.3984 Y43.6131 
G01 X29.2259 Y43.6691 
G01 X29.0467 Y43.6975 
G01 X28.8653 Y43.6975 
G01 X28.6861 Y43.6691 
G01 X28.5136 Y43.6131 
G01 X28.3520 Y43.5307 
G01 X28.2052 Y43.4241 
G01 X28.0769 Y43.2958 
G01 X27.9703 Y43.1490 
G01 X27.8879 Y42.9874 
G01 X27.8319 Y42.8149 
G01 X27.8035 Y42.6357 
G01 X27.8035 Y42.4543 
G01 X27.8319 Y42.2751 
G01 X27.8879 Y42.1026 
G01 X27.9703 Y41.9410 
G01 X28.0769 Y41.7942 
G01 X28.2052 Y41.6659 
G01 X28.3520 Y41.5593 
G01 X28.5136 Y41.4769 
G01 X28.6861 Y41.4209 
G01 X28.8653 Y41.3925 
G01 X29.0467 Y41.3925 
G01 X29.2259 Y41.4209 
G01 X29.3984 Y41.4769 
G01 X29.5600 Y41.5593 
G01 X29.7068 Y41.6659 
G01 X29.8351 Y41.7942 
G01 X29.9417 Y41.9410 
G01 X30.0241 Y42.1026 
G01 X30.0801 Y42.2751 
G01 X30.1085 Y42.4543 
G01 X30.1085 Y42.6357 
G01 X30.0801 Y42.8149 
G01 X30.0241 Y42.9874 
G01 X29.9417 Y43.1490 
G01 X29.8351 Y43.2958 
G00 Z5.0000  
G00 X29.8351 Y40.7558 
G01 Z-0.0250 F50    
G01 X29.7068 Y40.8841 F50    
G01 X29.5600 Y40.9907 
G01 X29.3984 Y41.0731 
G01 X29.2259 Y41.1291 
G01 X29.0467 Y41.1575 
G01 X28.8653 Y41.1575 
G01 X28.6861 Y41.1291 
G01 X28.5136 Y41.0731 
G01 X28.3520 Y40.9907 
G01 X28.2052 Y40.8841 
G01 X28.0769 Y40.7558 
G01 X27.9703 Y40.6090 
G01 X27.8879 Y40.4474 
G01 X27.8319 Y40.2749 
G01 X27.8035 Y40.0957 
G01 X27.8035 Y39.9143 
G01 X27.8319 Y39.7351 
G01 X27.8879 Y39.5626 
G01 X27.9703 Y39.4010 
G01 X28.0769 Y39.2542 
G01 X28.2052 Y39.1259 
G01 X28.3520 Y39.0193 
G01 X28.5136 Y38.9369 
G01 X28.6861 Y38.8809 
G01 X28.8653 Y38.8525 
G01 X29.0467 Y38.8525 
G01 X29.2259 Y38.8809 
G01 X29.3984 Y38.9369 
G01 X29.5600 Y39.0193 
G01 X29.7068 Y39.1259 
G01 X29.8351 Y39.2542 
G01 X29.9417 Y39.4010 
G01 X30.0241 Y39.5626 
G01 X30.0801 Y39.7351 
G01 X30.1085 Y39.9143 
G01 X30.1085 Y40.0957 
G01 X30.0801 Y40.2749 
G01 X30.0241 Y40.4474 
G01 X29.9417 Y40.6090 
G01 X29.8351 Y40.7558 
G00 Z5.0000  
G00 X30.9295 Y40.9249 
G01 Z-0.0250 F50    
G01 X30.9295 Y39.0851 F50    
G01 X30.9551 Y38.9237 
G01 X31.0056 Y38.7683 
G01 X31.0798 Y38.6227 
G01 X31.1758 Y38.4905 
G01 X31.2914 Y38.3749 
G01 X31.4236 Y38.2788 
G01 X31.5692 Y38.2047 
G01 X31.7246 Y38.1542 
G01 X31.8860 Y38.1286 
G01 X32.0494 Y38.1286 
G01 X32.2108 Y38.1542 
G01 X32.3662 Y38.2047 
G01 X32.5118 Y38.2788 
G01 X32.6440 Y38.3749 
G01 X32.7596 Y38.4905 
G01 X32.8556 Y38.6227 
G01 X32.9298 Y38.7683 
G01 X32.9803 Y38.9237 
G01 X33.0059 Y39.0851 
G01 X33.0059 Y40.9249 
G01 X32.9803 Y41.0863 
G01 X32.9298 Y41.2417 
G01 X32.8556 Y41.3873 
G01 X32.7596 Y41.5195 
G01 X32.6440 Y41.6351 
G01 X32.5118 Y41.7311 
G01 X32.3662 Y41.8053 
G01 X32.2108 Y41.8558 
G01 X32.0494 Y41.8814 
G01 X31.8860 Y41.8814 
G01 X31.7246 Y41.8558 
G01 X31.5692 Y41.8053 
G01 X31.4236 Y41.7311 
G01 X31.2914 Y41.6351 
G01 X31.1758 Y41.5195 
G01 X31.0798 Y41.3873 
G01 X31.0056 Y41.2417 
G01 X30.9551 Y41.0863 
G01 X30.9295 Y40.9249 
G00 Z5.0000  
G00 X33.7054 Y40.9249 
G01 Z-0.0250 F50    
G01 X33.7054 Y39.0851 F50    
G01 X33.7309 Y38.9237 
G01 X33.7814 Y38.7683 
G01 X33.8556 Y38.6227 
G01 X33.9517 Y38.4905 
G01 X34.0672 Y38.3749 
G01 X34.1994 Y38.2788 
G01 X34.3450 Y38.2047 
G01 X34.5004 Y38.1542 
G01 X34.6619 Y38.1286 
G01 X34.8253 Y38.1286 
G01 X34.9867 Y38.1542 
G01 X35.1421 Y38.2047 
G01 X35.2877 Y38.2788 
G01 X35.4199 Y38.3749 
G01 X35.5355 Y38.4905 
G01 X35.6315 Y38.6227 
G01 X35.7057 Y38.7683 
G01 X35.7562 Y38.9237 
G01 X35.7818 Y39.0851 
G01 X35.7818 Y40.9249 
G01 X35.7562 Y41.0863 
G01 X35.7057 Y41.2417 
G01 X35.6315 Y41.3873 
G01 X35.5355 Y41.5195 
G01 X35.4199 Y41.6351 
G01 X35.2877 Y41.7311 
G01 X35.1421 Y41.8053 
G01 X34.9867 Y41.8558 
G01 X34.8253 Y41.8814 
G01 X34.6619 Y41.8814 
G01 X34.5004 Y41.8558 
G01 X34.3450 Y41.8053 
G01 X34.1994 Y41.7311 
G01 X34.0672 Y41.6351 
G01 X33.9517 Y41.5195 
G01 X33.8556 Y41.3873 
G01 X33.7814 Y41.2417 
G01 X33.7309 Y41.0863 
G01 X33.7054 Y40.9249 
G00 Z5.0000  
G00 X29.8351 Y38.2158 
G01 Z-0.0250 F50    
G01 X29.7068 Y38.3441 F50    
G01 X29.5600 Y38.4507 
G01 X29.3984 Y38.5331 
G01 X29.2259 Y38.5891 
G01 X29.0467 Y38.6175 
G01 X28.8653 Y38.6175 
G01 X28.6861 Y38.5891 
G01 X28.5136 Y38.5331 
G01 X28.3520 Y38.4507 
G01 X28.2052 Y38.3441 
G01 X28.0769 Y38.2158 
G01 X27.9703 Y38.0690 
G01 X27.8879 Y37.9074 
G01 X27.8319 Y37.7349 
G01 X27.8035 Y37.5557 
G01 X27.8035 Y37.3743 
G01 X27.8319 Y37.1951 
G01 X27.8879 Y37.0226 
G01 X27.9703 Y36.8610 
G01 X28.0769 Y36.7142 
G01 X28.2052 Y36.5859 
G01 X28.3520 Y36.4793 
G01 X28.5136 Y36.3969 
G01 X28.6861 Y36.3409 
G01 X28.8653 Y36.3125 
G01 X29.0467 Y36.3125 
G01 X29.2259 Y36.3409 
G01 X29.3984 Y36.3969 
G01 X29.5600 Y36.4793 
G01 X29.7068 Y36.5859 
G01 X29.8351 Y36.7142 
G01 X29.9417 Y36.8610 
G01 X30.0241 Y37.0226 
G01 X30.0801 Y37.1951 
G01 X30.1085 Y37.3743 
G01 X30.1085 Y37.5557 
G01 X30.0801 Y37.7349 
G01 X30.0241 Y37.9074 
G01 X29.9417 Y38.0690 
G01 X29.8351 Y38.2158 
G00 Z5.0000  
G00 X29.8351 Y35.6758 
G01 Z-0.0250 F50    
G01 X29.7068 Y35.8041 F50    
G01 X29.5600 Y35.9107 
G01 X29.3984 Y35.9931 
G01 X29.2259 Y36.0491 
G01 X29.0467 Y36.0775 
G01 X28.8653 Y36.0775 
G01 X28.6861 Y36.0491 
G01 X28.5136 Y35.9931 
G01 X28.3520 Y35.9107 
G01 X28.2052 Y35.8041 
G01 X28.0769 Y35.6758 
G01 X27.9703 Y35.5290 
G01 X27.8879 Y35.3674 
G01 X27.8319 Y35.1949 
G01 X27.8035 Y35.0157 
G01 X27.8035 Y34.8343 
G01 X27.8319 Y34.6551 
G01 X27.8879 Y34.4826 
G01 X27.9703 Y34.3210 
G01 X28.0769 Y34.1742 
G01 X28.2052 Y34.0459 
G01 X28.3520 Y33.9393 
G01 X28.5136 Y33.8569 
G01 X28.6861 Y33.8009 
G01 X28.8653 Y33.7725 
G01 X29.0467 Y33.7725 
G01 X29.2259 Y33.8009 
G01 X29.3984 Y33.8569 
G01 X29.5600 Y33.9393 
G01 X29.7068 Y34.0459 
G01 X29.8351 Y34.1742 
G01 X29.9417 Y34.3210 
G01 X30.0241 Y34.4826 
G01 X30.0801 Y34.6551 
G01 X30.1085 Y34.8343 
G01 X30.1085 Y35.0157 
G01 X30.0801 Y35.1949 
G01 X30.0241 Y35.3674 
G01 X29.9417 Y35.5290 
G01 X29.8351 Y35.6758 
G00 Z5.0000  
G00 X29.8351 Y33.1358 
G01 Z-0.0250 F50    
G01 X29.7068 Y33.2641 F50    
G01 X29.5600 Y33.3707 
G01 X29.3984 Y33.4531 
G01 X29.2259 Y33.5091 
G01 X29.0467 Y33.5375 
G01 X28.8653 Y33.5375 
G01 X28.6861 Y33.5091 
G01 X28.5136 Y33.4531 
G01 X28.3520 Y33.3707 
G01 X28.2052 Y33.2641 
G01 X28.0769 Y33.1358 
G01 X27.9703 Y32.9890 
G01 X27.8879 Y32.8274 
G01 X27.8319 Y32.6549 
G01 X27.8035 Y32.4757 
G01 X27.8035 Y32.2943 
G01 X27.8319 Y32.1151 
G01 X27.8879 Y31.9426 
G01 X27.9703 Y31.7810 
G01 X28.0769 Y31.6342 
G01 X28.2052 Y31.5059 
G01 X28.3520 Y31.3993 
G01 X28.5136 Y31.3169 
G01 X28.6861 Y31.2609 
G01 X28.8653 Y31.2325 
G01 X29.0467 Y31.2325 
G01 X29.2259 Y31.2609 
G01 X29.3984 Y31.3169 
G01 X29.5600 Y31.3993 
G01 X29.7068 Y31.5059 
G01 X29.8351 Y31.6342 
G01 X29.9417 Y31.7810 
G01 X30.0241 Y31.9426 
G01 X30.0801 Y32.1151 
G01 X30.1085 Y32.2943 
G01 X30.1085 Y32.4757 
G01 X30.0801 Y32.6549 
G01 X30.0241 Y32.8274 
G01 X29.9417 Y32.9890 
G01 X29.8351 Y33.1358 
G00 Z5.0000  
G00 X30.9295 Y33.3049 
G01 Z-0.0250 F50    
G01 X30.9295 Y31.4651 F50    
G01 X30.9551 Y31.3037 
G01 X31.0056 Y31.1483 
G01 X31.0798 Y31.0027 
G01 X31.1758 Y30.8705 
G01 X31.2914 Y30.7549 
G01 X31.4236 Y30.6589 
G01 X31.5692 Y30.5847 
G01 X31.7246 Y30.5342 
G01 X31.8860 Y30.5086 
G01 X32.0494 Y30.5086 
G01 X32.2108 Y30.5342 
G01 X32.3662 Y30.5847 
G01 X32.5118 Y30.6589 
G01 X32.6440 Y30.7549 
G01 X32.7596 Y30.8705 
G01 X32.8556 Y31.0027 
G01 X32.9298 Y31.1483 
G01 X32.9803 Y31.3037 
G01 X33.0059 Y31.4651 
G01 X33.0059 Y33.3049 
G01 X32.9803 Y33.4663 
G01 X32.9298 Y33.6217 
G01 X32.8556 Y33.7673 
G01 X32.7596 Y33.8995 
G01 X32.6440 Y34.0151 
G01 X32.5118 Y34.1111 
G01 X32.3662 Y34.1853 
G01 X32.2108 Y34.2358 
G01 X32.0494 Y34.2614 
G01 X31.8860 Y34.2614 
G01 X31.7246 Y34.2358 
G01 X31.5692 Y34.1853 
G01 X31.4236 Y34.1111 
G01 X31.2914 Y34.0151 
G01 X31.1758 Y33.8995 
G01 X31.0798 Y33.7673 
G01 X31.0056 Y33.6217 
G01 X30.9551 Y33.4663 
G01 X30.9295 Y33.3049 
G00 Z5.0000  
G00 X33.7054 Y33.3049 
G01 Z-0.0250 F50    
G01 X33.7054 Y31.4651 F50    
G01 X33.7309 Y31.3037 
G01 X33.7814 Y31.1483 
G01 X33.8556 Y31.0027 
G01 X33.9517 Y30.8705 
G01 X34.0672 Y30.7549 
G01 X34.1994 Y30.6589 
G01 X34.3450 Y30.5847 
G01 X34.5004 Y30.5342 
G01 X34.6619 Y30.5086 
G01 X34.8253 Y30.5086 
G01 X34.9867 Y30.5342 
G01 X35.1421 Y30.5847 
G01 X35.2877 Y30.6589 
G01 X35.4199 Y30.7549 
G01 X35.5355 Y30.8705 
G01 X35.6315 Y31.0027 
G01 X35.7057 Y31.1483 
G01 X35.7562 Y31.3037 
G01 X35.7818 Y31.4651 
G01 X35.7818 Y33.3049 
G01 X35.7562 Y33.4663 
G01 X35.7057 Y33.6217 
G01 X35.6315 Y33.7673 
G01 X35.5355 Y33.8995 
G01 X35.4199 Y34.0151 
G01 X35.2877 Y34.1111 
G01 X35.1421 Y34.1853 
G01 X34.9867 Y34.2358 
G01 X34.8253 Y34.2614 
G01 X34.6619 Y34.2614 
G01 X34.5004 Y34.2358 
G01 X34.3450 Y34.1853 
G01 X34.1994 Y34.1111 
G01 X34.0672 Y34.0151 
G01 X33.9517 Y33.8995 
G01 X33.8556 Y33.7673 
G01 X33.7814 Y33.6217 
G01 X33.7309 Y33.4663 
G01 X33.7054 Y33.3049 
G00 Z5.0000  
G00 X29.8351 Y30.5958 
G01 Z-0.0250 F50    
G01 X29.7068 Y30.7241 F50    
G01 X29.5600 Y30.8307 
G01 X29.3984 Y30.9131 
G01 X29.2259 Y30.9691 
G01 X29.0467 Y30.9975 
G01 X28.8653 Y30.9975 
G01 X28.6861 Y30.9691 
G01 X28.5136 Y30.9131 
G01 X28.3520 Y30.8307 
G01 X28.2052 Y30.7241 
G01 X28.0769 Y30.5958 
G01 X27.9703 Y30.4490 
G01 X27.8879 Y30.2874 
G01 X27.8319 Y30.1149 
G01 X27.8035 Y29.9357 
G01 X27.8035 Y29.7543 
G01 X27.8319 Y29.5751 
G01 X27.8879 Y29.4026 
G01 X27.9703 Y29.2410 
G01 X28.0769 Y29.0942 
G01 X28.2052 Y28.9659 
G01 X28.3520 Y28.8593 
G01 X28.5136 Y28.7769 
G01 X28.6861 Y28.7209 
G01 X28.8653 Y28.6925 
G01 X29.0467 Y28.6925 
G01 X29.2259 Y28.7209 
G01 X29.3984 Y28.7769 
G01 X29.5600 Y28.8593 
G01 X29.7068 Y28.9659 
G01 X29.8351 Y29.0942 
G01 X29.9417 Y29.2410 
G01 X30.0241 Y29.4026 
G01 X30.0801 Y29.5751 
G01 X30.1085 Y29.7543 
G01 X30.1085 Y29.9357 
G01 X30.0801 Y30.1149 
G01 X30.0241 Y30.2874 
G01 X29.9417 Y30.4490 
G01 X29.8351 Y30.5958 
G00 Z5.0000  
G00 X26.0935 Y30.7649 
G01 Z-0.0250 F50    
G01 X26.0679 Y30.9263 F50    
G01 X26.0174 Y31.0817 
G01 X25.9432 Y31.2273 
G01 X25.8472 Y31.3595 
G01 X25.7316 Y31.4751 
G01 X25.5994 Y31.5711 
G01 X25.4538 Y31.6453 
G01 X25.2984 Y31.6958 
G01 X25.1370 Y31.7214 
G01 X24.9736 Y31.7214 
G01 X24.8122 Y31.6958 
G01 X24.6567 Y31.6453 
G01 X24.5111 Y31.5711 
G01 X24.3789 Y31.4751 
G01 X24.2634 Y31.3595 
G01 X24.1673 Y31.2273 
G01 X24.0931 Y31.0817 
G01 X24.0426 Y30.9263 
G01 X24.0171 Y30.7649 
G01 X24.0171 Y28.9251 
G01 X24.0426 Y28.7637 
G01 X24.0931 Y28.6083 
G01 X24.1673 Y28.4627 
G01 X24.2634 Y28.3305 
G01 X24.3789 Y28.2149 
G01 X24.5111 Y28.1188 
G01 X24.6567 Y28.0447 
G01 X24.8122 Y27.9942 
G01 X24.9736 Y27.9686 
G01 X25.1370 Y27.9686 
G01 X25.2984 Y27.9942 
G01 X25.4538 Y28.0447 
G01 X25.5994 Y28.1188 
G01 X25.7316 Y28.2149 
G01 X25.8472 Y28.3305 
G01 X25.9432 Y28.4627 
G01 X26.0174 Y28.6083 
G01 X26.0679 Y28.7637 
G01 X26.0935 Y28.9251 
G01 X26.0935 Y30.7649 
G00 Z5.0000  
G00 X23.1906 Y30.7649 
G01 Z-0.0250 F50    
G01 X23.1651 Y30.9263 F50    
G01 X23.1146 Y31.0817 
G01 X23.0404 Y31.2273 
G01 X22.9443 Y31.3595 
G01 X22.8288 Y31.4751 
G01 X22.6966 Y31.5711 
G01 X22.5510 Y31.6453 
G01 X22.3955 Y31.6958 
G01 X22.2341 Y31.7214 
G01 X22.0707 Y31.7214 
G01 X21.9093 Y31.6958 
G01 X21.7539 Y31.6453 
G01 X21.6083 Y31.5711 
G01 X21.4761 Y31.4751 
G01 X21.3605 Y31.3595 
G01 X21.2645 Y31.2273 
G01 X21.1903 Y31.0817 
G01 X21.1398 Y30.9263 
G01 X21.1142 Y30.7649 
G01 X21.1142 Y28.9251 
G01 X21.1398 Y28.7637 
G01 X21.1903 Y28.6083 
G01 X21.2645 Y28.4627 
G01 X21.3605 Y28.3305 
G01 X21.4761 Y28.2149 
G01 X21.6083 Y28.1188 
G01 X21.7539 Y28.0447 
G01 X21.9093 Y27.9942 
G01 X22.0707 Y27.9686 
G01 X22.2341 Y27.9686 
G01 X22.3955 Y27.9942 
G01 X22.5510 Y28.0447 
G01 X22.6966 Y28.1188 
G01 X22.8288 Y28.2149 
G01 X22.9443 Y28.3305 
G01 X23.0404 Y28.4627 
G01 X23.1146 Y28.6083 
G01 X23.1651 Y28.7637 
G01 X23.1906 Y28.9251 
G01 X23.1906 Y30.7649 
G00 Z5.0000  
G00 X20.3105 Y31.1617 
G01 Z-0.0250 F50    
G01 X20.4261 Y31.2772 F50    
G01 X20.5221 Y31.4094 
G01 X20.5963 Y31.5550 
G01 X20.6468 Y31.7104 
G01 X20.6724 Y31.8718 
G01 X20.6724 Y32.0353 
G01 X20.6468 Y32.1967 
G01 X20.5963 Y32.3521 
G01 X20.5221 Y32.4977 
G01 X20.4261 Y32.6299 
G01 X20.3105 Y32.7455 
G01 X20.1783 Y32.8415 
G01 X20.0327 Y32.9157 
G01 X19.8773 Y32.9662 
G01 X19.7460 Y32.9870 
G01 X19.7460 Y38.2145 
G01 X23.4656 Y41.9341 
G01 X23.5979 Y42.0664 
G01 X23.7019 Y42.2220 
G01 X23.7735 Y42.3949 
G01 X23.8100 Y42.5784 
G01 X23.8100 Y46.5756 
G01 X23.7735 Y46.7591 
G01 X23.7019 Y46.9320 
G01 X23.5979 Y47.0876 
G01 X21.9597 Y48.7258 
G01 X21.8041 Y48.8297 
G01 X21.6313 Y48.9013 
G01 X21.4477 Y48.9378 
G01 X20.0566 Y48.9378 
G01 X19.8773 Y49.0005 
G01 X19.7159 Y49.0260 
G01 X17.8761 Y49.0260 
G01 X17.7147 Y49.0005 
G01 X17.5593 Y48.9500 
G01 X17.4137 Y48.8758 
G01 X17.2815 Y48.7797 
G01 X17.1659 Y48.6642 
G01 X17.0698 Y48.5320 
G01 X16.9957 Y48.3864 
G01 X16.9452 Y48.2310 
G01 X16.9196 Y48.0696 
G01 X16.9196 Y47.9061 
G01 X16.9452 Y47.7447 
G01 X16.9957 Y47.5893 
G01 X17.0698 Y47.4437 
G01 X17.1659 Y47.3115 
G01 X17.2815 Y47.1959 
G01 X17.4137 Y47.0999 
G01 X17.5593 Y47.0257 
G01 X17.7147 Y46.9752 
G01 X17.8761 Y46.9496 
G01 X19.7159 Y46.9496 
G01 X19.8773 Y46.9752 
G01 X20.0327 Y47.0257 
G01 X20.9607 Y47.0378 
G01 X21.9100 Y46.0885 
G01 X21.9100 Y43.0655 
G01 X18.0581 Y39.2136 
G01 X17.9541 Y39.0580 
G01 X17.8825 Y38.8851 
G01 X17.8460 Y38.7016 
G01 X17.8460 Y32.9870 
G01 X17.7147 Y32.9662 
G01 X17.5593 Y32.9157 
G01 X17.4137 Y32.8415 
G01 X17.2815 Y32.7455 
G01 X17.1659 Y32.6299 
G01 X17.0698 Y32.4977 
G01 X16.9957 Y32.3521 
G01 X16.9452 Y32.1967 
G01 X16.9196 Y32.0353 
G01 X16.9196 Y31.8718 
G01 X16.9452 Y31.7104 
G01 X16.9957 Y31.5550 
G01 X17.0698 Y31.4094 
G01 X17.1659 Y31.2772 
G01 X17.2815 Y31.1617 
G01 X17.4137 Y31.0656 
G01 X17.5593 Y30.9914 
G01 X17.7147 Y30.9409 
G01 X17.8761 Y30.9154 
G01 X19.7159 Y30.9154 
G01 X19.8773 Y30.9409 
G01 X20.0327 Y30.9914 
G01 X20.1783 Y31.0656 
G01 X20.3105 Y31.1617 
G00 Z5.0000  
G00 X20.3105 Y29.3669 
G01 Z-0.0250 F50    
G01 X20.1783 Y29.4629 F50    
G01 X20.0327 Y29.5371 
G01 X19.8773 Y29.5876 
G01 X19.7159 Y29.6132 
G01 X17.8761 Y29.6132 
G01 X17.7147 Y29.5876 
G01 X17.5593 Y29.5371 
G01 X17.0305 Y29.5250 
G01 X15.6820 Y30.8735 
G01 X15.6820 Y41.7705 
G01 X17.9195 Y44.0080 
G01 X19.0165 Y44.0080 
G01 X19.2001 Y44.0445 
G01 X19.7159 Y44.0468 
G01 X19.8773 Y44.0723 
G01 X20.0327 Y44.1228 
G01 X20.1783 Y44.1970 
G01 X20.3105 Y44.2931 
G01 X20.4261 Y44.4086 
G01 X20.5221 Y44.5408 
G01 X20.5963 Y44.6865 
G01 X20.6468 Y44.8419 
G01 X20.6724 Y45.0033 
G01 X20.6724 Y45.1667 
G01 X20.6468 Y45.3281 
G01 X20.5963 Y45.4835 
G01 X20.5221 Y45.6291 
G01 X20.4261 Y45.7613 
G01 X20.3105 Y45.8769 
G01 X20.1783 Y45.9729 
G01 X20.0327 Y46.0471 
G01 X19.8773 Y46.0976 
G01 X19.7159 Y46.1232 
G01 X17.8761 Y46.1232 
G01 X17.7147 Y46.0976 
G01 X17.5593 Y46.0471 
G01 X17.4137 Y45.9729 
G01 X17.2835 Y45.8784 
G01 X17.2489 Y45.8715 
G01 X17.0760 Y45.7999 
G01 X16.9204 Y45.6959 
G01 X13.9941 Y42.7696 
G01 X13.8901 Y42.6140 
G01 X13.8185 Y42.4411 
G01 X13.7820 Y42.2576 
G01 X13.7820 Y30.3864 
G01 X13.8185 Y30.2029 
G01 X13.8901 Y30.0300 
G01 X13.9941 Y29.8744 
G01 X14.1264 Y29.7421 
G01 X16.0314 Y27.8371 
G01 X16.1870 Y27.7331 
G01 X16.3599 Y27.6615 
G01 X16.5434 Y27.6250 
G01 X17.5355 Y27.6250 
G01 X17.7147 Y27.5624 
G01 X17.8761 Y27.5368 
G01 X19.7159 Y27.5368 
G01 X19.8773 Y27.5624 
G01 X20.0327 Y27.6129 
G01 X20.1783 Y27.6870 
G01 X20.3105 Y27.7831 
G01 X20.4261 Y27.8987 
G01 X20.5221 Y28.0309 
G01 X20.5963 Y28.1765 
G01 X20.6468 Y28.3319 
G01 X20.6724 Y28.4933 
G01 X20.6724 Y28.6567 
G01 X20.6468 Y28.8181 
G01 X20.5963 Y28.9735 
G01 X20.5221 Y29.1191 
G01 X20.4261 Y29.2513 
G01 X20.3105 Y29.3669 
G00 Z5.0000  
G00 X20.2583 Y24.1266 
G01 Z-0.0250 F50    
G01 X20.0969 Y24.1522 F50    
G01 X18.2571 Y24.1522 
G01 X18.0957 Y24.1266 
G01 X17.9403 Y24.0761 
G01 X17.7947 Y24.0019 
G01 X17.6625 Y23.9059 
G01 X17.5469 Y23.7903 
G01 X17.4508 Y23.6581 
G01 X17.3767 Y23.5125 
G01 X17.3262 Y23.3571 
G01 X17.3006 Y23.1957 
G01 X17.3006 Y23.0323 
G01 X17.3262 Y22.8709 
G01 X17.3767 Y22.7155 
G01 X17.4508 Y22.5699 
G01 X17.5469 Y22.4377 
G01 X17.6625 Y22.3221 
G01 X17.7947 Y22.2261 
G01 X17.9403 Y22.1519 
G01 X18.0957 Y22.1014 
G01 X18.2571 Y22.0758 
G01 X20.0969 Y22.0758 
G01 X20.2583 Y22.1014 
G01 X20.4137 Y22.1519 
G01 X21.1965 Y22.1640 
G01 X22.1640 Y21.1965 
G01 X22.1640 Y19.4435 
G01 X18.0581 Y15.3376 
G01 X17.9541 Y15.1820 
G01 X17.8825 Y15.0091 
G01 X17.8460 Y14.8256 
G01 X17.8460 Y8.3994  
G01 X17.7147 Y8.3786  
G01 X17.5593 Y8.3281  
G01 X17.4137 Y8.2539  
G01 X17.2815 Y8.1579  
G01 X17.1659 Y8.0423  
G01 X17.0698 Y7.9101  
G01 X16.9957 Y7.7645  
G01 X16.9452 Y7.6091  
G01 X16.9196 Y7.4477  
G01 X16.9196 Y7.2843  
G01 X16.9452 Y7.1229  
G01 X16.9957 Y6.9675  
G01 X17.0698 Y6.8219  
G01 X17.1659 Y6.6897  
G01 X17.2815 Y6.5741  
G01 X17.4137 Y6.4780  
G01 X17.5593 Y6.4039  
G01 X17.7147 Y6.3534  
G01 X17.8761 Y6.3278  
G01 X19.7159 Y6.3278  
G01 X19.8773 Y6.3534  
G01 X20.0327 Y6.4039  
G01 X20.1783 Y6.4780  
G01 X20.3105 Y6.5741  
G01 X20.4261 Y6.6897  
G01 X20.5221 Y6.8219  
G01 X20.5963 Y6.9675  
G01 X20.6468 Y7.1229  
G01 X20.6724 Y7.2843  
G01 X20.6724 Y7.4477  
G01 X20.6468 Y7.6091  
G01 X20.5963 Y7.7645  
G01 X20.5221 Y7.9101  
G01 X20.4261 Y8.0423  
G01 X20.3105 Y8.1579  
G01 X20.1783 Y8.2539  
G01 X20.0327 Y8.3281  
G01 X19.8773 Y8.3786  
G01 X19.7460 Y8.3994  
G01 X19.7460 Y14.3385 
G01 X23.8519 Y18.4444 
G01 X23.9559 Y18.6000 
G01 X24.0275 Y18.7729 
G01 X24.0640 Y18.9564 
G01 X24.0640 Y21.6836 
G01 X24.0275 Y21.8671 
G01 X23.9559 Y22.0400 
G01 X23.8519 Y22.1956 
G01 X23.7196 Y22.3279 
G01 X22.1956 Y23.8519 
G01 X22.0400 Y23.9559 
G01 X21.8671 Y24.0275 
G01 X21.6836 Y24.0640 
G01 X20.4375 Y24.0640 
G01 X20.2583 Y24.1266 
G00 Z5.0000  
G00 X20.2583 Y21.3326 
G01 Z-0.0250 F50    
G01 X20.0969 Y21.3582 F50    
G01 X18.2571 Y21.3582 
G01 X18.0957 Y21.3326 
G01 X17.9403 Y21.2821 
G01 X17.4324 Y21.2700 
G01 X17.2489 Y21.2335 
G01 X17.0760 Y21.1619 
G01 X16.9204 Y21.0579 
G01 X14.2481 Y18.3856 
G01 X14.1441 Y18.2300 
G01 X14.0725 Y18.0571 
G01 X14.0360 Y17.8736 
G01 X14.0360 Y6.2564  
G01 X14.0725 Y6.0729  
G01 X14.1441 Y5.9000  
G01 X14.2481 Y5.7444  
G01 X16.2801 Y3.7124  
G01 X16.4124 Y3.5801  
G01 X16.5680 Y3.4761  
G01 X16.7409 Y3.4045  
G01 X16.9244 Y3.3680  
G01 X17.5355 Y3.3680  
G01 X17.7147 Y3.3054  
G01 X17.8761 Y3.2798  
G01 X19.7159 Y3.2798  
G01 X19.8773 Y3.3054  
G01 X20.0327 Y3.3559  
G01 X20.1783 Y3.4301  
G01 X20.3105 Y3.5261  
G01 X20.4261 Y3.6417  
G01 X20.5221 Y3.7739  
G01 X20.5963 Y3.9195  
G01 X20.6468 Y4.0749  
G01 X20.6724 Y4.2363  
G01 X20.6724 Y4.3997  
G01 X20.6468 Y4.5611  
G01 X20.5963 Y4.7165  
G01 X20.5221 Y4.8621  
G01 X20.4261 Y4.9943  
G01 X20.3105 Y5.1099  
G01 X20.1783 Y5.2059  
G01 X20.0327 Y5.2801  
G01 X19.8773 Y5.3306  
G01 X19.7159 Y5.3562  
G01 X17.8761 Y5.3562  
G01 X17.7147 Y5.3306  
G01 X17.5593 Y5.2801  
G01 X17.4115 Y5.2680  
G01 X15.9360 Y6.7435  
G01 X15.9360 Y17.3865 
G01 X17.9185 Y19.3690 
G01 X18.0957 Y19.3074 
G01 X18.2571 Y19.2818 
G01 X20.0969 Y19.2818 
G01 X20.2583 Y19.3074 
G01 X20.4137 Y19.3579 
G01 X20.5593 Y19.4321 
G01 X20.6915 Y19.5281 
G01 X20.8071 Y19.6437 
G01 X20.9031 Y19.7759 
G01 X20.9773 Y19.9215 
G01 X21.0278 Y20.0769 
G01 X21.0534 Y20.2383 
G01 X21.0534 Y20.4017 
G01 X21.0278 Y20.5631 
G01 X20.9773 Y20.7185 
G01 X20.9031 Y20.8641 
G01 X20.8071 Y20.9963 
G01 X20.6915 Y21.1119 
G01 X20.5593 Y21.2079 
G01 X20.4137 Y21.2821 
G01 X20.2583 Y21.3326 
G00 Z5.0000  
G00 X28.0859 Y21.3519 
G01 Z-0.0250 F50    
G01 X28.0575 Y21.1727 F50    
G01 X28.0575 Y20.9913 
G01 X28.0859 Y20.8121 
G01 X28.1419 Y20.6396 
G01 X28.2243 Y20.4780 
G01 X28.3309 Y20.3312 
G01 X28.4592 Y20.2029 
G01 X28.6060 Y20.0963 
G01 X28.7676 Y20.0139 
G01 X28.9401 Y19.9579 
G01 X29.1193 Y19.9295 
G01 X29.3007 Y19.9295 
G01 X29.4799 Y19.9579 
G01 X29.6524 Y20.0139 
G01 X29.8140 Y20.0963 
G01 X29.9608 Y20.2029 
G01 X30.0891 Y20.3312 
G01 X30.1957 Y20.4780 
G01 X30.2781 Y20.6396 
G01 X30.3341 Y20.8121 
G01 X30.3625 Y20.9913 
G01 X30.3625 Y21.1727 
G01 X30.3341 Y21.3519 
G01 X30.2781 Y21.5244 
G01 X30.1957 Y21.6860 
G01 X30.0891 Y21.8328 
G01 X29.9608 Y21.9611 
G01 X29.8140 Y22.0677 
G01 X29.6524 Y22.1501 
G01 X29.4799 Y22.2061 
G01 X29.3007 Y22.2345 
G01 X29.1193 Y22.2345 
G01 X28.9401 Y22.2061 
G01 X28.7676 Y22.1501 
G01 X28.6060 Y22.0677 
G01 X28.4592 Y21.9611 
G01 X28.3309 Y21.8328 
G01 X28.2243 Y21.6860 
G01 X28.1419 Y21.5244 
G01 X28.0859 Y21.3519 
G00 Z5.0000  
G00 X28.3309 Y22.8712 
G01 Z-0.0250 F50    
G01 X28.4592 Y22.7429 F50    
G01 X28.6060 Y22.6363 
G01 X28.7676 Y22.5539 
G01 X28.9401 Y22.4979 
G01 X29.1193 Y22.4695 
G01 X29.3007 Y22.4695 
G01 X29.4799 Y22.4979 
G01 X29.6524 Y22.5539 
G01 X29.8140 Y22.6363 
G01 X29.9608 Y22.7429 
G01 X30.0891 Y22.8712 
G01 X30.1957 Y23.0180 
G01 X30.2781 Y23.1796 
G01 X30.3341 Y23.3521 
G01 X30.3625 Y23.5313 
G01 X30.3625 Y23.7127 
G01 X30.3341 Y23.8919 
G01 X30.2781 Y24.0644 
G01 X30.1957 Y24.2260 
G01 X30.0891 Y24.3728 
G01 X29.9608 Y24.5011 
G01 X29.8140 Y24.6077 
G01 X29.6524 Y24.6901 
G01 X29.4799 Y24.7461 
G01 X29.3007 Y24.7745 
G01 X29.1193 Y24.7745 
G01 X28.9401 Y24.7461 
G01 X28.7676 Y24.6901 
G01 X28.6060 Y24.6077 
G01 X28.4592 Y24.5011 
G01 X28.3309 Y24.3728 
G01 X28.2243 Y24.2260 
G01 X28.1419 Y24.0644 
G01 X28.0859 Y23.8919 
G01 X28.0575 Y23.7127 
G01 X28.0575 Y23.5313 
G01 X28.0859 Y23.3521 
G01 X28.1419 Y23.1796 
G01 X28.2243 Y23.0180 
G01 X28.3309 Y22.8712 
G00 Z5.0000  
G00 X28.4592 Y19.4211 
G01 Z-0.0250 F50    
G01 X28.3309 Y19.2928 F50    
G01 X28.2243 Y19.1460 
G01 X28.1419 Y18.9844 
G01 X28.0859 Y18.8119 
G01 X28.0575 Y18.6327 
G01 X28.0575 Y18.4513 
G01 X28.0859 Y18.2721 
G01 X28.1419 Y18.0996 
G01 X28.2243 Y17.9380 
G01 X28.3309 Y17.7912 
G01 X28.4592 Y17.6629 
G01 X28.6060 Y17.5563 
G01 X28.7676 Y17.4739 
G01 X28.9401 Y17.4179 
G01 X29.1193 Y17.3895 
G01 X29.3007 Y17.3895 
G01 X29.4799 Y17.4179 
G01 X29.6524 Y17.4739 
G01 X29.8140 Y17.5563 
G01 X29.9608 Y17.6629 
G01 X30.0891 Y17.7912 
G01 X30.1957 Y17.9380 
G01 X30.2781 Y18.0996 
G01 X30.3341 Y18.2721 
G01 X30.3625 Y18.4513 
G01 X30.3625 Y18.6327 
G01 X30.3341 Y18.8119 
G01 X30.2781 Y18.9844 
G01 X30.1957 Y19.1460 
G01 X30.0891 Y19.2928 
G01 X29.9608 Y19.4211 
G01 X29.8140 Y19.5277 
G01 X29.6524 Y19.6101 
G01 X29.4799 Y19.6661 
G01 X29.3007 Y19.6945 
G01 X29.1193 Y19.6945 
G01 X28.9401 Y19.6661 
G01 X28.7676 Y19.6101 
G01 X28.6060 Y19.5277 
G01 X28.4592 Y19.4211 
G00 Z5.0000  
G00 X28.4592 Y16.8811 
G01 Z-0.0250 F50    
G01 X28.3309 Y16.7528 F50    
G01 X28.2243 Y16.6060 
G01 X28.1419 Y16.4444 
G01 X28.0859 Y16.2719 
G01 X28.0575 Y16.0927 
G01 X28.0575 Y15.9113 
G01 X28.0859 Y15.7321 
G01 X28.1419 Y15.5596 
G01 X28.2243 Y15.3980 
G01 X28.3309 Y15.2512 
G01 X28.4592 Y15.1229 
G01 X28.6060 Y15.0163 
G01 X28.7676 Y14.9339 
G01 X28.9401 Y14.8779 
G01 X29.1193 Y14.8495 
G01 X29.3007 Y14.8495 
G01 X29.4799 Y14.8779 
G01 X29.6524 Y14.9339 
G01 X29.8140 Y15.0163 
G01 X29.9608 Y15.1229 
G01 X30.0891 Y15.2512 
G01 X30.1957 Y15.3980 
G01 X30.2781 Y15.5596 
G01 X30.3341 Y15.7321 
G01 X30.3625 Y15.9113 
G01 X30.3625 Y16.0927 
G01 X30.3341 Y16.2719 
G01 X30.2781 Y16.4444 
G01 X30.1957 Y16.6060 
G01 X30.0891 Y16.7528 
G01 X29.9608 Y16.8811 
G01 X29.8140 Y16.9877 
G01 X29.6524 Y17.0701 
G01 X29.4799 Y17.1261 
G01 X29.3007 Y17.1545 
G01 X29.1193 Y17.1545 
G01 X28.9401 Y17.1261 
G01 X28.7676 Y17.0701 
G01 X28.6060 Y16.9877 
G01 X28.4592 Y16.8811 
G00 Z5.0000  
G00 X30.9295 Y16.9219 
G01 Z-0.0250 F50    
G01 X30.9295 Y15.0821 F50    
G01 X30.9551 Y14.9207 
G01 X31.0056 Y14.7653 
G01 X31.0798 Y14.6197 
G01 X31.1758 Y14.4875 
G01 X31.2914 Y14.3719 
G01 X31.4236 Y14.2759 
G01 X31.5692 Y14.2017 
G01 X31.7246 Y14.1512 
G01 X31.8860 Y14.1256 
G01 X32.0494 Y14.1256 
G01 X32.2108 Y14.1512 
G01 X32.3662 Y14.2017 
G01 X32.5118 Y14.2759 
G01 X32.6440 Y14.3719 
G01 X32.7596 Y14.4875 
G01 X32.8556 Y14.6197 
G01 X32.9298 Y14.7653 
G01 X32.9803 Y14.9207 
G01 X33.0059 Y15.0821 
G01 X33.0059 Y16.9219 
G01 X32.9803 Y17.0833 
G01 X32.9298 Y17.2387 
G01 X32.8556 Y17.3843 
G01 X32.7596 Y17.5165 
G01 X32.6440 Y17.6321 
G01 X32.5118 Y17.7281 
G01 X32.3662 Y17.8023 
G01 X32.2108 Y17.8528 
G01 X32.0494 Y17.8784 
G01 X31.8860 Y17.8784 
G01 X31.7246 Y17.8528 
G01 X31.5692 Y17.8023 
G01 X31.4236 Y17.7281 
G01 X31.2914 Y17.6321 
G01 X31.1758 Y17.5165 
G01 X31.0798 Y17.3843 
G01 X31.0056 Y17.2387 
G01 X30.9551 Y17.0833 
G01 X30.9295 Y16.9219 
G00 Z5.0000  
G00 X33.7054 Y16.9219 
G01 Z-0.0250 F50    
G01 X33.7054 Y15.0821 F50    
G01 X33.7309 Y14.9207 
G01 X33.7814 Y14.7653 
G01 X33.8556 Y14.6197 
G01 X33.9517 Y14.4875 
G01 X34.0672 Y14.3719 
G01 X34.1994 Y14.2759 
G01 X34.3450 Y14.2017 
G01 X34.5004 Y14.1512 
G01 X34.6619 Y14.1256 
G01 X34.8253 Y14.1256 
G01 X34.9867 Y14.1512 
G01 X35.1421 Y14.2017 
G01 X35.2877 Y14.2759 
G01 X35.4199 Y14.3719 
G01 X35.5355 Y14.4875 
G01 X35.6315 Y14.6197 
G01 X35.7057 Y14.7653 
G01 X35.7562 Y14.9207 
G01 X35.7818 Y15.0821 
G01 X35.7818 Y16.9219 
G01 X35.7562 Y17.0833 
G01 X35.7057 Y17.2387 
G01 X35.6315 Y17.3843 
G01 X35.5355 Y17.5165 
G01 X35.4199 Y17.6321 
G01 X35.2877 Y17.7281 
G01 X35.1421 Y17.8023 
G01 X34.9867 Y17.8528 
G01 X34.8253 Y17.8784 
G01 X34.6619 Y17.8784 
G01 X34.5004 Y17.8528 
G01 X34.3450 Y17.8023 
G01 X34.1994 Y17.7281 
G01 X34.0672 Y17.6321 
G01 X33.9517 Y17.5165 
G01 X33.8556 Y17.3843 
G01 X33.7814 Y17.2387 
G01 X33.7309 Y17.0833 
G01 X33.7054 Y16.9219 
G00 Z5.0000  
G00 X30.0891 Y14.2128 
G01 Z-0.0250 F50    
G01 X29.9608 Y14.3411 F50    
G01 X29.8140 Y14.4477 
G01 X29.6524 Y14.5301 
G01 X29.4799 Y14.5861 
G01 X29.3007 Y14.6145 
G01 X29.1193 Y14.6145 
G01 X28.9401 Y14.5861 
G01 X28.7676 Y14.5301 
G01 X28.6060 Y14.4477 
G01 X28.4592 Y14.3411 
G01 X28.3309 Y14.2128 
G01 X28.2243 Y14.0660 
G01 X28.1419 Y13.9044 
G01 X28.0859 Y13.7319 
G01 X28.0575 Y13.5527 
G01 X28.0575 Y13.3713 
G01 X28.0859 Y13.1921 
G01 X28.1419 Y13.0196 
G01 X28.2243 Y12.8580 
G01 X28.3309 Y12.7112 
G01 X28.4592 Y12.5829 
G01 X28.6060 Y12.4763 
G01 X28.7676 Y12.3939 
G01 X28.9401 Y12.3379 
G01 X29.1193 Y12.3095 
G01 X29.3007 Y12.3095 
G01 X29.4799 Y12.3379 
G01 X29.6524 Y12.3939 
G01 X29.8140 Y12.4763 
G01 X29.9608 Y12.5829 
G01 X30.0891 Y12.7112 
G01 X30.1957 Y12.8580 
G01 X30.2781 Y13.0196 
G01 X30.3341 Y13.1921 
G01 X30.3625 Y13.3713 
G01 X30.3625 Y13.5527 
G01 X30.3341 Y13.7319 
G01 X30.2781 Y13.9044 
G01 X30.1957 Y14.0660 
G01 X30.0891 Y14.2128 
G00 Z5.0000  
G00 X30.0891 Y11.6728 
G01 Z-0.0250 F50    
G01 X29.9608 Y11.8011 F50    
G01 X29.8140 Y11.9077 
G01 X29.6524 Y11.9901 
G01 X29.4799 Y12.0461 
G01 X29.3007 Y12.0745 
G01 X29.1193 Y12.0745 
G01 X28.9401 Y12.0461 
G01 X28.7676 Y11.9901 
G01 X28.6060 Y11.9077 
G01 X28.4592 Y11.8011 
G01 X28.3309 Y11.6728 
G01 X28.2243 Y11.5260 
G01 X28.1419 Y11.3644 
G01 X28.0859 Y11.1919 
G01 X28.0575 Y11.0127 
G01 X28.0575 Y10.8313 
G01 X28.0859 Y10.6521 
G01 X28.1419 Y10.4796 
G01 X28.2243 Y10.3180 
G01 X28.3309 Y10.1712 
G01 X28.4592 Y10.0429 
G01 X28.6060 Y9.9363  
G01 X28.7676 Y9.8539  
G01 X28.9401 Y9.7979  
G01 X29.1193 Y9.7695  
G01 X29.3007 Y9.7695  
G01 X29.4799 Y9.7979  
G01 X29.6524 Y9.8539  
G01 X29.8140 Y9.9363  
G01 X29.9608 Y10.0429 
G01 X30.0891 Y10.1712 
G01 X30.1957 Y10.3180 
G01 X30.2781 Y10.4796 
G01 X30.3341 Y10.6521 
G01 X30.3625 Y10.8313 
G01 X30.3625 Y11.0127 
G01 X30.3341 Y11.1919 
G01 X30.2781 Y11.3644 
G01 X30.1957 Y11.5260 
G01 X30.0891 Y11.6728 
G00 Z5.0000  
G00 X30.0891 Y9.1328  
G01 Z-0.0250 F50    
G01 X29.9608 Y9.2611  F50    
G01 X29.8140 Y9.3677  
G01 X29.6524 Y9.4501  
G01 X29.4799 Y9.5061  
G01 X29.3007 Y9.5345  
G01 X29.1193 Y9.5345  
G01 X28.9401 Y9.5061  
G01 X28.7676 Y9.4501  
G01 X28.6060 Y9.3677  
G01 X28.4592 Y9.2611  
G01 X28.3309 Y9.1328  
G01 X28.2243 Y8.9860  
G01 X28.1419 Y8.8244  
G01 X28.0859 Y8.6519  
G01 X28.0575 Y8.4727  
G01 X28.0575 Y8.2913  
G01 X28.0859 Y8.1121  
G01 X28.1419 Y7.9396  
G01 X28.2243 Y7.7780  
G01 X28.3309 Y7.6312  
G01 X28.4592 Y7.5029  
G01 X28.6060 Y7.3963  
G01 X28.7676 Y7.3139  
G01 X28.9401 Y7.2579  
G01 X29.1193 Y7.2295  
G01 X29.3007 Y7.2295  
G01 X29.4799 Y7.2579  
G01 X29.6524 Y7.3139  
G01 X29.8140 Y7.3963  
G01 X29.9608 Y7.5029  
G01 X30.0891 Y7.6312  
G01 X30.1957 Y7.7780  
G01 X30.2781 Y7.9396  
G01 X30.3341 Y8.1121  
G01 X30.3625 Y8.2913  
G01 X30.3625 Y8.4727  
G01 X30.3341 Y8.6519  
G01 X30.2781 Y8.8244  
G01 X30.1957 Y8.9860  
G01 X30.0891 Y9.1328  
G00 Z5.0000  
G00 X30.9295 Y9.3019  
G01 Z-0.0250 F50    
G01 X30.9295 Y7.4621  F50    
G01 X30.9551 Y7.3007  
G01 X31.0056 Y7.1453  
G01 X31.0798 Y6.9997  
G01 X31.1758 Y6.8675  
G01 X31.2914 Y6.7519  
G01 X31.4236 Y6.6559  
G01 X31.5692 Y6.5817  
G01 X31.7246 Y6.5312  
G01 X31.8860 Y6.5056  
G01 X32.0494 Y6.5056  
G01 X32.2108 Y6.5312  
G01 X32.3662 Y6.5817  
G01 X32.5118 Y6.6559  
G01 X32.6440 Y6.7519  
G01 X32.7596 Y6.8675  
G01 X32.8556 Y6.9997  
G01 X32.9298 Y7.1453  
G01 X32.9803 Y7.3007  
G01 X33.0059 Y7.4621  
G01 X33.0059 Y9.3019  
G01 X32.9803 Y9.4633  
G01 X32.9298 Y9.6187  
G01 X32.8556 Y9.7643  
G01 X32.7596 Y9.8965  
G01 X32.6440 Y10.0121 
G01 X32.5118 Y10.1081 
G01 X32.3662 Y10.1823 
G01 X32.2108 Y10.2328 
G01 X32.0494 Y10.2584 
G01 X31.8860 Y10.2584 
G01 X31.7246 Y10.2328 
G01 X31.5692 Y10.1823 
G01 X31.4236 Y10.1081 
G01 X31.2914 Y10.0121 
G01 X31.1758 Y9.8965  
G01 X31.0798 Y9.7643  
G01 X31.0056 Y9.6187  
G01 X30.9551 Y9.4633  
G01 X30.9295 Y9.3019  
G00 Z5.0000  
G00 X33.7054 Y9.3019  
G01 Z-0.0250 F50    
G01 X33.7054 Y7.4621  F50    
G01 X33.7309 Y7.3007  
G01 X33.7814 Y7.1453  
G01 X33.8556 Y6.9997  
G01 X33.9517 Y6.8675  
G01 X34.0672 Y6.7519  
G01 X34.1994 Y6.6559  
G01 X34.3450 Y6.5817  
G01 X34.5004 Y6.5312  
G01 X34.6619 Y6.5056  
G01 X34.8253 Y6.5056  
G01 X34.9867 Y6.5312  
G01 X35.1421 Y6.5817  
G01 X35.2877 Y6.6559  
G01 X35.4199 Y6.7519  
G01 X35.5355 Y6.8675  
G01 X35.6315 Y6.9997  
G01 X35.7057 Y7.1453  
G01 X35.7562 Y7.3007  
G01 X35.7818 Y7.4621  
G01 X35.7818 Y9.3019  
G01 X35.7562 Y9.4633  
G01 X35.7057 Y9.6187  
G01 X35.6315 Y9.7643  
G01 X35.5355 Y9.8965  
G01 X35.4199 Y10.0121 
G01 X35.2877 Y10.1081 
G01 X35.1421 Y10.1823 
G01 X34.9867 Y10.2328 
G01 X34.8253 Y10.2584 
G01 X34.6619 Y10.2584 
G01 X34.5004 Y10.2328 
G01 X34.3450 Y10.1823 
G01 X34.1994 Y10.1081 
G01 X34.0672 Y10.0121 
G01 X33.9517 Y9.8965  
G01 X33.8556 Y9.7643  
G01 X33.7814 Y9.6187  
G01 X33.7309 Y9.4633  
G01 X33.7054 Y9.3019  
G00 Z5.0000  
G00 X30.0891 Y6.5928  
G01 Z-0.0250 F50    
G01 X29.9608 Y6.7211  F50    
G01 X29.8140 Y6.8277  
G01 X29.6524 Y6.9101  
G01 X29.4799 Y6.9661  
G01 X29.3007 Y6.9945  
G01 X29.1193 Y6.9945  
G01 X28.9401 Y6.9661  
G01 X28.7676 Y6.9101  
G01 X28.6060 Y6.8277  
G01 X28.4592 Y6.7211  
G01 X28.3309 Y6.5928  
G01 X28.2243 Y6.4460  
G01 X28.1419 Y6.2844  
G01 X28.0859 Y6.1119  
G01 X28.0575 Y5.9327  
G01 X28.0575 Y5.7513  
G01 X28.0859 Y5.5721  
G01 X28.1419 Y5.3996  
G01 X28.2243 Y5.2380  
G01 X28.3309 Y5.0912  
G01 X28.4592 Y4.9629  
G01 X28.6060 Y4.8563  
G01 X28.7676 Y4.7739  
G01 X28.9401 Y4.7179  
G01 X29.1193 Y4.6895  
G01 X29.3007 Y4.6895  
G01 X29.4799 Y4.7179  
G01 X29.6524 Y4.7739  
G01 X29.8140 Y4.8563  
G01 X29.9608 Y4.9629  
G01 X30.0891 Y5.0912  
G01 X30.1957 Y5.2380  
G01 X30.2781 Y5.3996  
G01 X30.3341 Y5.5721  
G01 X30.3625 Y5.7513  
G01 X30.3625 Y5.9327  
G01 X30.3341 Y6.1119  
G01 X30.2781 Y6.2844  
G01 X30.1957 Y6.4460  
G01 X30.0891 Y6.5928  
G00 Z5.0000  
G00 X26.6559 Y6.5079  
G01 Z-0.0250 F50    
G01 X26.6303 Y6.6693  F50    
G01 X26.5798 Y6.8247  
G01 X26.5056 Y6.9703  
G01 X26.4096 Y7.1025  
G01 X26.2940 Y7.2181  
G01 X26.1618 Y7.3141  
G01 X26.0162 Y7.3883  
G01 X25.8608 Y7.4388  
G01 X25.6994 Y7.4644  
G01 X25.5360 Y7.4644  
G01 X25.3746 Y7.4388  
G01 X25.2192 Y7.3883  
G01 X25.0736 Y7.3141  
G01 X24.9414 Y7.2181  
G01 X24.8258 Y7.1025  
G01 X24.7298 Y6.9703  
G01 X24.6556 Y6.8247  
G01 X24.6051 Y6.6693  
G01 X24.5795 Y6.5079  
G01 X24.5795 Y4.6681  
G01 X24.6051 Y4.5067  
G01 X24.6556 Y4.3513  
G01 X24.7298 Y4.2057  
G01 X24.8258 Y4.0735  
G01 X24.9414 Y3.9579  
G01 X25.0736 Y3.8619  
G01 X25.2192 Y3.7877  
G01 X25.3746 Y3.7372  
G01 X25.5360 Y3.7116  
G01 X25.6994 Y3.7116  
G01 X25.8608 Y3.7372  
G01 X26.0162 Y3.7877  
G01 X26.1618 Y3.8619  
G01 X26.2940 Y3.9579  
G01 X26.4096 Y4.0735  
G01 X26.5056 Y4.2057  
G01 X26.5798 Y4.3513  
G01 X26.6303 Y4.5067  
G01 X26.6559 Y4.6681  
G01 X26.6559 Y6.5079  
G00 Z5.0000  
G00 X24.0978 Y6.5079  
G01 Z-0.0250 F50    
G01 X24.0722 Y6.6693  F50    
G01 X24.0217 Y6.8247  
G01 X23.9475 Y6.9703  
G01 X23.8515 Y7.1025  
G01 X23.7359 Y7.2181  
G01 X23.6037 Y7.3141  
G01 X23.4581 Y7.3883  
G01 X23.3027 Y7.4388  
G01 X23.1413 Y7.4644  
G01 X22.9779 Y7.4644  
G01 X22.8164 Y7.4388  
G01 X22.6610 Y7.3883  
G01 X22.5154 Y7.3141  
G01 X22.3832 Y7.2181  
G01 X22.2677 Y7.1025  
G01 X22.1716 Y6.9703  
G01 X22.0974 Y6.8247  
G01 X22.0469 Y6.6693  
G01 X22.0214 Y6.5079  
G01 X22.0214 Y4.6681  
G01 X22.0469 Y4.5067  
G01 X22.0974 Y4.3513  
G01 X22.1716 Y4.2057  
G01 X22.2677 Y4.0735  
G01 X22.3832 Y3.9579  
G01 X22.5154 Y3.8619  
G01 X22.6610 Y3.7877  
G01 X22.8164 Y3.7372  
G01 X22.9779 Y3.7116  
G01 X23.1413 Y3.7116  
G01 X23.3027 Y3.7372  
G01 X23.4581 Y3.7877  
G01 X23.6037 Y3.8619  
G01 X23.7359 Y3.9579  
G01 X23.8515 Y4.0735  
G01 X23.9475 Y4.2057  
G01 X24.0217 Y4.3513  
G01 X24.0722 Y4.5067  
G01 X24.0978 Y4.6681  
G01 X24.0978 Y6.5079  
G00 Z5.0000  
G00 X23.7359 Y11.5779 
G01 Z-0.0250 F50    
G01 X23.8515 Y11.6935 F50    
G01 X23.9475 Y11.8257 
G01 X24.0217 Y11.9713 
G01 X24.0722 Y12.1267 
G01 X24.0978 Y12.2881 
G01 X24.0978 Y14.1279 
G01 X24.0722 Y14.2893 
G01 X24.0217 Y14.4447 
G01 X23.9475 Y14.5903 
G01 X23.8515 Y14.7225 
G01 X23.7359 Y14.8381 
G01 X23.6037 Y14.9341 
G01 X23.4581 Y15.0083 
G01 X23.3027 Y15.0588 
G01 X23.1413 Y15.0844 
G01 X22.9779 Y15.0844 
G01 X22.8164 Y15.0588 
G01 X22.6610 Y15.0083 
G01 X22.5154 Y14.9341 
G01 X22.3832 Y14.8381 
G01 X22.2677 Y14.7225 
G01 X22.1716 Y14.5903 
G01 X22.0974 Y14.4447 
G01 X22.0469 Y14.2893 
G01 X22.0214 Y14.1279 
G01 X22.0214 Y12.2881 
G01 X22.0469 Y12.1267 
G01 X22.0974 Y11.9713 
G01 X22.1716 Y11.8257 
G01 X22.2677 Y11.6935 
G01 X22.3832 Y11.5779 
G01 X22.5154 Y11.4818 
G01 X22.6610 Y11.4077 
G01 X22.8164 Y11.3572 
G01 X22.9779 Y11.3316 
G01 X23.1413 Y11.3316 
G01 X23.3027 Y11.3572 
G01 X23.4581 Y11.4077 
G01 X23.6037 Y11.4818 
G01 X23.7359 Y11.5779 
G00 Z5.0000  
G00 X24.8258 Y11.6935 
G01 Z-0.0250 F50    
G01 X24.9414 Y11.5779 F50    
G01 X25.0736 Y11.4818 
G01 X25.2192 Y11.4077 
G01 X25.3746 Y11.3572 
G01 X25.5360 Y11.3316 
G01 X25.6994 Y11.3316 
G01 X25.8608 Y11.3572 
G01 X26.0162 Y11.4077 
G01 X26.1618 Y11.4818 
G01 X26.2940 Y11.5779 
G01 X26.4096 Y11.6935 
G01 X26.5056 Y11.8257 
G01 X26.5798 Y11.9713 
G01 X26.6303 Y12.1267 
G01 X26.6559 Y12.2881 
G01 X26.6559 Y14.1279 
G01 X26.6303 Y14.2893 
G01 X26.5798 Y14.4447 
G01 X26.5056 Y14.5903 
G01 X26.4096 Y14.7225 
G01 X26.2940 Y14.8381 
G01 X26.1618 Y14.9341 
G01 X26.0162 Y15.0083 
G01 X25.8608 Y15.0588 
G01 X25.6994 Y15.0844 
G01 X25.5360 Y15.0844 
G01 X25.3746 Y15.0588 
G01 X25.2192 Y15.0083 
G01 X25.0736 Y14.9341 
G01 X24.9414 Y14.8381 
G01 X24.8258 Y14.7225 
G01 X24.7298 Y14.5903 
G01 X24.6556 Y14.4447 
G01 X24.6051 Y14.2893 
G01 X24.5795 Y14.1279 
G01 X24.5795 Y12.2881 
G01 X24.6051 Y12.1267 
G01 X24.6556 Y11.9713 
G01 X24.7298 Y11.8257 
G01 X24.8258 Y11.6935 
G00 Z5.0000  
G00 X12.8061 Y8.0423  
G01 Z-0.0250 F50    
G01 X12.6905 Y8.1579  F50    
G01 X12.5583 Y8.2539  
G01 X12.4127 Y8.3281  
G01 X12.2573 Y8.3786  
G01 X12.0959 Y8.4042  
G01 X10.2561 Y8.4042  
G01 X10.0947 Y8.3786  
G01 X9.9393  Y8.3281  
G01 X9.7937  Y8.2539  
G01 X9.6615  Y8.1579  
G01 X9.5459  Y8.0423  
G01 X9.4498  Y7.9101  
G01 X9.3757  Y7.7645  
G01 X9.3252  Y7.6091  
G01 X9.2996  Y7.4477  
G01 X9.2996  Y7.2843  
G01 X9.3252  Y7.1229  
G01 X9.3757  Y6.9675  
G01 X9.4498  Y6.8219  
G01 X9.5459  Y6.6897  
G01 X9.6615  Y6.5741  
G01 X9.7937  Y6.4780  
G01 X9.9393  Y6.4039  
G01 X10.0947 Y6.3534  
G01 X10.2561 Y6.3278  
G01 X12.0959 Y6.3278  
G01 X12.2573 Y6.3534  
G01 X12.4127 Y6.4039  
G01 X12.5583 Y6.4780  
G01 X12.6905 Y6.5741  
G01 X12.8061 Y6.6897  
G01 X12.9021 Y6.8219  
G01 X12.9763 Y6.9675  
G01 X13.0268 Y7.1229  
G01 X13.0524 Y7.2843  
G01 X13.0524 Y7.4477  
G01 X13.0268 Y7.6091  
G01 X12.9763 Y7.7645  
G01 X12.9021 Y7.9101  
G01 X12.8061 Y8.0423  
G00 Z5.0000  
G00 X12.8061 Y4.9943  
G01 Z-0.0250 F50    
G01 X12.6905 Y5.1099  F50    
G01 X12.5583 Y5.2059  
G01 X12.4127 Y5.2801  
G01 X12.2573 Y5.3306  
G01 X12.0959 Y5.3562  
G01 X10.2561 Y5.3562  
G01 X10.0947 Y5.3306  
G01 X9.9393  Y5.2801  
G01 X9.7937  Y5.2059  
G01 X9.6615  Y5.1099  
G01 X9.5459  Y4.9943  
G01 X9.4498  Y4.8621  
G01 X9.3757  Y4.7165  
G01 X9.3252  Y4.5611  
G01 X9.2996  Y4.3997  
G01 X9.2996  Y4.2363  
G01 X9.3252  Y4.0749  
G01 X9.3757  Y3.9195  
G01 X9.4498  Y3.7739  
G01 X9.5459  Y3.6417  
G01 X9.6615  Y3.5261  
G01 X9.7937  Y3.4301  
G01 X9.9393  Y3.3559  
G01 X10.0947 Y3.3054  
G01 X10.2561 Y3.2798  
G01 X12.0959 Y3.2798  
G01 X12.2573 Y3.3054  
G01 X12.4127 Y3.3559  
G01 X12.5583 Y3.4301  
G01 X12.6905 Y3.5261  
G01 X12.8061 Y3.6417  
G01 X12.9021 Y3.7739  
G01 X12.9763 Y3.9195  
G01 X13.0268 Y4.0749  
G01 X13.0524 Y4.2363  
G01 X13.0524 Y4.3997  
G01 X13.0268 Y4.5611  
G01 X12.9763 Y4.7165  
G01 X12.9021 Y4.8621  
G01 X12.8061 Y4.9943  
G00 Z5.0000  
