(.../eagleLibs/ULP/pcb-gcode.ulp)
(Copyright 2005 - 2012 by John Johnson)
(See readme.txt for licensing terms.)
(This file generated from the board:)
(.../EAGLE/projects/Jonica/schematic.brd)
(Current profile is .../eagleLibs/ULP/profiles/mach.pp  )
(This file generated 15/11/2018 12:39)
(Settings from pcb-machine.h)
(  Tool Size)
(0.3000  )
(Z Axis Settings)
(  High     Up        Down     Drill)
(5.0000  	3.0000  	-0.0250 	-1.0000 )
(spindle on time = 5.0000)
(milling depth = -0.0250)
(text depth = -0.0050)
(tool change at 0.5000  0.6000  1.0000  )
(feed rate xy = F50    )
(feed rate z  = F10    )
(Settings from pcb-defaults.h)
(isolate min = 0.3000)
(isolate max = 15.0000)
(isolate step = 0.3000)
(Generated bottom outlines, bottom drill, )
(Unit of measure: mm)
( Tool|       Size       |  Min Sub |  Max Sub |   Count )
( T01 | 0.800mm 0.0315in | 0.0000in | 0.0000in |       0 )
( T02 | 0.813mm 0.0320in | 0.0000in | 0.0000in |       0 )
( T03 | 1.000mm 0.0394in | 0.0000in | 0.0000in |       0 )
( T04 | 1.016mm 0.0400in | 0.0000in | 0.0000in |       0 )
( T05 | 1.194mm 0.0470in | 0.0000in | 0.0000in |       0 )
(Metric Mode)
G21
(Absolute Coordinates)
G90
M05
G00 Z1.0000  
G00 X0.5000  Y0.6000  
M06 T01  ; 0.8000  
G01 Z0.0000  F10    
M06 T01  ; 0.8000  
G00 Z3.0000  
M03
G04 P5.000000
G82 X-41.9100 Y57.7850 Z-1.0000 F10    R3.0000  P3.000000
G82 X-41.9100 Y60.3250 
G82 X-41.9100 Y62.8650 
G82 X-41.9100 Y65.4050 
G82 X-41.9100 Y67.9450 
G82 X-41.9100 Y70.4850 
G82 X-41.9100 Y73.0250 
G82 X-41.9100 Y75.5650 
G82 X-41.9100 Y80.7720 
G82 X-41.9100 Y83.3120 
G82 X-41.9100 Y85.8520 
G82 X-41.9100 Y88.3920 
G82 X-41.9100 Y90.9320 
G82 X-41.9100 Y93.4720 
G82 X-41.9100 Y96.0120 
G82 X-41.9100 Y98.5520 
G82 X-42.1640 Y33.7820 
G82 X-42.1640 Y36.3220 
G82 X-42.1640 Y38.8620 
G82 X-42.1640 Y41.4020 
G82 X-42.1640 Y43.9420 
G82 X-42.1640 Y46.4820 
G82 X-42.1640 Y49.0220 
G82 X-42.1640 Y51.5620 
G82 X-29.2100 Y57.7850 
G82 X-29.2100 Y60.3250 
G82 X-29.2100 Y62.8650 
G82 X-29.2100 Y65.4050 
G82 X-29.2100 Y67.9450 
G82 X-29.2100 Y70.4850 
G82 X-29.2100 Y73.0250 
G82 X-29.2100 Y75.5650 
G82 X-29.2100 Y80.7720 
G82 X-29.2100 Y83.3120 
G82 X-29.2100 Y85.8520 
G82 X-29.2100 Y88.3920 
G82 X-29.2100 Y90.9320 
G82 X-29.2100 Y93.4720 
G82 X-29.2100 Y96.0120 
G82 X-29.2100 Y98.5520 
G82 X-29.4640 Y33.7820 
G82 X-29.4640 Y36.3220 
G82 X-29.4640 Y38.8620 
G82 X-29.4640 Y41.4020 
G82 X-29.4640 Y43.9420 
G82 X-29.4640 Y46.4820 
G82 X-29.4640 Y49.0220 
G82 X-29.4640 Y51.5620 
M05
G00 Z1.0000  
M06 T02  ; 0.8128  
G01 Z0.0000  F10    
M06 T02  ; 0.8128  
G00 Z3.0000  
M03
G04 P5.000000
G82 X-32.2217 Y36.3220 Z-1.0000 F10    R3.0000  P3.000000
G82 X-32.2217 Y43.9420 
G82 X-32.2217 Y60.3250 
G82 X-32.2217 Y67.9450 
G82 X-32.2580 Y83.3120 
G82 X-32.2580 Y90.9320 
G82 X-34.9976 Y36.3220 
G82 X-34.9976 Y43.9420 
G82 X-34.9976 Y60.3250 
G82 X-34.9976 Y67.9450 
G82 X-35.0520 Y83.3120 
G82 X-35.0520 Y90.9320 
G82 X-47.7520 Y101.8858 
G82 X-47.7520 Y105.3783 
G82 X-56.6420 Y100.3618 
G82 X-56.6420 Y103.8543 
G82 X-11.4300 Y32.2580 
G82 X-11.4300 Y35.3060 
G82 X-11.4300 Y56.5150 
G82 X-11.4300 Y59.8936 
G82 X-11.4300 Y73.0250 
G82 X-11.4300 Y75.9278 
G82 X-11.4300 Y80.3910 
G82 X-11.4300 Y83.4390 
G82 X-11.6840 Y96.2660 
G82 X-11.6840 Y99.5680 
G82 X-11.8110 Y48.2600 
G82 X-11.8110 Y51.0540 
G82 X-19.0500 Y32.2580 
G82 X-19.0500 Y35.3060 
G82 X-19.0500 Y56.5150 
G82 X-19.0500 Y59.8936 
G82 X-19.0500 Y73.0250 
G82 X-19.0500 Y75.9278 
G82 X-19.0500 Y80.3910 
G82 X-19.0500 Y83.4390 
G82 X-19.3040 Y96.2660 
G82 X-19.3040 Y99.5680 
G82 X-19.4310 Y48.2600 
G82 X-19.4310 Y51.0540 
G82 X-22.3520 Y80.7720 
G82 X-22.3520 Y88.3920 
G82 X-22.4064 Y57.7850 
G82 X-22.4064 Y65.4050 
G82 X-23.3136 Y33.5280 
G82 X-23.3136 Y41.1480 
G82 X-25.3093 Y57.7850 
G82 X-25.3093 Y65.4050 
G82 X-25.4000 Y80.7720 
G82 X-25.4000 Y88.3920 
G82 X-25.8717 Y33.5280 
G82 X-25.8717 Y41.1480 
M05
G00 Z1.0000  
M06 T03  ; 1.0000  
G01 Z0.0000  F10    
M06 T03  ; 1.0000  
G00 Z3.0000  
M03
G04 P5.000000
G82 X-36.5880 Y96.0120 Z-1.0000 F10    R3.0000  P3.000000
G82 X-36.8300 Y72.8980 
G82 X-37.5920 Y49.0220 
G82 X-46.9900 Y96.2660 
G82 X-49.7840 Y83.3120 
G82 X-50.8000 Y36.0680 
G82 X-50.8000 Y38.6080 
G82 X-50.8000 Y41.1480 
G82 X-50.8000 Y43.6880 
G82 X-50.8000 Y46.2280 
G82 X-50.8000 Y48.7680 
G82 X-50.8000 Y51.3080 
G82 X-50.8000 Y53.8480 
G82 X-50.8000 Y56.3880 
G82 X-50.8000 Y58.9280 
G82 X-50.8000 Y61.4680 
G82 X-50.8000 Y64.0080 
G82 X-50.8000 Y66.5480 
G82 X-50.8000 Y69.0880 
G82 X-50.8000 Y71.6280 
G82 X-52.0700 Y81.2800 
G82 X-53.1020 Y58.9280 
G82 X-53.1020 Y61.4680 
G82 X-55.8800 Y90.6780 
G82 X-57.1500 Y87.1220 
G82 X-59.6900 Y70.3580 
G82 X-60.2140 Y65.0080 
G82 X-62.9920 Y53.8480 
G82 X-66.0400 Y36.0680 
G82 X-66.0400 Y38.6080 
G82 X-66.0400 Y41.1480 
G82 X-66.0400 Y43.6880 
G82 X-66.0400 Y46.2280 
G82 X-66.0400 Y48.7680 
G82 X-66.0400 Y51.3080 
G82 X-66.0400 Y53.8480 
G82 X-66.0400 Y56.3880 
G82 X-66.0400 Y58.9280 
G82 X-66.0400 Y61.4680 
G82 X-66.0400 Y64.0080 
G82 X-66.0400 Y66.5480 
G82 X-66.0400 Y69.0880 
G82 X-66.0400 Y71.6280 
G82 X-20.0660 Y102.8700 
M05
G00 Z1.0000  
M06 T04  ; 1.0160  
G01 Z0.0000  F10    
M06 T04  ; 1.0160  
G00 Z3.0000  
M03
G04 P5.000000
G82 X-51.8414 Y100.3300 Z-1.0000 F10    R3.0000  P3.000000
G82 X-51.8414 Y102.8700 
G82 X-51.8414 Y105.4100 
M05
G00 Z1.0000  
M06 T05  ; 1.1938  
G01 Z0.0000  F10    
M06 T05  ; 1.1938  
G00 Z3.0000  
M03
G04 P5.000000
G82 X-4.3815 Y34.5370 Z-1.0000 F10    R3.0000  P3.000000
G82 X-4.3815 Y39.5370 
G82 X-4.3815 Y44.5370 
G82 X-4.3815 Y49.5370 
G82 X-4.3815 Y59.1750 
G82 X-4.3815 Y64.1750 
G82 X-4.3815 Y69.1750 
G82 X-4.3815 Y74.1750 
G82 X-4.4575 Y83.0510 
G82 X-4.4575 Y88.0510 
G82 X-4.4575 Y93.0510 
G82 X-4.4575 Y98.0510 
G82 X-63.3730 Y79.4130 
G82 X-63.3730 Y84.4130 
G82 X-63.3730 Y90.4640 
G82 X-63.3730 Y95.4640 
G82 X-24.4240 Y108.0770 
G82 X-29.4240 Y108.0770 
T01 
G00 Z5.0000  
M05
M02
